P2
640 480
255
0 0 220 0 0 0 0 0 205 0 205 0 0 0 0 0 0 211 211 0 212 211 210 209 0 210 211 0 211 210 210 210 210 0 210 210 210 0 209 0 209 208 0 208 209 0 209 208 0 209 0 208 208 208 0 208 208 0 207 207 0 206 207 207 207 207 207 207 207 207 207 0 205 204 0 205 205 204 204 204 203 202 0 0 201 201 0 200 199 199 0 199 198 198 0 197 197 0 0 0 195 0 194 193 192 0 191 191 190 190 190 0 189 189 0 188 0 0 187 0 0 186 186 186 186 0 186 186 187 0 0 0 186 186 0 185 0 186 186 0 186 0 0 185 185 0 0 185 0 185 185 0 185 184 185 0 185 0 0 0 185 0 185 0 0 184 183 0 0 183 0 0 183 183 183 0 183 183 0 183 0 0 0 184 0 183 183 0 183 0 182 0 182 0 183 0 0 0 183 0 183 183 0 182 0 182 0 0 0 0 0 182 0 0 183 0 183 183 0 0 0 184 0 184 0 0 0 185 0 0 0 184 0 184 184 184 0 0 0 0 0 0 150 149 150 153 156 0 0 159 154 0 0 0 158 0 159 0 0 159 0 159 159 0 160 160 160 0 162 0 162 163 164 164 166 0 172 0 0 175 175 175 0 174 0 176 0 176 0 176 175 0 175 175 0 174 174 174 0 174 174 0 174 174 0 0 0 0 174 174 174 0 174 173 0 172 0 0 171 170 0 167 166 0 0 165 0 0 0 0 165 165 0 0 166 0 0 167 167 0 169 0 0 0 171 172 0 0 172 0 172 172 0 172 172 0 0 172 0 0 172 172 0 0 0 0 174 174 0 175 175 177 0 0 0 181 182 184 188 0 0 0 0 0 248 248 248 248 248 248 248 248 248 248 248 248 248 248 248 248 248 248 248 248 248 248 248 248 248 248 248 248 248 248 248 248 248 248 248 248 248 248 248 248 248 248 248 248 248 248 248 248 248 248 248 248 248 248 248 248 248 248 248 248 248 248 248 248 248 248 248 248 248 248 248 248 248 248 248 248 248 248 248 248 248 248 248 248 248 248 248 248 248 248 248 248 248 248 248 248 248 248 248 248 248 248 248 248 248 248 248 248 248 248 248 248 248 248 248 248 248 248 248 248 248 248 248 248 248 248 248 248 248 248 248 248 248 248 248 248 248 248 248 248 248 248 248 248 248 248 248 248 248 248 248 248 248 248 248 248 248 248 248 248 248 248 248 248 248 248 248 248 248 248 248 248 248 248 248 248 248 248 248 248 248 248 248 248 248 248 248 248 248 248 248 248 248 248 248 248 248 248 248 248 248 248 248 248 248 248 248 248 248 248 248 248 248 248 248 248 248 248 248 248 248 248 248 248 248 248 248 248 248 248 248 248 248 248 248 248 248 248 248 248 248 248 248 248 248 248 248 248 248 248 248 248 248 248 0 0 
0 0 218 213 210 207 206 204 0 204 204 0 207 208 0 209 0 0 212 212 0 0 210 209 210 0 211 0 211 210 0 0 0 0 0 210 210 0 0 0 0 208 0 209 0 0 209 208 209 209 0 208 208 0 208 208 208 0 207 207 207 0 0 0 207 207 0 207 207 207 207 0 0 205 0 0 0 205 0 0 0 203 202 202 201 201 201 200 0 199 199 199 0 198 198 198 0 197 196 195 195 0 193 0 0 192 0 0 0 190 190 0 0 0 189 188 187 0 187 186 186 186 186 186 186 186 186 0 0 187 187 0 186 186 0 186 0 0 185 0 186 185 0 0 0 185 185 184 0 185 0 0 185 185 0 0 185 0 185 185 0 0 184 0 0 0 183 183 0 183 183 0 183 183 0 183 183 183 183 183 183 183 183 183 0 0 183 183 183 0 0 0 182 0 183 182 0 0 182 0 183 183 183 183 0 0 182 182 182 0 0 182 0 0 182 0 0 0 183 0 0 183 0 183 183 184 184 185 0 0 184 184 0 184 184 0 0 0 182 0 0 155 148 149 150 153 157 0 0 157 154 155 0 157 158 0 0 0 159 158 0 159 159 0 160 0 161 161 162 0 162 0 164 0 167 0 172 174 0 0 0 0 0 175 0 176 176 175 176 0 176 0 0 0 0 174 0 174 0 174 174 174 174 174 173 174 174 174 0 0 175 0 174 173 0 172 171 171 0 0 0 167 166 0 165 165 0 165 0 0 0 164 164 165 166 167 0 0 0 0 170 171 0 171 171 172 0 0 0 0 172 172 0 172 172 172 172 172 172 172 0 171 0 0 0 0 173 173 0 0 176 177 0 0 0 181 181 183 188 202 0 0 0 0 248 248 248 248 248 248 248 248 248 248 248 248 248 248 248 248 248 248 248 248 248 248 248 248 248 248 248 248 248 248 248 248 248 248 248 248 248 248 248 248 248 248 248 248 248 248 248 248 248 248 248 248 248 248 248 248 248 248 248 248 248 248 248 248 248 248 248 248 248 248 248 248 248 248 248 248 248 248 248 248 248 248 248 248 248 248 248 248 248 248 248 248 248 248 248 248 248 248 248 248 248 248 248 248 248 248 248 248 248 248 248 248 248 248 248 248 248 248 248 248 248 248 248 248 248 248 248 248 248 248 248 248 248 248 248 248 248 248 248 248 248 248 248 248 248 248 248 248 248 248 248 248 248 248 248 248 248 248 248 248 248 248 248 248 248 248 248 248 248 248 248 248 248 248 248 248 248 248 248 248 248 248 248 248 248 248 248 248 248 248 248 248 248 248 248 248 248 248 248 248 248 248 248 248 248 248 248 248 248 248 248 248 248 248 248 248 248 248 248 248 248 248 248 248 248 248 248 248 248 248 248 248 248 248 248 248 248 248 248 248 248 248 248 248 248 248 248 248 248 248 248 248 248 248 0 247 
0 0 216 211 207 205 0 204 204 204 0 205 0 207 208 209 0 0 212 0 0 0 210 210 210 0 0 0 0 211 0 0 210 210 0 210 210 0 0 0 209 209 209 0 0 0 0 209 209 0 209 209 0 0 0 0 207 208 0 207 207 0 208 0 207 207 207 207 0 0 207 207 0 0 0 206 0 0 205 204 0 0 0 0 202 0 0 0 200 0 199 199 199 0 0 0 0 197 196 196 0 195 193 193 193 192 192 0 191 0 0 189 189 0 0 0 0 187 0 0 186 186 186 186 186 186 186 0 186 186 0 0 0 186 186 186 0 185 185 0 0 185 0 0 0 185 0 184 184 184 185 185 0 0 0 0 184 184 184 0 0 184 184 184 184 184 183 182 182 182 183 0 183 0 183 182 0 0 183 0 0 0 0 183 0 0 183 183 183 183 0 183 183 183 0 0 0 0 182 0 183 183 0 0 0 0 0 0 182 182 182 181 181 182 0 182 182 182 182 0 183 183 0 183 183 0 183 0 0 0 184 183 0 183 184 0 0 183 0 0 164 151 148 149 151 153 159 0 160 154 154 0 0 157 0 158 157 0 158 158 0 159 159 159 160 0 0 0 162 0 163 0 163 165 167 0 0 0 0 174 0 174 0 175 175 0 0 176 176 176 176 0 175 0 175 0 174 0 0 174 174 0 174 174 174 174 0 0 0 0 0 0 0 173 0 172 171 170 170 0 0 166 0 165 165 0 164 165 0 165 165 164 0 165 165 167 0 0 169 0 0 0 171 171 0 172 0 0 173 0 0 172 172 0 171 0 171 171 0 171 171 171 171 173 0 0 173 173 0 175 0 0 177 0 0 180 181 183 189 199 216 0 0 0 248 248 248 248 248 248 248 248 248 248 248 248 248 248 248 248 248 248 248 248 248 248 248 248 248 248 248 248 248 248 248 248 248 248 248 248 248 248 248 248 248 248 248 248 248 248 248 248 248 248 248 248 248 248 248 248 248 248 248 248 248 248 248 248 248 248 248 248 248 248 248 248 248 248 248 248 248 248 248 248 248 248 248 248 248 248 248 248 248 248 248 248 248 248 248 248 248 248 248 248 248 248 248 248 248 248 248 248 248 248 248 248 248 248 248 248 248 248 248 248 248 248 248 248 248 248 248 248 248 248 248 248 248 248 248 248 248 248 248 248 248 248 248 248 248 248 248 248 248 248 248 248 248 248 248 248 248 248 248 248 248 248 248 248 248 248 248 248 248 248 248 248 248 248 248 248 248 248 248 248 248 248 248 248 248 248 248 248 248 248 248 248 248 248 248 248 248 248 248 248 248 248 248 248 248 248 248 248 248 248 248 248 248 248 248 248 248 248 248 248 248 248 248 248 248 248 248 248 248 248 248 248 248 248 248 248 248 248 248 248 248 248 248 248 248 248 248 248 248 248 248 248 248 248 0 0 
0 218 213 209 207 205 204 0 203 0 203 204 0 207 208 209 0 0 212 0 0 0 210 210 211 0 212 0 211 211 211 0 210 210 210 0 0 209 0 209 0 0 0 0 0 209 0 0 209 0 0 0 209 209 209 0 0 208 208 208 208 0 208 207 207 207 207 0 206 206 207 0 207 207 0 0 205 0 204 205 205 0 204 0 0 202 0 201 0 0 0 199 0 199 199 0 198 197 0 196 0 0 0 0 0 0 192 191 190 0 190 189 189 189 188 187 187 0 187 186 186 186 0 185 0 0 185 0 186 186 0 186 0 0 186 186 0 185 0 0 185 0 185 185 0 184 184 0 0 184 0 185 0 185 185 185 0 0 0 184 184 0 0 0 0 184 0 183 0 0 0 183 183 0 182 182 182 183 183 182 0 182 0 0 183 0 183 183 0 181 182 0 0 183 0 182 0 182 0 0 0 0 182 0 182 182 0 182 182 182 0 0 0 182 0 182 0 0 182 0 182 183 0 0 0 183 183 184 184 0 183 0 0 183 0 184 0 0 0 0 157 149 148 149 0 153 0 0 157 153 0 0 0 157 157 0 158 158 158 0 159 0 0 0 0 160 0 161 0 0 0 163 163 164 166 0 0 0 0 174 0 0 0 175 0 0 0 0 0 176 0 176 175 175 175 175 175 175 0 0 0 0 0 174 0 0 175 0 174 175 175 0 174 173 0 0 0 169 169 0 166 166 165 165 165 165 164 165 0 165 165 0 165 0 166 0 167 167 0 169 0 171 171 171 0 172 172 0 0 0 172 0 172 0 171 0 0 0 0 171 170 170 171 171 172 173 0 0 0 174 0 176 176 177 178 179 180 184 0 198 214 0 0 0 248 248 248 248 248 248 248 248 248 248 248 248 248 248 248 248 248 248 248 248 248 248 248 248 248 248 248 248 248 248 248 248 248 248 248 248 248 248 248 248 248 248 248 248 248 248 248 248 248 248 248 248 248 248 248 248 248 248 248 248 248 248 248 248 248 248 248 248 248 248 248 248 248 248 248 248 248 248 248 248 248 248 248 248 248 248 248 248 248 248 248 248 248 248 248 248 248 248 248 248 248 248 248 248 248 248 248 248 248 248 248 248 248 248 248 248 248 248 248 248 248 248 248 248 248 248 248 248 248 248 248 248 248 248 248 248 248 248 248 248 248 248 248 248 248 248 248 248 248 248 248 248 248 248 248 248 248 248 248 248 248 248 248 248 248 248 248 248 248 248 248 248 248 248 248 248 248 248 248 248 248 248 248 248 248 248 248 248 248 248 248 248 248 248 248 248 248 248 248 248 248 248 248 248 248 248 248 248 248 248 248 248 248 248 248 248 248 248 248 248 248 248 248 248 248 248 248 248 248 248 248 248 248 248 248 248 248 248 248 248 248 248 248 248 248 248 248 248 248 248 248 248 248 248 248 248 
0 215 211 208 0 0 203 202 203 0 0 204 0 0 208 0 211 0 0 0 0 211 210 0 0 0 0 0 0 211 211 0 210 210 0 0 209 209 209 209 0 209 0 0 0 209 0 0 209 0 209 209 209 209 209 208 209 0 0 0 0 0 208 208 0 207 207 207 207 207 207 207 207 207 207 0 0 206 206 0 205 0 204 0 203 0 202 0 0 200 200 199 199 199 199 0 0 0 197 196 196 0 195 0 194 193 192 191 0 0 190 0 0 189 188 0 187 187 187 0 186 186 186 186 0 0 185 185 186 186 185 185 0 186 0 185 0 0 185 185 184 185 0 0 0 184 0 0 184 0 184 184 0 185 185 185 0 184 0 0 0 0 0 183 183 0 0 0 183 183 0 182 0 0 0 182 0 183 183 0 0 182 182 182 183 183 0 0 0 182 182 182 183 183 0 182 0 182 182 182 0 0 182 0 0 182 0 0 0 182 182 182 0 0 181 0 0 181 181 0 182 183 0 183 183 183 183 184 0 0 184 0 0 183 0 0 0 181 0 0 152 148 149 0 150 153 0 0 155 153 0 0 156 0 157 0 0 158 158 0 0 0 159 160 0 0 160 160 161 162 162 163 0 164 166 0 0 174 174 174 174 174 0 175 0 0 0 0 0 177 0 0 176 0 175 175 0 0 174 174 0 174 174 0 175 0 175 0 174 175 175 0 174 0 173 171 170 170 0 167 166 0 165 165 0 0 165 165 165 0 165 0 165 0 166 166 167 167 0 0 0 171 0 0 171 172 0 0 172 172 172 0 0 172 172 172 0 172 0 171 170 170 171 0 172 172 0 173 0 174 0 175 0 176 177 0 179 185 0 197 211 0 0 0 0 248 248 248 248 248 248 248 248 248 248 248 248 248 248 248 248 248 248 248 248 248 248 248 248 248 248 248 248 248 248 248 248 248 248 248 248 248 248 248 248 248 248 248 248 248 248 248 248 248 248 248 248 248 248 248 248 248 248 248 248 248 248 248 248 248 248 248 248 248 248 248 248 248 248 248 248 248 248 248 248 248 248 248 248 248 248 248 248 248 248 248 248 248 248 248 248 248 248 248 248 248 248 248 248 248 248 248 248 248 248 248 248 248 248 248 248 248 248 248 248 248 248 248 248 248 248 248 248 248 248 248 248 248 248 248 248 248 248 248 248 248 248 248 248 248 248 248 248 248 248 248 248 248 248 248 248 248 248 248 248 248 248 248 248 248 248 248 248 248 248 248 248 248 248 248 248 248 248 248 248 248 248 248 248 248 248 248 248 248 248 248 248 248 248 248 248 248 248 248 248 248 248 248 248 248 248 248 248 248 248 248 248 248 248 248 248 248 248 248 248 248 248 248 248 248 248 248 248 248 248 248 248 248 248 248 248 248 248 248 248 248 248 248 248 248 248 248 248 248 248 248 248 248 248 248 
0 212 210 0 0 204 203 202 0 202 202 203 204 0 0 0 0 0 212 212 0 209 209 0 0 0 211 0 0 211 0 0 210 209 210 210 209 0 0 209 0 210 209 0 0 0 210 210 210 0 209 0 0 209 209 209 209 0 209 0 209 0 0 0 208 0 0 0 0 0 207 207 207 207 207 207 0 0 0 0 206 0 204 203 203 202 202 202 0 0 0 199 199 199 199 0 0 198 197 0 196 195 195 0 0 193 0 0 0 0 191 190 190 189 189 0 0 187 187 0 0 186 186 0 185 185 0 0 0 186 0 185 0 185 0 185 0 0 185 185 185 0 185 0 0 0 0 184 0 0 184 0 184 0 0 0 0 184 184 0 0 183 182 0 0 0 183 0 183 183 0 182 0 0 0 182 0 0 183 183 0 0 0 0 183 183 0 183 183 0 182 0 0 0 0 182 182 182 182 182 182 182 182 0 0 181 181 181 0 0 0 0 0 181 0 181 181 181 181 181 182 0 0 183 0 183 183 0 0 0 184 0 183 183 0 0 182 0 0 159 149 148 0 0 150 153 0 0 153 153 0 0 156 0 157 0 0 158 0 158 159 159 159 0 160 160 0 0 161 0 162 0 0 165 167 0 0 0 0 173 174 174 174 0 175 0 176 0 0 177 0 0 0 0 175 175 0 174 173 173 0 174 174 175 0 175 175 175 0 0 175 175 0 0 0 172 0 0 169 167 166 0 166 0 0 0 165 0 0 165 164 0 164 0 0 167 0 167 167 0 170 0 171 171 0 172 172 0 172 0 0 172 172 172 0 172 0 171 0 0 169 170 0 0 172 172 0 173 173 0 175 0 175 175 176 0 180 184 0 199 209 225 0 0 0 248 248 248 248 248 248 248 248 248 248 248 248 248 248 248 248 248 248 248 248 248 248 248 248 248 248 248 248 248 248 248 248 248 248 248 248 248 248 248 248 248 248 248 248 248 248 248 248 248 248 248 248 248 248 248 248 248 248 248 248 248 248 248 248 248 248 248 248 248 248 248 248 248 248 248 248 248 248 248 248 248 248 248 248 248 248 248 248 248 248 248 248 248 248 248 248 248 248 248 248 248 248 248 248 248 248 248 248 248 248 248 248 248 248 248 248 248 248 248 248 248 248 248 248 248 248 248 248 248 248 248 248 248 248 248 248 248 248 248 248 248 248 248 248 248 248 248 248 248 248 248 248 248 248 248 248 248 248 248 248 248 248 248 248 248 248 248 248 248 248 248 248 248 248 248 248 248 248 248 248 248 248 248 248 248 248 248 248 248 248 248 248 248 248 248 248 248 248 248 248 248 248 248 248 248 248 248 248 248 248 248 248 248 248 248 248 248 248 248 248 248 248 248 248 248 248 248 248 248 248 248 248 248 248 248 248 248 248 248 248 248 248 248 248 248 248 248 248 248 248 248 248 248 248 248 
0 0 209 0 204 0 0 202 0 202 202 202 203 205 0 209 0 0 212 0 211 209 209 0 0 211 211 0 0 211 0 210 210 210 210 210 210 0 0 0 0 210 210 0 209 0 210 0 210 210 0 0 0 0 0 0 0 0 208 0 0 209 208 0 209 209 0 0 208 0 207 0 0 207 207 207 207 207 207 0 0 206 205 0 0 203 0 202 201 201 200 200 0 0 199 0 198 198 0 197 0 196 195 195 194 0 193 0 0 192 191 0 190 0 0 189 188 187 187 187 0 0 186 185 184 185 185 185 0 186 0 0 185 185 185 185 0 185 0 0 0 185 184 0 0 0 0 184 183 184 184 184 0 0 0 184 184 0 184 184 0 0 0 183 0 0 183 183 183 183 0 0 182 182 182 182 0 183 183 0 0 0 182 183 0 183 183 0 183 0 182 0 0 182 182 182 182 182 182 182 182 182 182 182 181 181 181 181 181 181 181 181 181 181 181 181 181 181 181 181 0 182 0 0 0 182 0 0 184 0 0 0 183 183 0 0 181 0 0 153 148 149 0 0 151 0 0 153 151 153 0 0 155 156 157 157 156 0 158 158 0 159 159 159 0 0 160 160 161 0 0 162 163 166 0 0 173 173 173 0 0 0 174 174 0 175 176 176 0 176 0 176 0 0 176 175 174 173 172 171 173 0 0 175 0 176 0 175 175 0 0 0 0 0 0 0 0 170 169 169 0 0 167 166 165 0 0 0 0 164 0 0 165 0 166 167 0 0 0 0 170 170 171 171 0 172 172 172 172 0 0 172 172 0 172 0 171 170 170 170 0 169 170 0 0 172 0 173 174 0 0 0 175 174 175 0 180 182 190 198 207 222 0 0 0 248 248 248 248 248 248 248 248 248 248 248 248 248 248 248 248 248 248 248 248 248 248 248 248 248 248 248 248 248 248 248 248 248 248 248 248 248 248 248 248 248 248 248 248 248 248 248 248 248 248 248 248 248 248 248 248 248 248 248 248 248 248 248 248 248 248 248 248 248 248 248 248 248 248 248 248 248 248 248 248 248 248 248 248 248 248 248 248 248 248 248 248 248 248 248 248 248 248 248 248 248 248 248 248 248 248 248 248 248 248 248 248 248 248 248 248 248 248 248 248 248 248 248 248 248 248 248 248 248 248 248 248 248 248 248 248 248 248 248 248 248 248 248 248 248 248 248 248 248 248 248 248 248 248 248 248 248 248 248 248 248 248 248 248 248 248 248 248 248 248 248 248 248 248 248 248 248 248 248 248 248 248 248 248 248 248 248 248 248 248 248 248 248 248 248 248 248 248 248 248 248 248 248 248 248 248 248 248 248 248 248 248 248 248 248 248 248 248 248 248 248 248 248 248 248 248 248 248 248 248 248 248 248 248 248 248 248 248 248 248 248 248 248 248 248 248 248 248 248 248 248 248 248 248 248 
0 210 207 0 204 0 201 201 0 202 0 0 0 0 0 209 0 0 212 0 0 210 210 0 0 0 0 211 211 0 0 210 0 0 210 0 210 0 0 0 210 0 0 210 210 210 210 210 210 210 0 209 0 0 209 0 0 0 209 209 0 209 209 209 0 209 209 208 0 208 0 0 0 207 207 207 207 207 207 207 0 0 0 0 204 0 203 202 201 0 0 0 200 199 199 199 0 0 0 197 0 0 0 0 194 0 0 192 192 0 191 191 190 189 0 0 0 0 187 187 187 0 186 185 185 185 185 185 0 185 185 0 0 185 184 185 185 185 0 186 0 184 184 0 185 0 184 0 0 0 183 183 0 184 184 184 0 0 183 183 0 183 0 0 0 0 0 0 0 0 0 0 0 182 0 0 0 182 0 0 182 182 0 0 183 0 183 0 0 0 0 182 0 182 181 181 0 0 0 181 0 0 0 0 0 0 181 181 181 181 181 181 0 181 181 181 181 181 181 181 181 0 0 182 182 182 0 184 184 184 184 0 183 0 183 182 0 0 158 149 147 149 0 149 150 0 0 152 152 0 155 0 0 156 0 157 157 0 0 0 0 0 0 158 0 0 160 160 0 161 161 161 163 167 0 172 0 0 0 173 0 0 173 173 174 0 0 176 0 176 0 0 176 176 0 0 0 172 171 171 172 0 0 0 176 0 0 0 175 0 0 0 173 173 0 172 0 170 170 0 0 0 167 0 165 165 0 166 0 164 165 165 165 165 166 167 0 0 169 169 170 0 171 0 0 0 172 172 172 0 173 0 0 172 172 0 0 169 0 0 169 167 0 170 171 0 172 173 0 0 175 175 175 175 176 0 179 181 187 0 207 220 0 0 0 248 248 248 248 248 248 248 248 248 248 248 248 248 248 248 248 248 248 248 248 248 248 248 248 248 248 248 248 248 248 248 248 248 248 248 248 248 248 248 248 248 248 248 248 248 248 248 248 248 248 248 248 248 248 248 248 248 248 248 248 248 248 248 248 248 248 248 248 248 248 248 248 248 248 248 248 248 248 248 248 248 248 248 248 248 248 248 248 248 248 248 248 248 248 248 248 248 248 248 248 248 248 248 248 248 248 248 248 248 248 248 248 248 248 248 248 248 248 248 248 248 248 248 248 248 248 248 248 248 248 248 248 248 248 248 248 248 248 248 248 248 248 248 248 248 248 248 248 248 248 248 248 248 248 248 248 248 248 248 248 248 248 248 248 248 248 248 248 248 248 248 248 248 248 248 248 248 248 248 248 248 248 248 248 248 248 248 248 248 248 248 248 248 248 248 248 248 248 248 248 248 248 248 248 248 248 248 248 248 248 248 248 248 248 248 248 248 248 248 248 248 248 248 248 248 248 248 248 248 248 248 248 248 248 248 248 248 248 248 248 248 248 248 248 248 248 248 248 248 248 248 248 248 248 248 
0 208 0 204 203 202 0 201 201 202 0 202 0 205 0 0 0 212 0 0 210 210 0 0 212 212 0 211 211 0 211 210 0 0 210 0 0 0 0 210 210 210 0 210 210 0 210 210 210 0 0 210 209 209 0 0 209 209 0 209 209 0 209 209 209 209 209 0 0 208 208 208 0 207 207 0 0 207 0 207 0 206 206 0 204 204 0 0 202 0 201 200 200 200 0 199 199 199 0 197 197 196 196 0 0 0 193 0 0 192 191 0 0 190 0 189 0 188 0 187 0 187 186 186 0 0 185 0 0 185 185 185 185 0 185 185 185 185 0 186 185 0 0 0 184 184 184 185 0 183 183 183 0 183 183 0 183 183 183 183 0 183 183 0 183 183 0 181 182 0 182 182 182 182 182 182 0 0 182 182 0 0 0 182 182 0 0 181 182 0 182 181 0 0 181 181 0 0 181 181 0 181 181 181 0 181 181 181 181 181 181 181 181 181 181 181 0 0 0 0 181 181 181 181 0 182 0 0 184 184 0 183 183 0 0 181 0 0 151 146 147 0 0 0 150 151 0 151 0 0 0 156 0 0 0 157 0 157 157 157 158 158 158 0 159 0 160 160 160 160 0 162 164 0 0 172 0 0 0 0 0 0 0 0 0 0 0 0 0 0 0 0 0 0 0 0 0 0 0 0 171 173 175 0 176 0 0 175 174 0 173 172 172 171 0 0 0 169 170 0 0 0 166 0 165 0 165 0 0 165 165 0 0 0 166 0 167 0 0 0 170 170 171 0 0 171 172 0 173 0 173 0 172 172 0 171 0 169 0 0 0 0 170 0 171 0 172 0 0 0 174 0 0 175 176 177 178 180 186 0 206 218 0 0 0 248 248 248 248 248 248 248 248 248 248 248 248 248 248 248 248 248 248 248 248 248 248 248 248 248 248 248 248 248 248 248 248 248 248 248 248 248 248 248 248 248 248 248 248 248 248 248 248 248 248 248 248 248 248 248 248 248 248 248 248 248 248 248 248 248 248 248 248 248 248 248 248 248 248 248 248 248 248 248 248 248 248 248 248 248 248 248 248 248 248 248 248 248 248 248 248 248 248 248 248 248 248 248 248 248 248 248 248 248 248 248 248 248 248 248 248 248 248 248 248 248 248 248 248 248 248 248 248 248 248 248 248 248 248 248 248 248 248 248 248 248 248 248 248 248 248 248 248 248 248 248 248 248 248 248 248 248 248 248 248 248 248 248 248 248 248 248 248 248 248 248 248 248 248 248 248 248 248 248 248 248 248 248 248 248 248 248 248 248 248 248 248 248 248 248 248 248 248 248 248 248 248 248 248 248 248 248 248 248 248 248 248 248 248 248 248 248 248 248 248 248 248 248 248 248 248 248 248 248 248 248 248 248 248 248 248 248 248 248 248 248 248 248 248 248 248 248 248 248 248 248 248 248 248 248 
0 207 205 203 202 202 0 201 201 0 0 202 203 0 0 210 0 212 212 0 210 210 211 0 0 0 0 211 211 211 0 0 210 210 210 0 211 0 210 210 210 210 210 210 210 0 0 0 210 0 0 210 0 0 210 210 0 208 0 0 209 0 209 209 0 0 209 208 208 208 208 208 208 0 208 0 207 207 0 207 207 0 0 0 205 204 204 0 202 202 0 201 0 0 0 199 199 199 0 198 0 0 196 196 0 194 193 193 193 192 0 0 0 190 0 189 0 188 188 188 0 0 0 0 186 186 0 0 0 185 0 185 184 0 185 0 0 0 0 0 185 185 185 185 0 0 0 0 0 0 183 183 183 183 183 0 183 183 183 0 182 182 0 182 183 183 0 182 0 182 182 182 0 0 182 0 182 182 0 181 181 181 182 181 182 0 0 182 0 0 181 181 181 0 181 181 181 181 181 181 181 181 181 181 181 181 0 0 0 0 0 0 181 181 181 181 0 180 180 0 181 181 0 181 181 182 182 0 184 184 0 182 183 0 0 0 0 160 147 145 146 0 148 149 0 150 151 151 0 154 0 155 156 156 156 157 0 156 157 0 0 158 158 0 159 0 0 0 160 160 161 162 165 0 0 0 0 0 0 0 170 0 169 169 169 170 171 0 172 172 172 0 0 172 171 172 171 170 170 169 171 0 175 0 176 0 0 0 174 173 172 0 0 0 169 167 0 169 0 170 0 167 165 166 0 0 0 165 165 165 0 0 0 165 166 0 167 0 0 0 170 170 0 0 0 172 0 0 173 173 173 0 172 0 171 0 170 169 169 169 169 0 170 0 0 172 173 0 174 174 0 0 174 175 176 177 178 180 185 192 202 215 0 0 0 248 248 248 248 248 248 248 248 248 248 248 248 248 248 248 248 248 248 248 248 248 248 248 248 248 248 248 248 248 248 248 248 248 248 248 248 248 248 248 248 248 248 248 248 248 248 248 248 248 248 248 248 248 248 248 248 248 248 248 248 248 248 248 248 248 248 248 248 248 248 248 248 248 248 248 248 248 248 248 248 248 248 248 248 248 248 248 248 248 248 248 248 248 248 248 248 248 248 248 248 248 248 248 248 248 248 248 248 248 248 248 248 248 248 248 248 248 248 248 248 248 248 248 248 248 248 248 248 248 248 248 248 248 248 248 248 248 248 248 248 248 248 248 248 248 248 248 248 248 248 248 248 248 248 248 248 248 248 248 248 248 248 248 248 248 248 248 248 248 248 248 248 248 248 248 248 248 248 248 248 248 248 248 248 248 248 248 248 248 248 248 248 248 248 248 248 248 248 248 248 248 248 248 248 248 248 248 248 248 248 248 248 248 248 248 248 248 248 248 248 248 248 248 248 248 248 248 248 248 248 248 248 248 248 248 248 248 248 248 248 248 248 248 248 248 248 248 248 248 248 248 248 248 248 248 
207 0 203 202 201 0 0 201 0 201 201 202 203 206 0 0 0 212 0 0 211 0 0 0 0 211 0 0 0 0 0 211 210 0 210 0 211 0 0 210 210 0 0 210 0 0 0 210 210 0 210 210 0 210 0 0 210 210 0 210 210 210 0 209 0 209 209 209 0 0 0 0 0 0 208 0 207 207 0 0 207 0 0 206 205 0 0 203 202 0 202 201 0 200 0 0 199 199 199 0 0 0 196 196 0 0 194 0 0 193 192 191 191 190 190 0 189 0 188 188 0 0 0 187 186 186 0 185 185 0 0 185 0 0 185 0 185 185 0 185 185 0 0 185 0 185 185 184 184 184 0 0 0 182 183 0 0 183 0 0 182 182 182 0 0 0 0 182 0 181 0 182 0 0 182 182 0 181 0 0 0 0 0 182 0 182 182 0 181 181 181 0 0 181 0 0 181 181 181 181 181 181 181 181 181 181 0 180 180 0 180 0 0 0 0 0 0 0 0 0 0 181 181 181 181 0 0 0 184 184 0 182 183 0 0 0 0 154 146 145 146 147 147 148 149 150 0 0 0 153 154 155 0 0 0 0 156 0 157 157 158 158 0 158 0 159 159 0 0 160 0 162 0 0 0 0 0 169 169 0 167 166 165 166 166 167 167 169 170 170 170 171 170 170 170 0 0 169 0 170 172 0 175 0 175 175 174 174 0 173 171 170 170 170 0 167 0 169 169 0 0 167 166 166 0 166 0 165 165 165 165 0 0 166 0 0 167 0 0 0 0 170 170 0 171 172 0 0 172 0 0 0 0 0 171 0 170 169 0 167 0 170 0 171 172 172 173 174 0 174 0 175 0 175 175 0 178 180 183 189 198 209 0 0 0 248 248 248 248 248 248 248 248 248 248 248 248 248 248 248 248 248 248 248 248 248 248 248 248 248 248 248 248 248 248 248 248 248 248 248 248 248 248 248 248 248 248 248 248 248 248 248 248 248 248 248 248 248 248 248 248 248 248 248 248 248 248 248 248 248 248 248 248 248 248 248 248 248 248 248 248 248 248 248 248 248 248 248 248 248 248 248 248 248 248 248 248 248 248 248 248 248 248 248 248 248 248 248 248 248 248 248 248 248 248 248 248 248 248 248 248 248 248 248 248 248 248 248 248 248 248 248 248 248 248 248 248 248 248 248 248 248 248 248 248 248 248 248 248 248 248 248 248 248 248 248 248 248 248 248 248 248 248 248 248 248 248 248 248 248 248 248 248 248 248 248 248 248 248 248 248 248 248 248 248 248 248 248 248 248 248 248 248 248 248 248 248 248 248 248 248 248 248 248 248 248 248 248 248 248 248 248 248 248 248 248 248 248 248 248 248 248 248 248 248 248 248 248 248 248 248 248 248 248 248 248 248 248 248 248 248 248 248 248 248 248 248 248 248 248 248 248 248 248 248 248 248 248 248 248 
0 204 202 0 0 0 201 201 201 201 201 201 204 0 209 210 0 212 0 211 211 211 211 0 0 0 0 212 212 212 0 211 0 211 211 0 0 210 0 0 210 210 209 210 0 211 0 210 210 210 210 210 210 209 210 0 0 210 210 0 0 0 0 210 210 0 209 0 0 209 209 0 0 0 0 0 207 0 0 208 0 207 0 0 0 0 204 204 0 0 0 202 201 200 200 0 199 199 0 199 0 0 0 0 195 195 194 0 0 193 0 192 191 191 0 190 190 0 0 187 187 187 0 187 0 186 0 185 185 185 185 185 185 185 185 185 0 185 0 0 0 0 0 185 184 0 0 184 183 0 0 183 182 182 0 182 0 0 182 182 0 0 0 0 0 182 182 181 181 181 0 182 0 0 182 0 0 181 181 181 181 181 0 0 0 181 181 0 181 181 181 181 181 181 0 181 181 181 181 181 181 181 181 181 181 181 0 0 180 180 0 0 180 180 180 0 180 180 180 180 180 0 181 181 182 0 0 184 0 184 0 183 0 0 0 0 161 149 147 146 147 149 149 149 150 150 150 152 0 153 154 154 156 0 0 156 156 0 0 0 0 158 0 0 158 158 159 159 0 159 160 161 163 0 166 166 166 166 166 165 165 164 164 0 165 166 0 167 0 0 0 0 0 0 0 167 167 169 169 170 0 0 175 0 0 175 174 174 0 0 0 170 169 0 169 167 167 0 0 167 167 0 166 166 0 165 165 0 0 165 0 165 0 0 0 167 167 169 170 170 0 0 171 0 171 0 172 0 173 0 172 172 172 172 172 0 170 169 0 167 169 170 0 172 0 172 173 174 0 174 0 175 0 0 176 0 178 180 182 188 194 205 0 0 0 248 248 248 248 248 248 248 248 248 248 248 248 248 248 248 248 248 248 248 248 248 248 248 248 248 248 248 248 248 248 248 248 248 248 248 248 248 248 248 248 248 248 248 248 248 248 248 248 248 248 248 248 248 248 248 248 248 248 248 248 248 248 248 248 248 248 248 248 248 248 248 248 248 248 248 248 248 248 248 248 248 248 248 248 248 248 248 248 248 248 248 248 248 248 248 248 248 248 248 248 248 248 248 248 248 248 248 248 248 248 248 248 248 248 248 248 248 248 248 248 248 248 248 248 248 248 248 248 248 248 248 248 248 248 248 248 248 248 248 248 248 248 248 248 248 248 248 248 248 248 248 248 248 248 248 248 248 248 248 248 248 248 248 248 248 248 248 248 248 248 248 248 248 248 248 248 248 248 248 248 248 248 248 248 248 248 248 248 248 248 248 248 248 248 248 248 248 248 248 248 248 248 248 248 248 248 248 248 248 248 248 248 248 248 248 248 248 248 248 248 248 248 248 248 248 248 248 248 248 248 248 248 248 248 248 248 248 248 248 248 248 248 248 248 248 248 248 248 248 248 248 248 248 248 248 
0 204 202 201 0 201 0 200 0 201 0 202 205 0 0 0 0 212 0 211 211 211 0 0 212 212 212 0 0 0 0 211 0 211 211 211 211 210 0 0 0 210 210 0 0 0 0 0 210 210 210 210 0 210 0 0 0 0 0 210 210 210 210 0 0 0 0 0 0 0 0 208 0 208 0 0 0 0 0 0 0 0 0 204 0 0 0 0 204 202 203 0 0 201 0 200 199 0 199 199 0 0 197 0 196 195 195 0 194 193 0 0 0 191 0 0 0 0 189 188 187 187 187 187 186 0 0 185 0 0 185 185 185 185 185 185 185 185 185 185 186 186 185 184 0 0 184 0 184 0 183 182 182 182 182 182 182 0 182 0 0 182 0 182 182 182 0 181 0 0 181 181 0 0 181 181 181 181 181 0 181 181 181 181 181 181 181 181 0 0 181 181 181 181 181 181 181 181 181 181 181 181 181 0 0 0 0 0 0 180 0 180 180 0 179 0 179 0 179 180 180 0 181 181 182 0 0 183 0 0 0 0 0 0 0 0 166 163 161 159 158 158 158 156 156 154 155 155 156 155 156 156 156 157 156 156 156 155 156 0 157 0 158 0 158 158 0 0 0 160 0 161 162 163 0 165 0 0 0 164 0 163 0 164 164 0 0 166 167 0 167 0 167 167 167 167 0 169 169 170 172 0 175 175 0 0 0 174 173 172 170 170 169 0 169 0 0 0 167 167 166 0 0 166 166 165 0 164 164 165 0 165 165 0 166 166 0 0 0 170 0 171 171 0 171 0 0 0 173 173 173 0 172 0 0 0 171 170 0 0 170 171 0 0 173 0 174 0 0 0 174 0 0 0 176 0 178 180 182 0 194 202 0 0 0 248 248 248 248 248 248 248 248 248 248 248 248 248 248 248 248 248 248 248 248 248 248 248 248 248 248 248 248 248 248 248 248 248 248 248 248 248 248 248 248 248 248 248 248 248 248 248 248 248 248 248 248 248 248 248 248 248 248 248 248 248 248 248 248 248 248 248 248 248 248 248 248 248 248 248 248 248 248 248 248 248 248 248 248 248 248 248 248 248 248 248 248 248 248 248 248 248 248 248 248 248 248 248 248 248 248 248 248 248 248 248 248 248 248 248 248 248 248 248 248 248 248 248 248 248 248 248 248 248 248 248 248 248 248 248 248 248 248 248 248 248 248 248 248 248 248 248 248 248 248 248 248 248 248 248 248 248 248 248 248 248 248 248 248 248 248 248 248 248 248 248 248 248 248 248 248 248 248 248 248 248 248 248 248 248 248 248 248 248 248 248 248 248 248 248 248 248 248 248 248 248 248 248 248 248 248 248 248 248 248 248 248 248 248 248 248 248 248 248 248 248 248 248 248 248 248 248 248 248 248 248 248 248 248 248 248 248 248 248 248 248 248 248 248 248 248 248 248 248 248 248 248 248 248 248 
0 0 0 201 201 201 0 200 0 201 0 203 0 208 0 211 0 212 212 0 211 211 0 212 212 212 212 0 211 211 211 211 0 211 211 0 211 0 210 0 0 210 210 210 210 210 211 211 0 0 0 0 0 0 0 210 210 0 0 210 0 210 0 0 210 0 207 206 0 0 207 0 0 0 0 203 0 0 0 0 0 0 0 0 0 0 0 0 0 0 0 0 0 0 0 0 0 199 199 0 0 198 197 197 0 196 0 195 0 193 193 0 192 192 0 191 190 0 189 0 0 188 0 187 0 186 186 186 0 185 185 185 185 185 0 0 185 185 185 185 0 0 0 184 184 184 0 0 0 0 183 0 182 182 182 0 0 182 182 0 0 0 182 182 0 181 0 181 181 181 181 181 0 181 181 181 0 0 181 181 181 181 181 181 181 181 181 181 181 181 181 181 181 181 181 181 181 181 181 181 181 181 181 0 180 0 180 180 0 0 180 0 0 179 0 0 0 0 180 0 0 0 0 181 0 0 0 0 0 0 179 0 0 0 0 0 0 0 0 0 0 0 0 0 0 172 175 173 170 166 165 164 162 162 159 158 158 156 156 157 157 0 158 158 158 158 159 0 160 0 0 0 161 0 0 164 164 164 163 163 0 163 163 163 164 0 165 0 166 166 165 166 166 166 166 167 0 0 0 169 172 0 0 175 0 175 0 0 173 0 171 0 0 0 169 0 167 167 167 0 166 0 167 0 0 165 0 164 164 165 165 165 0 166 0 167 0 0 169 170 0 171 171 171 0 0 172 0 172 0 0 0 172 172 0 0 171 0 171 0 171 171 173 0 173 174 0 175 175 175 174 175 0 0 176 176 177 0 183 0 0 201 0 0 0 248 248 248 248 248 248 248 248 248 248 248 248 248 248 248 248 248 248 248 248 248 248 248 248 248 248 248 248 248 248 248 248 248 248 248 248 248 248 248 248 248 248 248 248 248 248 248 248 248 248 248 248 248 248 248 248 248 248 248 248 248 248 248 248 248 248 248 248 248 248 248 248 248 248 248 248 248 248 248 248 248 248 248 248 248 248 248 248 248 248 248 248 248 248 248 248 248 248 248 248 248 248 248 248 248 248 248 248 248 248 248 248 248 248 248 248 248 248 248 248 248 248 248 248 248 248 248 248 248 248 248 248 248 248 248 248 248 248 248 248 248 248 248 248 248 248 248 248 248 248 248 248 248 248 248 248 248 248 248 248 248 248 248 248 248 248 248 248 248 248 248 248 248 248 248 248 248 248 248 248 248 248 248 248 248 248 248 248 248 248 248 248 248 248 248 248 248 248 248 248 248 248 248 248 248 248 248 248 248 248 248 248 248 248 248 248 248 248 248 248 248 248 248 248 248 248 248 248 248 248 248 248 248 248 248 248 248 248 248 248 248 248 248 248 248 248 248 248 248 248 248 248 248 248 248 
0 202 202 201 201 0 200 0 0 201 201 203 0 209 0 0 0 212 0 212 0 0 0 212 212 212 0 0 211 211 211 211 211 211 211 211 211 0 210 0 210 0 0 210 0 0 0 0 211 0 210 0 0 210 210 210 0 0 210 0 0 209 0 0 0 0 0 0 0 0 0 0 0 0 0 0 0 0 0 0 0 0 0 0 0 0 0 0 0 0 0 0 0 0 0 0 0 0 0 0 198 198 0 0 0 0 0 195 194 194 0 193 193 0 192 190 190 0 0 189 0 0 0 187 187 0 0 0 186 185 185 185 185 0 185 0 185 185 0 185 0 186 0 185 0 184 184 0 184 184 183 0 182 181 0 0 182 182 182 0 182 0 182 0 0 181 0 181 181 181 181 0 0 181 181 181 181 181 0 181 181 181 181 181 181 181 181 181 181 181 181 181 181 181 181 181 0 0 0 0 0 0 0 0 0 0 0 180 0 180 179 179 179 179 179 179 0 0 0 0 0 0 0 0 0 0 0 0 177 176 174 174 173 172 171 171 171 171 171 170 170 171 0 0 0 0 0 0 0 0 188 182 178 176 173 170 167 163 161 159 158 158 158 158 158 0 159 159 0 160 160 160 161 0 163 163 0 163 163 163 163 0 162 163 163 0 164 0 165 0 165 0 166 0 166 166 0 0 0 169 0 0 0 0 0 0 0 0 172 0 171 0 0 170 169 0 167 166 0 0 0 0 167 167 166 166 165 164 0 0 165 165 0 166 166 167 0 169 169 169 0 0 171 171 0 171 172 0 173 173 173 0 172 172 0 0 171 171 0 0 172 0 174 0 174 174 0 175 0 0 175 175 0 0 176 0 178 0 183 190 196 202 0 0 0 248 248 248 248 248 248 248 248 248 248 248 248 248 248 248 248 248 248 248 248 248 248 248 248 248 248 248 248 248 248 248 248 248 248 248 248 248 248 248 248 248 248 248 248 248 248 248 248 248 248 248 248 248 248 248 248 248 248 248 248 248 248 248 248 248 248 248 248 248 248 248 248 248 248 248 248 248 248 248 248 248 248 248 248 248 248 248 248 248 248 248 248 248 248 248 248 248 248 248 248 248 248 248 248 248 248 248 248 248 248 248 248 248 248 248 248 248 248 248 248 248 248 248 248 248 248 248 248 248 248 248 248 248 248 248 248 248 248 248 248 248 248 248 248 248 248 248 248 248 248 248 248 248 248 248 248 248 248 248 248 248 248 248 248 248 248 248 248 248 248 248 248 248 248 248 248 248 248 248 248 248 248 248 248 248 248 248 248 248 248 248 248 248 248 248 248 248 248 248 248 248 248 248 248 248 248 248 248 248 248 248 248 248 248 248 248 248 248 248 248 248 248 248 248 248 248 248 248 248 248 248 248 248 248 248 248 248 248 248 248 248 248 248 248 248 248 248 248 248 248 248 248 248 248 248 
0 202 0 201 0 0 0 200 0 201 201 203 0 209 0 212 212 212 0 212 212 212 212 212 212 212 0 211 211 211 0 0 0 211 211 211 211 0 0 0 0 0 0 210 0 0 210 0 0 210 210 210 0 210 210 0 210 0 0 0 0 0 0 0 0 0 0 0 0 0 0 0 0 0 0 0 180 178 0 0 0 0 178 0 0 180 181 0 0 0 182 181 0 0 0 0 0 0 0 198 0 0 0 197 197 196 196 0 0 194 0 193 0 0 0 0 0 190 189 188 0 188 188 0 0 0 186 187 0 186 0 0 0 185 0 0 0 185 0 0 0 186 0 0 184 184 184 184 184 0 0 183 182 182 0 181 0 182 182 0 182 181 0 0 0 0 0 0 181 181 181 0 0 181 181 181 181 181 181 181 181 181 181 181 181 181 181 181 181 181 181 181 181 181 181 181 0 180 180 0 180 180 0 0 180 0 0 180 0 179 179 0 179 0 0 0 0 0 0 0 0 176 176 176 176 176 175 175 0 0 173 172 171 170 170 170 170 169 169 170 170 0 171 172 177 190 0 0 0 0 0 0 0 0 188 183 180 0 0 0 167 164 160 159 158 159 159 159 0 160 160 0 0 162 0 0 0 163 0 0 0 0 162 163 0 0 164 164 0 0 165 0 165 0 0 166 166 167 0 170 0 0 0 173 173 0 172 172 171 0 0 0 0 170 169 0 0 167 167 167 167 0 0 166 167 167 0 165 0 0 164 165 0 166 0 0 0 0 167 169 170 170 171 172 172 0 0 173 0 173 0 172 172 0 0 0 170 171 0 172 172 0 0 0 175 175 175 176 0 176 175 0 176 176 176 177 179 181 184 191 198 204 0 0 0 248 248 248 248 248 248 248 248 248 248 248 248 248 248 248 248 248 248 248 248 248 248 248 248 248 248 248 248 248 248 248 248 248 248 248 248 248 248 248 248 248 248 248 248 248 248 248 248 248 248 248 248 248 248 248 248 248 248 248 248 248 248 248 248 248 248 248 248 248 248 248 248 248 248 248 248 248 248 248 248 248 248 248 248 248 248 248 248 248 248 248 248 248 248 248 248 248 248 248 248 248 248 248 248 248 248 248 248 248 248 248 248 248 248 248 248 248 248 248 248 248 248 248 248 248 248 248 248 248 248 248 248 248 248 248 248 248 248 248 248 248 248 248 248 248 248 248 248 248 248 248 248 248 248 248 248 248 248 248 248 248 248 248 248 248 248 248 248 248 248 248 248 248 248 248 248 248 248 248 248 248 248 248 248 248 248 248 248 248 248 248 248 248 248 248 248 248 248 248 248 248 248 248 248 248 248 248 248 248 248 248 248 248 248 248 248 248 248 248 248 248 248 248 248 248 248 248 248 248 248 248 248 248 248 248 248 248 248 248 248 248 248 248 248 248 248 248 248 248 248 248 248 248 248 248 
0 202 201 200 200 200 200 199 200 201 202 203 0 209 0 0 212 212 0 212 212 212 212 212 212 0 0 211 211 211 0 210 0 0 211 0 0 0 0 0 210 210 0 210 0 0 210 210 0 0 0 210 210 0 0 0 0 0 0 0 0 0 0 0 0 0 185 181 175 173 175 177 176 174 170 165 162 161 162 0 163 162 163 164 165 167 165 162 162 167 0 166 159 159 171 0 0 0 0 0 0 0 0 197 0 0 0 195 195 0 194 193 0 0 192 191 0 0 0 189 0 188 0 188 188 0 0 0 0 0 186 186 186 0 186 0 0 185 185 185 0 0 0 0 184 183 0 184 184 0 184 0 0 181 0 182 0 182 181 181 0 0 181 181 181 181 181 181 181 181 181 181 181 181 181 181 181 181 181 181 0 181 181 181 181 181 0 0 0 181 181 181 0 0 0 0 0 180 180 0 0 179 180 180 179 0 0 180 0 179 179 0 0 0 0 0 175 174 173 173 173 172 172 173 173 172 172 172 171 172 0 0 170 0 0 0 0 0 169 0 0 0 171 172 175 185 0 0 207 0 0 0 0 0 0 0 0 188 182 180 177 0 0 0 164 162 160 159 160 160 160 0 161 162 0 163 0 0 162 0 0 162 0 163 0 0 163 164 164 165 0 0 165 165 0 166 0 166 0 0 170 172 0 171 171 171 0 0 170 169 170 170 170 0 0 170 0 169 0 0 167 166 166 167 0 0 167 0 164 164 164 0 165 166 166 167 0 0 169 0 170 0 0 0 173 174 0 0 173 0 0 172 0 0 173 172 171 0 171 172 173 174 0 0 175 176 0 177 0 176 176 176 176 176 176 0 0 181 185 0 0 207 0 0 0 248 248 248 248 248 248 248 248 248 248 248 248 248 248 248 248 248 248 248 248 248 248 248 248 248 248 248 248 248 248 248 248 248 248 248 248 248 248 248 248 248 248 248 248 248 248 248 248 248 248 248 248 248 248 248 248 248 248 248 248 248 248 248 248 248 248 248 248 248 248 248 248 248 248 248 248 248 248 248 248 248 248 248 248 248 248 248 248 248 248 248 248 248 248 248 248 248 248 248 248 248 248 248 248 248 248 248 248 248 248 248 248 248 248 248 248 248 248 248 248 248 248 248 248 248 248 248 248 248 248 248 248 248 248 248 248 248 248 248 248 248 248 248 248 248 248 248 248 248 248 248 248 248 248 248 248 248 248 248 248 248 248 248 248 248 248 248 248 248 248 248 248 248 248 248 248 248 248 248 248 248 248 248 248 248 248 248 248 248 248 248 248 248 248 248 248 248 248 248 248 248 248 248 248 248 248 248 248 248 248 248 248 248 248 248 248 248 248 248 248 248 248 248 248 248 248 248 248 248 248 248 248 248 248 248 248 248 248 248 248 248 248 248 248 248 248 248 248 248 248 248 248 248 248 248 
0 201 0 200 0 0 0 0 200 201 202 205 0 0 0 212 212 212 212 212 212 212 212 212 212 0 211 211 211 211 0 210 210 0 0 0 210 210 210 210 210 0 210 210 0 210 0 210 0 210 210 0 0 209 0 0 0 0 0 188 184 184 182 179 175 172 169 164 162 161 161 161 163 0 156 150 147 146 145 145 146 148 150 0 154 0 0 152 146 149 0 0 0 149 149 161 0 0 0 0 0 0 0 0 0 0 0 0 195 0 0 0 0 193 192 191 190 0 0 0 189 189 0 0 188 0 0 187 0 186 186 0 186 186 186 0 185 184 184 185 185 185 0 185 184 184 0 184 184 0 0 0 0 181 0 181 0 0 181 181 181 181 181 181 181 181 181 181 181 181 181 181 181 181 181 181 181 181 181 181 181 181 181 0 0 0 0 180 0 181 181 181 0 180 180 0 0 180 180 180 0 180 0 0 0 179 179 0 179 0 0 0 0 0 0 173 172 171 171 172 172 171 172 172 172 171 0 0 0 170 170 0 167 0 0 167 167 0 169 169 170 0 171 173 177 187 0 0 199 199 199 201 203 0 0 0 0 0 0 0 185 181 178 0 0 0 0 166 162 161 160 161 161 0 162 0 162 162 162 161 162 0 0 0 163 0 0 0 164 0 165 165 0 164 165 165 0 167 0 169 0 0 0 170 170 0 170 0 169 169 169 0 170 0 0 0 0 0 170 0 167 0 166 167 0 0 167 0 165 164 164 165 165 0 166 167 0 0 169 0 170 171 172 0 0 0 0 173 172 173 0 172 0 0 0 172 171 170 171 172 173 0 176 0 176 177 0 178 178 0 0 176 0 176 176 177 0 182 187 0 0 210 0 0 0 248 248 248 248 248 248 248 248 248 248 248 248 248 248 248 248 248 248 248 248 248 248 248 248 248 248 248 248 248 248 248 248 248 248 248 248 248 248 248 248 248 248 248 248 248 248 248 248 248 248 248 248 248 248 248 248 248 248 248 248 248 248 248 248 248 248 248 248 248 248 248 248 248 248 248 248 248 248 248 248 248 248 248 248 248 248 248 248 248 248 248 248 248 248 248 248 248 248 248 248 248 248 248 248 248 248 248 248 248 248 248 248 248 248 248 248 248 248 248 248 248 248 248 248 248 248 248 248 248 248 248 248 248 248 248 248 248 248 248 248 248 248 248 248 248 248 248 248 248 248 248 248 248 248 248 248 248 248 248 248 248 248 248 248 248 248 248 248 248 248 248 248 248 248 248 248 248 248 248 248 248 248 248 248 248 248 248 248 248 248 248 248 248 248 248 248 248 248 248 248 248 248 248 248 248 248 248 248 248 248 248 248 248 248 248 248 248 248 248 248 248 248 248 248 248 248 248 248 248 248 248 248 248 248 248 248 248 248 248 248 248 248 248 248 248 248 248 248 248 248 248 248 248 248 248 
0 0 0 199 0 0 199 200 0 0 203 0 0 0 0 212 212 212 212 212 212 212 212 0 0 0 211 0 0 0 0 0 0 210 210 210 210 210 210 210 210 0 210 0 210 0 209 209 0 210 0 209 0 0 0 0 0 185 177 173 170 170 169 166 164 0 159 152 150 151 152 153 0 151 147 143 140 137 137 138 137 136 138 0 144 146 0 0 138 137 142 147 0 0 144 150 0 0 0 0 179 0 0 0 0 0 0 0 0 0 0 0 193 0 0 0 0 190 189 189 189 189 189 0 188 187 187 186 186 186 185 186 186 186 186 0 185 0 0 0 185 185 185 185 0 184 0 184 184 183 183 183 183 182 0 0 181 0 0 181 0 181 181 181 181 0 181 181 0 0 0 181 181 181 181 181 181 0 0 0 0 0 0 0 180 0 0 0 0 181 181 181 0 0 0 0 0 0 180 0 0 0 179 0 0 179 0 0 0 0 0 174 173 171 171 171 171 171 171 172 0 0 0 0 0 0 0 169 169 0 0 0 167 167 166 0 0 167 0 169 169 170 172 179 0 0 0 193 193 193 194 0 196 197 198 198 0 0 0 0 0 0 187 181 179 178 0 0 0 0 164 162 161 162 161 161 161 0 0 0 161 162 162 0 163 0 0 163 0 164 0 164 164 164 0 165 166 167 167 169 171 0 0 170 169 0 169 0 0 0 167 169 0 0 0 170 0 0 0 0 167 0 0 167 0 0 166 0 165 0 165 0 166 0 0 0 167 0 0 170 170 171 172 173 0 0 0 0 173 173 0 172 172 172 0 0 0 171 0 172 174 176 177 177 177 0 0 179 179 0 0 176 176 0 176 178 180 183 188 197 0 211 0 0 0 248 248 248 248 248 248 248 248 248 248 248 248 248 248 248 248 248 248 248 248 248 248 248 248 248 248 248 248 248 248 248 248 248 248 248 248 248 248 248 248 248 248 248 248 248 248 248 248 248 248 248 248 248 248 248 248 248 248 248 248 248 248 248 248 248 248 248 248 248 248 248 248 248 248 248 248 248 248 248 248 248 248 248 248 248 248 248 248 248 248 248 248 248 248 248 248 248 248 248 248 248 248 248 248 248 248 248 248 248 248 248 248 248 248 248 248 248 248 248 248 248 248 248 248 248 248 248 248 248 248 248 248 248 248 248 248 248 248 248 248 248 248 248 248 248 248 248 248 248 248 248 248 248 248 248 248 248 248 248 248 248 248 248 248 248 248 248 248 248 248 248 248 248 248 248 248 248 248 248 248 248 248 248 248 248 248 248 248 248 248 248 248 248 248 248 248 248 248 248 248 248 248 248 248 248 248 248 248 248 248 248 248 248 248 248 248 248 248 248 248 248 248 248 248 248 248 248 248 248 248 248 248 248 248 248 248 248 248 248 248 248 248 248 248 248 248 248 248 248 248 248 248 248 248 248 
201 0 0 199 0 0 0 200 201 202 0 205 207 0 0 212 0 212 212 212 212 212 0 0 211 0 0 210 210 0 209 208 209 0 209 0 0 0 0 0 0 209 209 0 209 0 0 209 0 0 0 0 0 0 0 0 186 178 169 162 162 0 0 158 157 0 154 152 150 148 146 146 144 142 0 0 137 133 133 132 131 129 130 131 134 0 0 134 130 129 133 0 0 139 138 141 150 0 0 0 164 163 165 0 177 0 0 0 0 0 0 0 0 192 192 0 0 0 0 189 0 189 189 0 188 187 187 186 186 186 0 0 0 0 186 185 0 185 185 185 0 0 0 0 0 183 183 0 0 184 0 0 0 0 181 181 180 181 181 181 181 181 181 181 181 181 181 181 0 180 0 181 181 181 181 0 181 0 180 180 180 0 0 180 180 0 180 0 0 0 0 0 0 180 180 180 0 180 179 0 0 179 179 0 179 0 0 0 174 173 171 171 171 170 171 0 0 172 0 0 0 171 170 170 170 0 167 167 167 167 167 167 167 0 166 166 166 166 167 169 170 175 0 0 0 0 189 189 188 188 189 189 188 190 191 191 193 0 197 0 0 0 0 0 188 181 178 178 0 0 0 0 167 164 162 162 161 0 162 0 0 0 162 0 163 0 0 0 163 0 164 163 0 164 0 165 166 0 167 0 0 0 0 0 169 169 0 166 167 0 167 0 0 0 167 0 169 170 170 169 0 166 166 166 0 166 166 165 165 165 165 0 166 166 166 166 166 0 0 170 0 171 0 0 0 174 173 0 0 0 173 0 172 171 0 171 171 0 172 173 0 0 0 0 179 178 179 0 0 0 178 175 0 177 177 179 181 184 190 0 0 211 0 0 0 248 248 248 248 248 248 248 248 248 248 248 248 248 248 248 248 248 248 248 248 248 248 248 248 248 248 248 248 248 248 248 248 248 248 248 248 248 248 248 248 248 248 248 248 248 248 248 248 248 248 248 248 248 248 248 248 248 248 248 248 248 248 248 248 248 248 248 248 248 248 248 248 248 248 248 248 248 248 248 248 248 248 248 248 248 248 248 248 248 248 248 248 248 248 248 248 248 248 248 248 248 248 248 248 248 248 248 248 248 248 248 248 248 248 248 248 248 248 248 248 248 248 248 248 248 248 248 248 248 248 248 248 248 248 248 248 248 248 248 248 248 248 248 248 248 248 248 248 248 248 248 248 248 248 248 248 248 248 248 248 248 248 248 248 248 248 248 248 248 248 248 248 248 248 248 248 248 248 248 248 248 248 248 248 248 248 248 248 248 248 248 248 248 248 248 248 248 248 248 248 248 248 248 248 248 248 248 248 248 248 248 248 248 248 248 248 248 248 248 248 248 248 248 248 248 248 248 248 248 248 248 248 248 248 248 248 248 248 248 248 248 248 248 248 248 248 248 248 248 248 248 248 248 248 248 
200 200 0 0 199 0 199 200 201 202 203 206 0 0 0 212 212 212 0 0 0 0 0 211 210 210 210 0 209 0 208 208 208 0 209 209 209 209 0 208 208 208 207 207 207 208 0 0 0 0 0 202 198 0 0 0 178 171 164 158 157 0 0 152 149 149 149 0 0 0 0 0 0 140 139 0 0 134 133 131 130 0 0 128 127 129 129 129 128 127 127 132 0 136 136 137 140 148 0 0 0 150 150 156 163 0 0 0 0 0 0 0 0 0 0 0 0 0 190 189 0 0 0 0 0 0 0 0 0 186 186 0 0 0 0 186 0 185 185 185 0 184 184 184 0 183 183 183 183 0 0 184 183 0 182 181 0 0 0 0 0 181 181 181 0 180 0 181 0 180 0 0 0 0 181 181 0 180 180 180 180 0 180 180 180 180 180 0 0 180 180 0 180 180 180 180 180 180 0 179 179 178 178 0 0 0 0 172 171 170 171 0 171 0 0 172 0 0 0 170 0 170 169 169 169 0 167 167 0 0 166 166 0 166 166 166 167 167 169 171 0 0 0 0 0 0 0 0 185 185 185 184 184 185 185 185 187 188 190 191 193 0 0 0 0 0 187 181 178 176 0 0 0 0 169 164 162 162 162 162 162 162 161 162 163 0 0 163 163 0 0 0 0 164 164 165 0 0 167 169 0 0 0 169 0 0 0 167 167 167 167 0 169 169 169 0 170 170 170 169 0 166 166 166 0 165 0 165 165 165 0 0 166 0 166 166 167 0 0 0 0 171 0 0 173 173 174 174 173 173 173 0 0 0 171 0 171 172 172 174 176 0 0 0 0 180 180 0 0 0 178 176 0 177 179 0 183 186 191 0 204 210 0 0 0 248 248 248 248 248 248 248 248 248 248 248 248 248 248 248 248 248 248 248 248 248 248 248 248 248 248 248 248 248 248 248 248 248 248 248 248 248 248 248 248 248 248 248 248 248 248 248 248 248 248 248 248 248 248 248 248 248 248 248 248 248 248 248 248 248 248 248 248 248 248 248 248 248 248 248 248 248 248 248 248 248 248 248 248 248 248 248 248 248 248 248 248 248 248 248 248 248 248 248 248 248 248 248 248 248 248 248 248 248 248 248 248 248 248 248 248 248 248 248 248 248 248 248 248 248 248 248 248 248 248 248 248 248 248 248 248 248 248 248 248 248 248 248 248 248 248 248 248 248 248 248 248 248 248 248 248 248 248 248 248 248 248 248 248 248 248 248 248 248 248 248 248 248 248 248 248 248 248 248 248 248 248 248 248 248 248 248 248 248 248 248 248 248 248 248 248 248 248 248 248 248 248 248 248 248 248 248 248 248 248 248 248 248 248 248 248 248 248 248 248 248 248 248 248 248 248 248 248 248 248 248 248 248 248 248 248 248 248 248 248 248 248 248 248 248 248 248 248 248 248 248 248 248 248 248 
200 0 199 199 199 199 199 200 0 202 204 0 0 0 0 0 0 211 0 0 211 211 211 0 210 0 0 0 208 208 0 207 207 0 208 0 208 208 0 0 208 0 207 207 0 207 207 207 0 0 0 0 190 184 180 0 0 0 160 155 152 0 0 0 146 0 0 0 0 141 139 139 0 138 136 134 0 0 0 0 0 0 0 0 126 125 127 0 0 0 129 0 0 0 0 0 133 136 0 0 0 140 137 140 146 155 0 0 0 0 0 0 0 0 0 0 0 0 0 0 188 188 0 188 0 0 187 0 186 0 0 185 186 0 0 0 186 185 185 0 0 184 0 0 183 182 0 183 183 0 0 0 183 0 182 180 0 0 0 180 0 0 181 181 0 0 0 0 0 0 180 0 0 180 0 181 0 180 180 0 0 0 0 0 180 0 179 180 0 180 180 0 0 180 180 180 0 180 0 179 178 0 0 175 174 173 172 170 170 0 172 172 0 0 0 0 172 0 171 170 170 0 169 0 0 167 167 0 0 166 0 166 0 166 166 167 169 171 0 0 0 0 183 0 184 184 184 0 183 0 182 181 181 181 182 181 182 182 183 184 0 188 190 0 0 0 0 0 0 180 176 175 175 0 0 0 167 164 163 163 0 0 162 162 162 0 163 163 0 0 163 163 0 164 0 0 165 0 167 0 0 170 0 169 167 167 167 0 167 0 167 167 0 0 169 0 0 0 0 0 167 0 0 0 165 165 165 165 165 165 0 0 0 165 166 167 0 167 0 0 0 171 171 171 0 0 0 0 0 173 173 173 173 0 0 172 172 172 0 175 176 177 178 0 180 181 0 181 0 0 177 177 0 0 0 182 184 188 193 0 206 212 0 0 0 248 248 248 248 248 248 248 248 248 248 248 248 248 248 248 248 248 248 248 248 248 248 248 248 248 248 248 248 248 248 248 248 248 248 248 248 248 248 248 248 248 248 248 248 248 248 248 248 248 248 248 248 248 248 248 248 248 248 248 248 248 248 248 248 248 248 248 248 248 248 248 248 248 248 248 248 248 248 248 248 248 248 248 248 248 248 248 248 248 248 248 248 248 248 248 248 248 248 248 248 248 248 248 248 248 248 248 248 248 248 248 248 248 248 248 248 248 248 248 248 248 248 248 248 248 248 248 248 248 248 248 248 248 248 248 248 248 248 248 248 248 248 248 248 248 248 248 248 248 248 248 248 248 248 248 248 248 248 248 248 248 248 248 248 248 248 248 248 248 248 248 248 248 248 248 248 248 248 248 248 248 248 248 248 248 248 248 248 248 248 248 248 248 248 248 248 248 248 248 248 248 248 248 248 248 248 248 248 248 248 248 248 248 248 248 248 248 248 248 248 248 248 248 248 248 248 248 248 248 248 248 248 248 248 248 248 248 248 248 248 248 248 248 248 248 248 248 248 248 248 248 248 248 248 248 
0 0 199 199 199 199 0 0 200 0 203 0 0 0 211 0 0 211 0 0 0 210 0 210 209 209 208 208 207 207 207 207 207 207 207 207 207 207 207 207 0 0 207 207 0 0 0 0 0 0 0 0 0 0 170 166 162 158 0 0 0 0 146 142 140 0 0 0 0 136 133 135 0 0 0 135 0 0 0 0 0 131 130 0 127 127 0 0 0 0 0 0 128 127 126 127 127 127 130 134 135 133 131 134 136 141 144 147 151 156 163 0 0 0 0 178 178 0 0 0 0 0 0 0 186 0 0 0 187 0 0 186 186 0 186 186 0 0 185 0 184 183 0 0 0 182 0 0 182 183 183 183 0 183 182 181 180 180 0 180 180 0 181 181 0 0 0 180 180 0 0 0 0 0 0 0 0 0 0 0 180 180 180 180 180 0 179 180 180 179 180 180 0 0 180 179 0 0 0 0 177 0 173 171 170 170 0 0 172 0 0 0 0 0 172 0 171 0 0 170 169 169 0 167 166 0 0 166 0 0 165 165 166 166 167 170 0 0 0 0 0 0 0 0 0 0 0 0 181 181 181 0 180 0 0 179 179 0 0 181 181 182 184 186 188 189 0 0 0 0 0 178 175 174 175 0 0 0 169 164 163 163 163 0 163 163 163 163 0 0 163 0 0 163 164 164 164 165 166 167 0 169 0 0 167 166 167 167 166 0 0 166 0 169 169 170 0 0 170 169 166 166 166 0 165 165 165 165 165 165 0 0 165 165 166 167 0 169 0 0 170 0 171 0 0 0 0 0 0 174 0 173 173 173 173 173 173 173 0 176 177 178 178 180 0 181 0 0 0 179 177 176 177 179 0 0 185 189 196 204 210 215 0 0 0 248 248 248 248 248 248 248 248 248 248 248 248 248 248 248 248 248 248 248 248 248 248 248 248 248 248 248 248 248 248 248 248 248 248 248 248 248 248 248 248 248 248 248 248 248 248 248 248 248 248 248 248 248 248 248 248 248 248 248 248 248 248 248 248 248 248 248 248 248 248 248 248 248 248 248 248 248 248 248 248 248 248 248 248 248 248 248 248 248 248 248 248 248 248 248 248 248 248 248 248 248 248 248 248 248 248 248 248 248 248 248 248 248 248 248 248 248 248 248 248 248 248 248 248 248 248 248 248 248 248 248 248 248 248 248 248 248 248 248 248 248 248 248 248 248 248 248 248 248 248 248 248 248 248 248 248 248 248 248 248 248 248 248 248 248 248 248 248 248 248 248 248 248 248 248 248 248 248 248 248 248 248 248 248 248 248 248 248 248 248 248 248 248 248 248 248 248 248 248 248 248 248 248 248 248 248 248 248 248 248 248 248 248 248 248 248 248 248 248 248 248 248 248 248 248 248 248 248 248 248 248 248 248 248 248 248 248 248 248 248 248 248 248 248 248 248 248 248 248 248 248 248 248 248 248 
0 0 199 199 199 199 199 199 200 201 203 0 0 209 210 0 210 210 0 0 0 210 0 0 0 208 0 207 0 0 0 0 0 0 0 206 0 0 0 207 207 207 0 0 0 0 0 0 0 0 0 175 0 0 161 158 153 150 149 147 145 143 0 0 0 0 138 137 135 132 130 131 132 131 0 0 0 0 0 131 129 129 0 128 127 0 0 0 127 126 127 127 0 0 126 125 124 124 124 125 128 129 130 129 130 131 131 133 138 141 144 150 0 0 167 166 166 167 0 0 0 0 0 0 0 184 183 185 0 0 0 0 0 0 0 186 186 0 185 184 184 184 0 182 0 0 0 0 182 0 0 183 0 0 182 181 180 180 0 0 0 0 0 0 0 180 0 180 180 0 0 0 0 180 180 0 180 0 0 0 0 0 0 0 179 180 180 0 180 179 180 0 0 0 0 179 0 0 0 0 0 172 170 170 171 0 0 0 0 0 0 0 172 0 0 171 170 170 170 0 0 169 0 167 0 0 165 165 164 165 165 166 167 170 0 0 0 0 0 176 0 177 177 177 177 176 177 178 0 0 0 0 0 178 177 0 0 0 177 0 178 0 179 181 182 183 185 187 0 0 0 0 182 177 173 173 0 0 0 0 166 164 163 0 0 163 163 162 0 0 0 0 0 164 0 0 164 164 165 166 0 167 0 167 167 167 0 166 165 166 166 166 167 0 0 0 0 0 170 0 0 167 166 166 166 165 0 165 165 165 165 165 165 0 0 167 0 0 0 0 0 170 171 171 172 0 174 174 174 174 0 0 173 173 0 0 174 0 0 0 0 0 0 0 0 181 181 0 0 0 0 176 177 179 181 183 186 191 200 0 0 220 0 0 0 248 248 248 248 248 248 248 248 248 248 248 248 248 248 248 248 248 248 248 248 248 248 248 248 248 248 248 248 248 248 248 248 248 248 248 248 248 248 248 248 248 248 248 248 248 248 248 248 248 248 248 248 248 248 248 248 248 248 248 248 248 248 248 248 248 248 248 248 248 248 248 248 248 248 248 248 248 248 248 248 248 248 248 248 248 248 248 248 248 248 248 248 248 248 248 248 248 248 248 248 248 248 248 248 248 248 248 248 248 248 248 248 248 248 248 248 248 248 248 248 248 248 248 248 248 248 248 248 248 248 248 248 248 248 248 248 248 248 248 248 248 248 248 248 248 248 248 248 248 248 248 248 248 248 248 248 248 248 248 248 248 248 248 248 248 248 248 248 248 248 248 248 248 248 248 248 248 248 248 248 248 248 248 248 248 248 248 248 248 248 248 248 248 248 248 248 248 248 248 248 248 248 248 248 248 248 248 248 248 248 248 248 248 248 248 248 248 248 248 248 248 248 248 248 248 248 248 248 248 248 248 248 248 248 248 248 248 248 248 248 248 248 248 248 248 248 248 248 248 248 248 248 248 248 248 
0 199 199 0 0 0 0 199 200 201 0 205 0 208 0 0 0 0 210 0 209 0 0 0 208 207 0 206 206 206 0 0 206 0 0 0 0 206 0 0 0 206 0 0 0 0 191 182 176 172 0 165 159 155 152 151 149 146 144 143 0 0 0 135 134 0 133 132 131 130 127 128 129 128 127 129 131 0 129 127 128 0 0 127 127 127 126 124 122 122 124 127 0 0 127 0 0 126 125 125 127 0 0 128 128 128 131 134 135 134 132 133 140 147 0 0 0 161 160 163 166 170 175 0 0 0 0 185 185 0 0 0 0 186 0 0 186 0 185 0 0 0 184 183 0 0 0 0 0 0 182 183 183 0 182 181 0 180 180 0 0 180 180 180 0 180 180 180 0 180 179 179 180 0 180 180 180 180 0 0 179 179 0 180 180 0 0 0 180 0 0 180 180 180 0 0 0 176 0 172 172 171 171 171 0 172 0 172 172 172 172 171 171 0 0 170 170 170 0 0 0 169 0 0 166 165 165 165 165 166 167 170 0 0 0 0 0 174 174 0 174 173 174 174 173 0 0 175 175 0 0 176 0 0 175 174 174 174 173 174 174 175 0 0 178 179 180 181 184 186 0 0 0 0 178 173 172 172 0 0 0 0 165 164 0 0 0 0 0 163 0 163 0 0 164 163 164 0 165 0 165 166 167 0 0 167 0 166 165 166 0 0 166 167 167 169 170 170 170 170 0 0 0 0 166 166 0 165 165 165 165 164 165 0 167 0 0 169 169 167 169 170 0 0 172 0 173 0 174 174 174 174 0 0 174 174 0 175 175 176 0 179 180 181 0 181 180 180 179 177 177 0 0 180 182 184 188 193 210 0 0 227 0 0 0 248 248 248 248 248 248 248 248 248 248 248 248 248 248 248 248 248 248 248 248 248 248 248 248 248 248 248 248 248 248 248 248 248 248 248 248 248 248 248 248 248 248 248 248 248 248 248 248 248 248 248 248 248 248 248 248 248 248 248 248 248 248 248 248 248 248 248 248 248 248 248 248 248 248 248 248 248 248 248 248 248 248 248 248 248 248 248 248 248 248 248 248 248 248 248 248 248 248 248 248 248 248 248 248 248 248 248 248 248 248 248 248 248 248 248 248 248 248 248 248 248 248 248 248 248 248 248 248 248 248 248 248 248 248 248 248 248 248 248 248 248 248 248 248 248 248 248 248 248 248 248 248 248 248 248 248 248 248 248 248 248 248 248 248 248 248 248 248 248 248 248 248 248 248 248 248 248 248 248 248 248 248 248 248 248 248 248 248 248 248 248 248 248 248 248 248 248 248 248 248 248 248 248 248 248 248 248 248 248 248 248 248 248 248 248 248 248 248 248 248 248 248 248 248 248 248 248 248 248 248 248 248 248 248 248 248 248 248 248 248 248 248 248 248 248 248 248 248 248 248 248 248 248 248 248 
199 199 0 198 0 198 0 199 0 0 202 204 0 207 0 208 0 0 0 0 0 208 207 207 207 0 206 206 0 0 206 206 206 206 0 0 205 0 206 206 0 0 0 0 0 0 0 0 0 0 157 155 152 149 146 145 145 0 142 0 0 135 130 128 129 129 128 131 131 0 129 128 0 128 128 0 130 128 125 126 127 127 127 0 0 128 127 127 0 0 0 0 129 128 0 0 0 128 128 128 129 0 128 128 129 130 0 0 0 0 130 130 132 135 138 145 0 0 155 156 157 159 164 0 0 0 0 0 0 0 182 181 0 185 0 0 186 186 0 185 185 0 0 183 0 182 182 0 0 0 183 0 183 0 0 0 181 180 180 0 180 179 179 180 180 0 0 0 0 180 0 0 180 180 180 180 0 180 0 0 179 0 0 180 0 180 180 0 0 179 0 179 0 0 0 0 0 172 171 170 171 171 171 0 0 0 172 0 0 171 171 171 171 0 0 171 0 0 0 170 0 0 167 166 166 166 165 167 167 0 0 0 0 0 0 174 0 172 172 172 0 171 0 0 0 0 172 172 172 173 0 174 174 173 173 0 0 0 171 171 171 171 172 173 174 175 176 0 179 181 182 184 0 0 0 0 174 170 170 172 0 0 0 169 165 163 162 162 0 163 0 163 0 164 164 164 0 0 0 164 164 165 166 167 0 167 0 166 0 0 0 0 166 166 167 0 0 0 170 170 0 0 167 167 0 0 165 165 0 0 0 165 165 166 167 0 0 169 0 0 0 0 171 171 172 0 173 174 0 0 0 174 0 0 174 0 175 176 175 176 177 179 181 182 182 181 180 0 179 178 178 178 179 181 183 186 190 198 0 0 0 234 0 0 0 248 248 248 248 248 248 248 248 248 248 248 248 248 248 248 248 248 248 248 248 248 248 248 248 248 248 248 248 248 248 248 248 248 248 248 248 248 248 248 248 248 248 248 248 248 248 248 248 248 248 248 248 248 248 248 248 248 248 248 248 248 248 248 248 248 248 248 248 248 248 248 248 248 248 248 248 248 248 248 248 248 248 248 248 248 248 248 248 248 248 248 248 248 248 248 248 248 248 248 248 248 248 248 248 248 248 248 248 248 248 248 248 248 248 248 248 248 248 248 248 248 248 248 248 248 248 248 248 248 248 248 248 248 248 248 248 248 248 248 248 248 248 248 248 248 248 248 248 248 248 248 248 248 248 248 248 248 248 248 248 248 248 248 248 248 248 248 248 248 248 248 248 248 248 248 248 248 248 248 248 248 248 248 248 248 248 248 248 248 248 248 248 248 248 248 248 248 248 248 248 248 248 248 248 248 248 248 248 248 248 248 248 248 248 248 248 248 248 248 248 248 248 248 248 248 248 248 248 248 248 248 248 248 248 248 248 248 248 248 248 248 248 248 248 248 248 248 248 248 248 248 248 248 248 248 
199 0 0 198 0 198 0 199 0 200 201 203 0 205 0 207 207 0 207 207 0 207 0 0 206 0 206 0 205 205 0 0 0 205 0 0 204 0 0 0 0 0 0 0 0 0 170 162 155 151 148 148 148 0 0 0 0 139 139 0 0 0 127 123 124 126 0 0 0 0 0 0 0 0 0 0 0 0 0 0 127 126 126 0 0 0 0 0 0 130 0 0 0 0 0 0 130 0 0 0 0 128 127 128 129 0 0 0 132 0 130 0 131 133 135 138 144 147 150 0 0 0 0 0 164 166 172 177 0 0 178 0 181 183 0 0 186 0 0 185 0 0 0 183 0 182 0 182 182 182 183 0 182 182 0 0 181 180 0 0 0 0 0 180 180 0 181 181 0 180 0 180 180 180 180 180 180 179 179 179 179 0 0 179 0 179 179 179 179 179 179 179 0 0 0 174 172 170 170 0 0 0 172 0 0 172 171 171 171 170 0 171 0 0 171 0 0 0 0 170 0 169 167 167 167 167 0 0 0 0 0 0 0 173 173 172 0 171 0 170 170 0 0 0 0 167 0 0 0 171 0 172 0 0 171 0 170 0 169 0 0 167 169 170 171 171 172 174 176 177 0 0 182 0 0 0 0 0 171 169 171 0 0 0 170 164 163 162 162 0 163 0 0 0 164 164 164 164 0 0 165 0 0 166 166 165 0 165 0 165 165 165 165 165 166 167 0 0 169 0 0 167 166 0 0 0 165 0 0 165 0 0 166 167 167 167 0 0 0 169 169 0 0 171 172 0 173 0 0 175 0 175 0 0 174 0 0 0 0 177 178 0 0 0 0 182 181 0 0 179 179 179 180 181 184 187 191 202 0 0 0 239 243 0 248 248 248 248 248 248 248 248 248 248 248 248 248 248 248 248 248 248 248 248 248 248 248 248 248 248 248 248 248 248 248 248 248 248 248 248 248 248 248 248 248 248 248 248 248 248 248 248 248 248 248 248 248 248 248 248 248 248 248 248 248 248 248 248 248 248 248 248 248 248 248 248 248 248 248 248 248 248 248 248 248 248 248 248 248 248 248 248 248 248 248 248 248 248 248 248 248 248 248 248 248 248 248 248 248 248 248 248 248 248 248 248 248 248 248 248 248 248 248 248 248 248 248 248 248 248 248 248 248 248 248 248 248 248 248 248 248 248 248 248 248 248 248 248 248 248 248 248 248 248 248 248 248 248 248 248 248 248 248 248 248 248 248 248 248 248 248 248 248 248 248 248 248 248 248 248 248 248 248 248 248 248 248 248 248 248 248 248 248 248 248 248 248 248 248 248 248 248 248 248 248 248 248 248 248 248 248 248 248 248 248 248 248 248 248 248 248 248 248 248 248 248 248 248 248 248 248 248 248 248 248 248 248 248 248 248 248 248 248 248 248 248 248 248 248 248 248 248 248 248 248 248 248 248 248 248 
199 0 198 198 0 0 0 199 199 199 0 202 0 204 0 206 0 0 0 0 0 0 206 206 206 206 0 0 204 0 0 205 205 205 0 203 202 202 0 0 0 0 0 0 0 167 159 154 147 143 144 148 0 0 0 0 139 136 0 0 133 130 127 124 126 0 0 0 129 127 0 0 123 122 124 0 0 0 0 0 127 127 127 0 129 130 131 0 0 0 130 129 128 127 0 128 0 0 0 0 0 0 0 0 0 0 0 131 129 128 128 130 130 132 0 0 0 0 0 0 0 0 0 155 159 0 167 169 172 0 0 177 179 181 183 0 186 186 0 185 0 0 184 183 0 183 0 0 182 0 0 0 182 0 0 0 181 180 179 179 180 180 180 0 0 0 0 181 0 180 180 180 180 180 0 0 0 0 179 179 0 0 0 0 179 179 0 178 0 179 0 0 0 175 172 172 171 0 0 0 172 172 172 172 172 171 0 0 170 170 171 0 0 0 171 170 170 170 0 170 0 0 169 170 0 0 0 0 0 0 0 174 173 172 0 171 0 170 169 169 0 167 167 167 167 167 167 0 0 169 0 0 0 0 169 0 0 167 167 167 166 166 0 167 0 169 170 0 0 0 174 176 178 0 181 0 0 0 0 173 169 167 171 0 0 0 166 163 163 162 162 0 163 0 0 164 164 0 0 0 0 0 165 165 164 165 165 165 0 163 164 164 0 164 165 167 0 0 169 0 167 0 0 164 164 165 0 0 0 165 166 166 167 0 0 167 167 167 0 167 169 0 0 0 0 173 174 0 0 176 0 176 175 175 174 176 0 0 0 178 178 180 183 0 0 0 0 181 180 179 0 0 181 182 184 0 194 209 0 0 0 242 244 0 248 248 248 248 248 248 248 248 248 248 248 248 248 248 248 248 248 248 248 248 248 248 248 248 248 248 248 248 248 248 248 248 248 248 248 248 248 248 248 248 248 248 248 248 248 248 248 248 248 248 248 248 248 248 248 248 248 248 248 248 248 248 248 248 248 248 248 248 248 248 248 248 248 248 248 248 248 248 248 248 248 248 248 248 248 248 248 248 248 248 248 248 248 248 248 248 248 248 248 248 248 248 248 248 248 248 248 248 248 248 248 248 248 248 248 248 248 248 248 248 248 248 248 248 248 248 248 248 248 248 248 248 248 248 248 248 248 248 248 248 248 248 248 248 248 248 248 248 248 248 248 248 248 248 248 248 248 248 248 248 248 248 248 248 248 248 248 248 248 248 248 248 248 248 248 248 248 248 248 248 248 248 248 248 248 248 248 248 248 248 248 248 248 248 248 248 248 248 248 248 248 248 248 248 248 248 248 248 248 248 248 248 248 248 248 248 248 248 248 248 248 248 248 248 248 248 248 248 248 248 248 248 248 248 248 248 248 248 248 248 248 248 248 248 248 248 248 248 248 248 248 248 248 248 248 248 
0 0 198 0 198 0 198 0 199 0 0 201 202 203 204 205 0 205 205 205 0 0 0 0 0 205 0 205 205 0 205 204 0 0 0 0 0 0 0 0 185 182 180 174 163 154 151 150 0 0 0 0 0 144 140 136 133 133 0 133 131 0 0 127 128 129 130 128 126 125 124 120 119 119 119 0 0 0 0 0 0 0 0 0 0 0 0 0 0 0 0 128 0 0 0 127 0 131 132 133 133 132 132 0 133 133 132 131 130 129 130 0 0 134 134 134 132 135 0 0 142 142 144 148 0 0 0 0 0 0 0 173 176 0 182 0 0 0 0 185 0 184 183 183 183 182 182 182 182 182 182 0 0 182 182 182 181 180 179 180 0 180 180 180 180 180 0 0 0 180 180 0 0 0 0 179 0 0 179 179 0 179 179 179 179 179 0 179 0 0 0 0 174 172 170 171 171 0 172 172 0 0 171 0 0 0 0 0 0 171 0 171 170 170 171 0 0 171 0 170 170 171 172 174 0 0 0 0 176 0 174 173 172 0 0 0 0 0 0 0 166 166 166 166 166 0 165 0 0 166 0 166 166 166 0 166 166 0 0 0 164 0 165 165 166 167 0 167 169 0 0 173 0 175 177 0 181 0 0 0 176 169 165 169 0 0 0 169 164 162 162 162 162 162 0 0 164 0 164 0 164 163 164 0 164 0 0 164 0 163 0 164 0 164 165 166 0 0 0 167 166 0 165 164 0 0 165 165 165 166 0 167 167 0 0 0 0 0 0 169 169 170 171 0 172 173 0 0 176 176 0 0 0 175 175 176 0 0 180 179 179 181 0 0 0 184 0 181 180 0 179 0 0 0 185 189 196 216 0 0 0 242 0 0 248 248 248 248 248 248 248 248 248 248 248 248 248 248 248 248 248 248 248 248 248 248 248 248 248 248 248 248 248 248 248 248 248 248 248 248 248 248 248 248 248 248 248 248 248 248 248 248 248 248 248 248 248 248 248 248 248 248 248 248 248 248 248 248 248 248 248 248 248 248 248 248 248 248 248 248 248 248 248 248 248 248 248 248 248 248 248 248 248 248 248 248 248 248 248 248 248 248 248 248 248 248 248 248 248 248 248 248 248 248 248 248 248 248 248 248 248 248 248 248 248 248 248 248 248 248 248 248 248 248 248 248 248 248 248 248 248 248 248 248 248 248 248 248 248 248 248 248 248 248 248 248 248 248 248 248 248 248 248 248 248 248 248 248 248 248 248 248 248 248 248 248 248 248 248 248 248 248 248 248 248 248 248 248 248 248 248 248 248 248 248 248 248 248 248 248 248 248 248 248 248 248 248 248 248 248 248 248 248 248 248 248 248 248 248 248 248 248 248 248 248 248 248 248 248 248 248 248 248 248 248 248 248 248 248 248 248 248 248 248 248 248 248 248 248 248 248 248 248 248 248 248 248 248 248 248 
198 0 197 0 197 197 198 0 199 0 200 200 201 0 203 0 0 0 204 204 0 204 204 0 205 205 205 205 0 204 0 204 0 0 0 0 0 0 0 181 175 172 171 0 161 0 0 0 0 144 0 0 0 139 135 131 131 131 0 0 0 129 0 0 0 0 0 0 124 0 0 121 121 121 0 0 121 120 120 122 0 0 0 126 125 126 0 0 0 128 0 0 125 123 122 124 0 0 131 133 133 132 132 133 133 132 132 0 0 131 131 0 0 0 0 0 128 128 132 133 134 135 137 140 0 0 0 0 162 166 171 174 177 0 0 0 0 0 0 0 0 184 183 0 183 0 182 182 182 181 0 0 182 0 0 182 181 0 179 0 0 0 179 0 0 180 180 180 180 180 180 0 179 179 0 179 0 178 179 0 179 179 0 0 0 0 0 0 0 0 0 174 172 170 0 171 0 0 0 172 0 171 171 171 171 0 171 171 171 171 171 171 171 171 171 0 171 172 172 172 174 0 0 0 0 177 0 0 176 175 174 0 171 170 170 169 167 167 0 167 166 0 0 0 165 0 164 0 0 0 0 0 0 0 0 163 163 0 163 163 163 163 0 0 164 0 0 0 165 166 0 170 0 0 172 173 176 0 0 0 0 0 171 165 167 171 0 0 0 165 162 162 162 162 0 163 0 0 0 0 163 163 0 0 0 164 163 163 163 163 0 0 163 164 165 0 167 167 0 166 165 165 165 0 0 0 164 164 165 0 167 167 0 169 169 169 0 169 169 169 170 0 171 0 172 173 0 0 0 177 0 176 0 175 175 177 179 0 181 181 181 0 0 184 0 183 0 0 0 179 179 0 0 183 186 192 201 0 0 247 0 242 0 0 248 248 248 248 248 248 248 248 248 248 248 248 248 248 248 248 248 248 248 248 248 248 248 248 248 248 248 248 248 248 248 248 248 248 248 248 248 248 248 248 248 248 248 248 248 248 248 248 248 248 248 248 248 248 248 248 248 248 248 248 248 248 248 248 248 248 248 248 248 248 248 248 248 248 248 248 248 248 248 248 248 248 248 248 248 248 248 248 248 248 248 248 248 248 248 248 248 248 248 248 248 248 248 248 248 248 248 248 248 248 248 248 248 248 248 248 248 248 248 248 248 248 248 248 248 248 248 248 248 248 248 248 248 248 248 248 248 248 248 248 248 248 248 248 248 248 248 248 248 248 248 248 248 248 248 248 248 248 248 248 248 248 248 248 248 248 248 248 248 248 248 248 248 248 248 248 248 248 248 248 248 248 248 248 248 248 248 248 248 248 248 248 248 248 248 248 248 248 248 248 248 248 248 248 248 248 248 248 248 248 248 248 248 248 248 248 248 248 248 248 248 248 248 248 248 248 248 248 248 248 248 248 248 248 248 248 248 248 248 248 248 248 248 248 248 248 248 248 248 248 248 248 248 248 248 248 
197 197 0 0 197 197 198 0 199 199 199 200 201 0 0 202 203 203 0 204 0 0 203 204 204 0 0 0 0 204 204 0 0 0 0 0 0 0 177 170 166 166 0 0 0 0 0 144 142 140 142 0 0 137 133 130 130 130 129 128 0 0 0 128 0 0 0 0 122 122 122 0 0 0 121 118 117 116 118 119 121 0 124 124 124 124 0 124 126 127 0 0 0 122 119 120 122 126 0 0 0 0 0 0 0 133 0 132 0 0 0 129 130 129 128 128 129 129 0 132 134 0 0 135 136 140 147 0 157 0 0 0 0 0 0 172 173 0 0 0 0 184 0 183 183 183 0 0 182 182 182 0 182 0 0 182 0 0 178 178 0 179 179 0 179 0 0 0 0 180 180 0 179 178 179 0 179 179 0 0 179 0 178 178 0 178 0 0 0 0 172 172 0 171 171 171 0 171 0 0 171 171 171 171 0 171 171 170 170 171 0 0 0 172 172 172 173 174 175 0 0 0 0 0 0 0 176 175 0 0 173 0 0 169 0 0 167 167 167 166 165 165 0 164 164 0 162 160 160 161 161 161 161 160 160 159 160 0 161 161 161 0 0 0 162 161 162 0 0 164 165 167 0 0 0 0 172 175 177 0 0 0 0 172 166 166 170 0 0 0 164 162 162 162 162 0 0 162 163 163 163 163 0 0 0 163 163 163 0 0 163 0 163 163 164 0 0 166 165 165 165 0 165 165 0 164 164 0 165 166 167 0 0 169 169 0 0 169 169 0 0 171 0 172 0 173 174 0 0 0 0 176 175 175 176 0 0 181 182 0 0 0 0 183 0 183 0 0 181 180 180 180 181 183 187 196 209 0 0 247 0 242 0 0 248 248 248 248 248 248 248 248 248 248 248 248 248 248 248 248 248 248 248 248 248 248 248 248 248 248 248 248 248 248 248 248 248 248 248 248 248 248 248 248 248 248 248 248 248 248 248 248 248 248 248 248 248 248 248 248 248 248 248 248 248 248 248 248 248 248 248 248 248 248 248 248 248 248 248 248 248 248 248 248 248 248 248 248 248 248 248 248 248 248 248 248 248 248 248 248 248 248 248 248 248 248 248 248 248 248 248 248 248 248 248 248 248 248 248 248 248 248 248 248 248 248 248 248 248 248 248 248 248 248 248 248 248 248 248 248 248 248 248 248 248 248 248 248 248 248 248 248 248 248 248 248 248 248 248 248 248 248 248 248 248 248 248 248 248 248 248 248 248 248 248 248 248 248 248 248 248 248 248 248 248 248 248 248 248 248 248 248 248 248 248 248 248 248 248 248 248 248 248 248 248 248 248 248 248 248 248 248 248 248 248 248 248 248 248 248 248 248 248 248 248 248 248 248 248 248 248 248 248 248 248 248 248 248 248 248 248 248 248 248 248 248 248 248 248 248 248 248 248 248 248 248 248 248 248 248 
0 197 0 197 197 197 198 0 0 0 199 0 0 201 0 202 202 202 0 203 203 203 0 203 0 204 204 204 0 203 203 0 0 0 188 181 178 173 169 161 160 0 0 0 0 0 0 141 139 139 0 0 135 0 133 132 0 130 0 0 125 125 0 0 126 125 124 124 124 122 121 123 123 122 120 0 0 0 0 0 119 120 122 0 0 123 122 123 0 0 0 0 0 120 119 120 120 123 128 0 131 130 131 131 133 134 133 132 131 130 129 129 130 130 0 0 0 0 130 0 0 0 0 0 132 133 138 143 0 0 0 0 0 0 165 162 161 170 0 0 0 184 0 183 0 183 183 0 182 182 182 0 0 182 182 0 181 0 179 0 178 178 0 178 178 179 180 0 0 0 179 0 0 178 0 179 179 179 178 0 0 0 0 178 178 0 0 0 174 171 170 171 171 0 0 0 171 171 0 0 170 0 0 171 171 171 171 171 0 0 0 172 173 173 173 174 0 0 0 0 179 0 0 178 0 177 0 175 174 173 172 171 170 169 0 167 0 0 0 0 164 164 164 163 163 0 0 160 159 159 158 158 158 158 158 157 157 158 0 0 0 159 159 0 0 159 160 0 0 162 163 164 0 166 167 0 170 171 173 175 0 0 0 0 0 167 165 169 0 0 0 165 162 162 162 162 162 0 0 163 163 163 163 163 163 163 162 163 0 164 164 0 164 164 0 0 0 166 0 165 164 0 0 0 0 0 0 0 165 0 0 0 0 169 0 0 0 169 0 170 0 0 172 0 0 173 174 175 0 0 0 176 175 176 177 0 0 181 0 0 184 184 184 184 0 0 182 0 181 0 180 0 182 184 188 197 212 0 0 0 0 243 0 0 248 248 248 248 248 248 248 248 248 248 248 248 248 248 248 248 248 248 248 248 248 248 248 248 248 248 248 248 248 248 248 248 248 248 248 248 248 248 248 248 248 248 248 248 248 248 248 248 248 248 248 248 248 248 248 248 248 248 248 248 248 248 248 248 248 248 248 248 248 248 248 248 248 248 248 248 248 248 248 248 248 248 248 248 248 248 248 248 248 248 248 248 248 248 248 248 248 248 248 248 248 248 248 248 248 248 248 248 248 248 248 248 248 248 248 248 248 248 248 248 248 248 248 248 248 248 248 248 248 248 248 248 248 248 248 248 248 248 248 248 248 248 248 248 248 248 248 248 248 248 248 248 248 248 248 248 248 248 248 248 248 248 248 248 248 248 248 248 248 248 248 248 248 248 248 248 248 248 248 248 248 248 248 248 248 248 248 248 248 248 248 248 248 248 248 248 248 248 248 248 248 248 248 248 248 248 248 248 248 248 248 248 248 248 248 248 248 248 248 248 248 248 248 248 248 248 248 248 248 248 248 248 248 248 248 248 248 248 248 248 248 248 248 248 248 248 248 248 248 248 248 248 248 248 248 248 
0 197 0 196 197 0 197 0 0 198 199 0 200 0 201 0 0 202 0 0 202 0 0 203 0 203 0 203 0 203 0 0 0 189 181 175 169 165 0 0 0 153 150 145 143 142 141 139 138 0 136 134 133 133 133 0 0 0 0 125 123 121 123 125 125 126 0 0 0 0 0 0 0 121 0 0 0 0 0 119 120 121 122 122 122 122 121 122 0 121 120 119 121 121 120 121 121 122 125 128 128 128 130 131 134 0 0 0 132 130 129 130 0 131 0 130 128 127 128 129 130 129 129 129 129 130 132 135 142 0 0 0 0 0 0 0 163 169 0 0 0 184 0 183 0 0 183 182 182 182 182 182 0 182 0 181 181 0 0 179 0 178 0 0 178 179 179 180 180 0 178 0 0 0 178 178 0 0 178 178 177 0 0 0 177 177 0 174 171 170 171 0 0 172 172 0 0 171 170 0 170 0 170 171 171 172 172 0 173 0 173 173 175 176 0 0 0 0 0 180 0 0 178 0 0 0 0 174 173 172 170 170 0 167 167 0 166 165 165 0 164 0 0 0 0 0 0 0 0 0 0 0 157 0 0 0 155 156 157 157 156 157 157 157 158 0 159 159 159 160 161 162 163 0 165 165 167 0 170 170 171 175 0 0 0 0 167 165 167 0 0 0 167 163 162 0 162 162 0 163 163 0 0 0 163 0 0 163 0 164 0 0 164 0 0 166 166 166 165 165 0 0 164 0 165 165 165 165 165 165 166 166 0 169 0 170 0 170 0 170 171 0 172 173 0 174 0 0 0 176 176 0 0 176 178 0 181 182 0 0 183 184 0 0 0 0 182 181 181 0 180 181 182 185 191 199 214 0 0 0 0 244 0 0 248 248 248 248 248 248 248 248 248 248 248 248 248 248 248 248 248 248 248 248 248 248 248 248 248 248 248 248 248 248 248 248 248 248 248 248 248 248 248 248 248 248 248 248 248 248 248 248 248 248 248 248 248 248 248 248 248 248 248 248 248 248 248 248 248 248 248 248 248 248 248 248 248 248 248 248 248 248 248 248 248 248 248 248 248 248 248 248 248 248 248 248 248 248 248 248 248 248 248 248 248 248 248 248 248 248 248 248 248 248 248 248 248 248 248 248 248 248 248 248 248 248 248 248 248 248 248 248 248 248 248 248 248 248 248 248 248 248 248 248 248 248 248 248 248 248 248 248 248 248 248 248 248 248 248 248 248 248 248 248 248 248 248 248 248 248 248 248 248 248 248 248 248 248 248 248 248 248 248 248 248 248 248 248 248 248 248 248 248 248 248 248 248 248 248 248 248 248 248 248 248 248 248 248 248 248 248 248 248 248 248 248 248 248 248 248 248 248 248 248 248 248 248 248 248 248 248 248 248 248 248 248 248 248 248 248 248 248 248 248 248 248 248 248 248 248 248 248 248 248 248 248 248 248 248 248 
0 0 196 0 0 0 197 0 0 0 199 199 200 0 0 201 201 0 202 202 202 202 0 202 202 202 0 0 0 0 0 0 0 184 0 0 0 162 156 153 149 147 145 143 0 0 139 136 136 0 0 136 0 0 0 0 131 127 125 123 121 123 0 0 0 0 0 0 126 125 124 123 0 119 118 118 117 117 117 119 0 0 0 0 121 0 0 121 120 119 118 120 0 0 0 0 0 0 125 127 128 130 0 0 0 0 136 134 134 0 132 133 0 132 132 130 128 127 126 125 126 128 129 0 129 129 128 129 132 138 0 0 0 0 161 163 164 171 0 0 0 184 184 184 0 0 0 182 0 0 0 181 0 0 0 181 181 0 0 178 0 0 0 0 0 179 0 0 180 179 179 179 0 178 0 0 0 0 178 0 177 178 0 0 0 0 0 171 170 171 0 0 0 0 0 171 171 0 170 0 171 171 171 0 0 173 0 0 174 175 175 177 179 0 0 0 0 0 180 0 0 0 178 177 0 176 0 173 0 0 170 169 0 167 0 166 165 164 164 0 163 0 0 160 160 159 158 158 0 0 0 0 0 0 155 0 0 155 0 0 0 0 0 155 0 0 158 158 158 0 159 160 161 0 0 164 165 166 167 0 0 170 174 0 0 0 0 170 165 166 0 0 0 0 163 162 162 162 0 163 163 0 0 163 163 163 0 0 163 164 0 164 164 165 166 166 0 166 0 165 0 0 0 164 0 165 165 0 0 165 166 0 0 170 170 170 0 170 170 170 171 0 172 173 174 0 175 0 176 0 175 175 175 176 0 0 0 0 183 183 0 0 0 184 182 182 0 181 0 0 180 181 183 186 194 203 218 0 0 0 244 245 0 248 248 248 248 248 248 248 248 248 248 248 248 248 248 248 248 248 248 248 248 248 248 248 248 248 248 248 248 248 248 248 248 248 248 248 248 248 248 248 248 248 248 248 248 248 248 248 248 248 248 248 248 248 248 248 248 248 248 248 248 248 248 248 248 248 248 248 248 248 248 248 248 248 248 248 248 248 248 248 248 248 248 248 248 248 248 248 248 248 248 248 248 248 248 248 248 248 248 248 248 248 248 248 248 248 248 248 248 248 248 248 248 248 248 248 248 248 248 248 248 248 248 248 248 248 248 248 248 248 248 248 248 248 248 248 248 248 248 248 248 248 248 248 248 248 248 248 248 248 248 248 248 248 248 248 248 248 248 248 248 248 248 248 248 248 248 248 248 248 248 248 248 248 248 248 248 248 248 248 248 248 248 248 248 248 248 248 248 248 248 248 248 248 248 248 248 248 248 248 248 248 248 248 248 248 248 248 248 248 248 248 248 248 248 248 248 248 248 248 248 248 248 248 248 248 248 248 248 248 248 248 248 248 248 248 248 248 248 248 248 248 248 248 248 248 248 248 248 248 248 248 248 248 248 248 248 248 
195 0 196 196 196 0 196 197 198 0 199 199 0 200 200 200 0 0 201 0 0 202 202 0 201 201 202 202 202 0 0 0 186 180 0 0 0 0 153 149 149 147 145 142 142 0 0 136 135 0 136 0 0 0 135 0 130 0 125 122 123 0 0 123 123 124 0 0 0 0 0 0 0 0 0 0 0 116 0 119 0 0 0 123 122 121 0 0 0 0 121 121 122 0 0 0 0 126 0 0 0 0 0 134 0 0 137 137 137 0 0 0 136 0 134 132 129 127 126 126 125 127 0 0 0 128 128 128 130 132 134 140 147 0 0 0 0 0 0 182 0 0 0 0 0 183 0 182 181 181 0 181 181 181 0 0 181 0 0 177 177 178 0 179 179 179 179 0 0 0 0 178 178 178 178 0 178 178 178 0 177 0 0 0 0 172 170 170 0 0 0 0 171 0 0 171 0 170 0 171 0 172 173 173 174 174 174 175 176 179 0 0 0 0 0 182 181 0 179 179 179 0 177 176 0 175 0 173 172 171 170 0 167 166 0 165 0 164 0 0 162 0 160 159 0 0 156 156 0 155 154 0 153 153 152 153 0 154 154 154 0 154 0 155 0 0 0 0 157 0 158 0 0 0 161 0 0 0 165 166 0 0 170 173 0 0 0 0 170 164 165 0 0 0 0 163 162 0 0 163 0 0 0 0 0 163 162 162 163 0 164 0 165 165 166 0 0 167 0 165 0 164 164 164 0 165 0 0 165 165 166 0 0 0 170 170 0 169 0 0 0 172 172 0 174 0 175 0 175 0 175 175 176 0 0 181 0 0 182 183 183 0 184 0 0 182 0 0 180 0 180 180 183 188 198 209 226 0 0 0 242 0 0 248 248 248 248 248 248 248 248 248 248 248 248 248 248 248 248 248 248 248 248 248 248 248 248 248 248 248 248 248 248 248 248 248 248 248 248 248 248 248 248 248 248 248 248 248 248 248 248 248 248 248 248 248 248 248 248 248 248 248 248 248 248 248 248 248 248 248 248 248 248 248 248 248 248 248 248 248 248 248 248 248 248 248 248 248 248 248 248 248 248 248 248 248 248 248 248 248 248 248 248 248 248 248 248 248 248 248 248 248 248 248 248 248 248 248 248 248 248 248 248 248 248 248 248 248 248 248 248 248 248 248 248 248 248 248 248 248 248 248 248 248 248 248 248 248 248 248 248 248 248 248 248 248 248 248 248 248 248 248 248 248 248 248 248 248 248 248 248 248 248 248 248 248 248 248 248 248 248 248 248 248 248 248 248 248 248 248 248 248 248 248 248 248 248 248 248 248 248 248 248 248 248 248 248 248 248 248 248 248 248 248 248 248 248 248 248 248 248 248 248 248 248 248 248 248 248 248 248 248 248 248 248 248 248 248 248 248 248 248 248 248 248 248 248 248 248 248 248 248 248 248 248 248 248 248 248 248 
196 196 196 196 196 0 0 0 197 0 0 199 199 0 200 200 200 200 200 0 0 201 202 0 0 0 0 0 0 0 0 0 183 0 167 160 154 151 150 0 0 0 0 0 0 0 0 134 134 0 135 0 0 0 0 0 129 0 0 0 0 0 120 118 119 122 123 124 0 0 121 0 118 116 117 118 117 116 117 117 119 0 0 123 0 120 120 123 0 0 0 0 0 124 126 0 0 0 0 0 0 129 0 0 0 0 0 0 0 0 0 0 0 0 0 0 133 130 0 0 128 129 130 0 0 0 0 0 130 131 131 132 137 146 0 0 0 175 0 0 184 0 0 184 0 182 0 0 181 181 181 181 181 181 181 181 181 0 0 178 177 178 0 0 179 0 179 0 0 179 0 179 178 177 177 177 177 0 0 177 0 0 0 0 172 170 170 0 0 0 0 171 0 171 171 171 0 170 170 0 0 0 0 175 0 175 177 179 0 0 0 0 0 0 182 181 0 180 179 0 0 0 177 0 175 174 0 172 0 0 0 0 166 165 165 0 0 0 0 0 161 0 0 158 0 0 155 154 0 152 152 152 151 151 151 0 152 0 153 153 0 153 0 154 154 0 0 155 155 0 0 0 0 158 159 159 160 0 0 163 165 167 0 169 171 0 0 0 0 170 163 165 0 0 0 0 163 162 162 163 163 163 163 163 0 163 0 0 163 163 164 0 165 0 167 0 0 167 0 165 165 165 0 0 0 165 165 165 165 165 165 166 0 0 0 0 0 169 170 171 0 172 173 0 0 175 175 0 176 176 0 176 0 178 0 0 0 0 182 183 0 0 0 182 182 0 181 180 180 0 180 180 182 190 205 218 0 0 0 0 242 0 0 248 248 248 248 248 248 248 248 248 248 248 248 248 248 248 248 248 248 248 248 248 248 248 248 248 248 248 248 248 248 248 248 248 248 248 248 248 248 248 248 248 248 248 248 248 248 248 248 248 248 248 248 248 248 248 248 248 248 248 248 248 248 248 248 248 248 248 248 248 248 248 248 248 248 248 248 248 248 248 248 248 248 248 248 248 248 248 248 248 248 248 248 248 248 248 248 248 248 248 248 248 248 248 248 248 248 248 248 248 248 248 248 248 248 248 248 248 248 248 248 248 248 248 248 248 248 248 248 248 248 248 248 248 248 248 248 248 248 248 248 248 248 248 248 248 248 248 248 248 248 248 248 248 248 248 248 248 248 248 248 248 248 248 248 248 248 248 248 248 248 248 248 248 248 248 248 248 248 248 248 248 248 248 248 248 248 248 248 248 248 248 248 248 248 248 248 248 248 248 248 248 248 248 248 248 248 248 248 248 248 248 248 248 248 248 248 248 248 248 248 248 248 248 248 248 248 248 248 248 248 248 248 248 248 248 248 248 248 248 248 248 248 248 248 248 248 248 248 248 248 248 248 248 248 248 248 248 
0 196 196 0 0 196 196 0 197 0 0 0 199 0 0 0 0 200 0 201 201 0 0 201 201 0 0 0 0 0 0 186 0 0 163 157 152 148 148 0 0 144 140 137 136 135 135 0 133 133 0 0 133 132 131 0 127 125 0 123 120 118 117 118 120 0 0 122 121 119 117 115 114 114 117 0 118 0 0 115 117 119 0 0 0 0 122 0 0 0 124 0 0 124 125 125 124 123 123 125 125 126 128 130 135 0 0 140 140 139 0 0 0 0 0 0 0 0 130 129 129 131 0 130 129 129 129 130 130 131 131 131 130 134 147 0 0 0 0 0 184 0 0 184 0 183 0 0 182 0 181 181 181 181 0 181 181 0 0 0 0 0 0 178 0 0 179 179 0 179 179 0 0 176 176 0 177 0 0 0 0 0 0 172 171 0 0 0 171 171 0 170 170 170 0 0 0 171 171 173 174 175 176 177 178 180 0 0 0 0 0 0 0 183 0 181 0 180 0 0 177 0 0 0 0 0 172 171 170 170 0 0 0 165 0 164 163 163 0 161 160 0 0 0 156 0 153 152 0 151 151 0 0 150 150 0 0 0 0 0 152 151 0 153 153 153 153 153 153 154 155 156 156 157 0 158 0 0 0 161 0 164 165 167 166 167 174 0 0 0 170 165 164 169 0 0 0 163 163 163 0 163 163 163 163 163 0 163 163 163 0 164 0 166 0 0 0 0 165 165 0 0 0 0 0 0 0 0 0 164 0 165 166 0 0 169 0 0 170 171 0 0 0 174 175 0 0 176 0 0 176 176 0 177 0 0 0 0 183 0 0 0 182 181 181 0 181 180 0 0 0 181 183 196 0 227 0 0 0 245 242 0 0 248 248 248 248 248 248 248 248 248 248 248 248 248 248 248 248 248 248 248 248 248 248 248 248 248 248 248 248 248 248 248 248 248 248 248 248 248 248 248 248 248 248 248 248 248 248 248 248 248 248 248 248 248 248 248 248 248 248 248 248 248 248 248 248 248 248 248 248 248 248 248 248 248 248 248 248 248 248 248 248 248 248 248 248 248 248 248 248 248 248 248 248 248 248 248 248 248 248 248 248 248 248 248 248 248 248 248 248 248 248 248 248 248 248 248 248 248 248 248 248 248 248 248 248 248 248 248 248 248 248 248 248 248 248 248 248 248 248 248 248 248 248 248 248 248 248 248 248 248 248 248 248 248 248 248 248 248 248 248 248 248 248 248 248 248 248 248 248 248 248 248 248 248 248 248 248 248 248 248 248 248 248 248 248 248 248 248 248 248 248 248 248 248 248 248 248 248 248 248 248 248 248 248 248 248 248 248 248 248 248 248 248 248 248 248 248 248 248 248 248 248 248 248 248 248 248 248 248 248 248 248 248 248 248 248 248 248 248 248 248 248 248 248 248 248 248 248 248 248 248 248 248 248 248 248 248 248 
0 196 196 0 196 0 196 0 197 197 198 198 0 199 199 199 0 200 0 0 201 201 201 201 201 201 201 200 0 0 0 0 0 0 159 0 0 147 146 145 0 141 137 133 132 134 0 0 132 131 0 0 129 129 128 0 124 122 0 0 0 0 0 0 0 0 0 0 118 116 116 116 0 0 0 0 0 0 114 113 116 118 119 120 0 0 123 123 124 0 0 125 0 0 0 124 124 124 125 127 129 130 130 131 0 0 0 0 0 0 138 138 0 0 0 0 0 0 135 0 0 135 133 131 130 131 0 130 130 0 0 0 131 130 136 151 0 0 0 0 0 0 184 0 184 0 0 183 182 181 181 181 181 181 181 181 0 0 0 178 177 177 0 177 0 178 178 0 0 178 0 179 0 177 0 0 177 0 177 0 0 0 172 169 169 0 0 170 0 169 169 169 0 169 169 170 170 172 173 175 177 179 180 181 184 0 0 0 0 186 0 185 0 182 181 181 0 0 179 0 0 176 176 175 174 173 172 171 170 0 169 0 0 165 0 0 0 0 161 0 159 0 0 0 154 152 151 150 0 0 149 0 149 0 0 0 149 150 149 150 0 0 0 0 151 0 0 151 151 152 0 0 0 0 0 157 157 0 0 0 0 161 163 0 0 166 0 0 0 175 0 0 166 165 169 0 0 0 164 163 162 0 0 163 0 163 0 0 0 163 163 164 0 0 167 0 167 166 165 165 0 165 164 164 0 164 164 164 164 164 164 165 0 166 167 167 0 0 0 171 172 173 0 174 0 0 0 175 0 176 176 176 176 177 0 181 182 0 183 0 183 0 182 181 0 181 181 0 0 0 181 181 186 203 0 0 0 0 0 242 244 0 0 248 248 248 248 248 248 248 248 248 248 248 248 248 248 248 248 248 248 248 248 248 248 248 248 248 248 248 248 248 248 248 248 248 248 248 248 248 248 248 248 248 248 248 248 248 248 248 248 248 248 248 248 248 248 248 248 248 248 248 248 248 248 248 248 248 248 248 248 248 248 248 248 248 248 248 248 248 248 248 248 248 248 248 248 248 248 248 248 248 248 248 248 248 248 248 248 248 248 248 248 248 248 248 248 248 248 248 248 248 248 248 248 248 248 248 248 248 248 248 248 248 248 248 248 248 248 248 248 248 248 248 248 248 248 248 248 248 248 248 248 248 248 248 248 248 248 248 248 248 248 248 248 248 248 248 248 248 248 248 248 248 248 248 248 248 248 248 248 248 248 248 248 248 248 248 248 248 248 248 248 248 248 248 248 248 248 248 248 248 248 248 248 248 248 248 248 248 248 248 248 248 248 248 248 248 248 248 248 248 248 248 248 248 248 248 248 248 248 248 248 248 248 248 248 248 248 248 248 248 248 248 248 248 248 248 248 248 248 248 248 248 248 248 248 248 248 248 248 248 248 248 248 248 248 248 248 248 
196 0 196 0 196 0 0 0 0 197 0 198 0 0 199 0 0 0 200 200 0 0 201 201 0 200 0 0 0 188 179 169 162 158 0 0 148 0 0 142 0 138 137 134 0 133 0 0 131 0 129 0 128 0 126 124 122 122 121 119 0 0 118 119 0 0 121 0 117 114 116 0 0 116 115 114 114 112 112 113 0 0 0 119 120 0 0 123 124 124 124 0 0 122 122 0 0 0 0 0 0 0 0 0 133 135 0 0 0 0 137 135 136 136 0 0 0 0 0 0 0 0 0 0 0 136 134 130 130 132 134 137 137 136 136 144 157 0 0 0 0 185 185 0 184 0 0 0 182 181 181 181 181 181 181 0 180 0 0 0 177 176 0 177 176 177 178 178 178 178 0 178 0 0 177 177 177 0 0 0 174 172 169 169 169 0 0 167 0 0 167 0 169 0 0 170 172 174 177 179 181 183 0 0 0 0 0 0 186 185 185 0 183 181 181 0 180 179 178 0 0 176 175 0 0 172 0 171 170 0 0 167 0 0 0 0 162 160 159 0 0 157 156 155 0 0 150 0 148 147 147 0 148 0 148 0 0 0 148 148 0 150 151 150 150 0 151 151 151 151 0 153 0 0 0 156 156 155 156 158 0 160 161 0 0 0 167 167 0 0 0 0 0 165 164 0 0 0 169 164 162 163 163 163 0 0 164 164 164 0 164 0 0 0 167 167 166 0 165 0 165 0 0 164 0 164 163 0 0 164 164 0 165 165 166 167 0 169 170 0 172 173 0 174 0 175 175 0 175 0 175 0 0 0 179 0 0 0 0 182 183 182 0 181 0 181 0 0 180 180 181 183 190 0 0 237 0 0 0 239 0 0 248 248 248 248 248 248 248 248 248 248 248 248 248 248 248 248 248 248 248 248 248 248 248 248 248 248 248 248 248 248 248 248 248 248 248 248 248 248 248 248 248 248 248 248 248 248 248 248 248 248 248 248 248 248 248 248 248 248 248 248 248 248 248 248 248 248 248 248 248 248 248 248 248 248 248 248 248 248 248 248 248 248 248 248 248 248 248 248 248 248 248 248 248 248 248 248 248 248 248 248 248 248 248 248 248 248 248 248 248 248 248 248 248 248 248 248 248 248 248 248 248 248 248 248 248 248 248 248 248 248 248 248 248 248 248 248 248 248 248 248 248 248 248 248 248 248 248 248 248 248 248 248 248 248 248 248 248 248 248 248 248 248 248 248 248 248 248 248 248 248 248 248 248 248 248 248 248 248 248 248 248 248 248 248 248 248 248 248 248 248 248 248 248 248 248 248 248 248 248 248 248 248 248 248 248 248 248 248 248 248 248 248 248 248 248 248 248 248 248 248 248 248 248 248 248 248 248 248 248 248 248 248 248 248 248 248 248 248 248 248 248 248 248 248 248 248 248 248 248 248 248 248 248 248 248 248 248 248 
195 0 195 195 0 0 195 196 196 197 0 198 198 0 199 0 0 199 199 0 200 0 0 0 0 0 0 0 0 0 0 162 153 148 147 0 0 143 141 139 139 138 0 0 0 0 131 130 129 128 126 126 127 0 126 0 0 121 120 119 117 116 117 118 119 119 119 0 0 0 0 0 0 0 114 114 113 111 112 0 115 0 0 117 117 120 0 0 0 0 0 0 0 121 121 121 119 121 0 0 0 0 0 0 131 131 132 0 0 0 0 0 135 135 0 0 137 137 138 0 0 0 0 0 0 0 0 138 137 138 139 0 0 0 148 149 153 164 0 0 0 0 0 0 184 0 183 0 0 181 181 181 181 0 0 0 180 0 0 0 176 176 0 0 0 177 0 0 0 178 0 0 178 0 177 0 0 176 0 174 171 170 169 0 0 0 0 167 167 0 167 167 0 169 170 172 175 179 182 186 0 0 0 0 191 0 0 0 186 184 0 0 182 0 181 0 179 178 177 0 0 0 175 174 0 172 171 0 0 0 167 167 166 165 164 0 161 160 158 157 0 155 154 0 0 150 0 147 146 0 145 146 0 0 146 0 0 0 0 148 0 0 0 150 149 150 0 0 151 150 151 152 0 153 0 155 155 155 0 157 0 0 159 160 0 0 164 164 167 0 0 0 0 0 166 164 170 0 0 169 164 163 163 163 0 0 0 0 164 164 0 165 165 166 0 0 0 165 165 165 0 0 164 163 164 0 163 164 164 164 164 164 0 165 166 167 0 0 170 171 0 0 174 175 0 175 175 0 175 0 175 175 177 178 179 0 0 182 183 0 183 0 182 181 181 181 0 179 180 0 182 185 196 0 0 239 0 0 0 240 0 0 248 248 248 248 248 248 248 248 248 248 248 248 248 248 248 248 248 248 248 248 248 248 248 248 248 248 248 248 248 248 248 248 248 248 248 248 248 248 248 248 248 248 248 248 248 248 248 248 248 248 248 248 248 248 248 248 248 248 248 248 248 248 248 248 248 248 248 248 248 248 248 248 248 248 248 248 248 248 248 248 248 248 248 248 248 248 248 248 248 248 248 248 248 248 248 248 248 248 248 248 248 248 248 248 248 248 248 248 248 248 248 248 248 248 248 248 248 248 248 248 248 248 248 248 248 248 248 248 248 248 248 248 248 248 248 248 248 248 248 248 248 248 248 248 248 248 248 248 248 248 248 248 248 248 248 248 248 248 248 248 248 248 248 248 248 248 248 248 248 248 248 248 248 248 248 248 248 248 248 248 248 248 248 248 248 248 248 248 248 248 248 248 248 248 248 248 248 248 248 248 248 248 248 248 248 248 248 248 248 248 248 248 248 248 248 248 248 248 248 248 248 248 248 248 248 248 248 248 248 248 248 248 248 248 248 248 248 248 248 248 248 248 248 248 248 248 248 248 248 248 248 248 248 248 248 248 248 248 
0 195 0 0 195 195 0 196 0 196 197 0 198 0 199 199 199 199 199 0 200 200 199 0 0 0 0 0 180 170 0 0 147 141 141 142 0 140 139 140 0 0 0 0 130 127 128 129 128 0 124 124 127 0 0 125 123 122 121 0 0 0 0 0 0 119 118 117 0 114 112 113 114 112 113 0 0 113 112 113 114 115 114 114 116 0 122 0 0 0 0 0 0 0 0 0 120 120 120 121 124 126 128 0 0 130 129 129 130 133 0 0 0 133 134 135 137 138 139 0 140 0 142 0 0 0 0 0 0 0 0 148 0 0 0 0 161 163 170 0 0 0 184 0 0 184 183 182 182 181 0 181 181 0 180 180 179 180 0 0 177 176 176 176 0 0 177 177 177 0 178 0 178 177 176 176 176 0 0 172 169 169 0 167 167 167 166 166 165 166 167 167 169 171 173 177 181 0 0 0 0 0 0 0 0 0 188 0 186 184 0 183 182 0 0 179 178 0 177 0 177 0 0 174 173 172 171 0 170 169 0 0 165 0 164 163 0 0 158 157 155 154 153 152 151 149 147 145 145 0 144 144 145 144 144 0 145 147 0 0 148 148 0 0 0 150 0 0 0 0 150 151 151 151 153 0 0 153 154 0 0 157 0 159 0 162 0 0 165 167 0 174 175 0 0 165 166 0 0 0 169 164 163 163 0 0 163 163 164 164 0 165 165 0 0 165 165 165 165 0 164 163 163 164 164 164 0 0 0 163 0 164 164 165 0 167 167 169 170 171 0 0 175 0 0 0 0 0 0 176 0 0 177 178 179 0 0 0 183 0 184 0 0 0 0 0 180 179 180 181 183 188 200 0 0 239 0 0 241 242 0 0 248 248 248 248 248 248 248 248 248 248 248 248 248 248 248 248 248 248 248 248 248 248 248 248 248 248 248 248 248 248 248 248 248 248 248 248 248 248 248 248 248 248 248 248 248 248 248 248 248 248 248 248 248 248 248 248 248 248 248 248 248 248 248 248 248 248 248 248 248 248 248 248 248 248 248 248 248 248 248 248 248 248 248 248 248 248 248 248 248 248 248 248 0 0 0 0 0 0 0 0 0 0 0 0 0 0 0 0 0 0 0 0 248 248 248 248 248 248 248 248 248 248 248 248 248 248 248 248 248 248 248 248 248 248 248 248 248 248 248 248 248 248 248 248 248 248 248 248 248 248 248 248 248 248 248 248 248 248 248 248 248 248 248 248 248 248 248 248 248 248 248 248 248 248 248 248 248 248 248 248 248 248 248 248 248 248 248 248 248 248 248 248 248 248 248 248 248 248 248 248 248 248 248 248 248 248 248 248 248 248 248 248 248 248 248 248 248 248 248 248 248 248 248 248 248 248 248 248 248 248 248 248 248 248 248 248 248 248 248 248 248 248 248 248 248 248 248 248 248 248 248 248 248 248 248 248 248 248 
194 0 194 194 194 195 0 0 196 0 0 0 0 198 0 199 199 199 199 0 200 200 200 200 0 0 0 0 171 159 153 148 140 136 0 138 137 138 0 0 0 133 130 130 128 127 0 0 128 126 125 126 0 0 126 124 123 0 0 0 0 0 119 119 120 0 119 116 113 112 112 113 113 112 113 116 0 0 115 0 114 0 0 0 0 0 0 124 123 124 124 123 121 120 120 0 0 119 119 120 122 124 126 128 129 0 0 0 129 129 131 0 131 132 133 135 138 0 0 0 140 141 141 0 144 146 0 0 0 0 0 153 156 0 0 0 0 0 171 175 0 182 183 0 0 0 0 0 182 0 0 0 181 0 180 179 0 180 0 0 177 175 175 0 176 176 176 176 176 0 177 0 0 0 0 176 0 0 172 169 169 0 167 166 166 165 165 0 164 165 166 0 171 175 181 0 0 0 0 0 195 194 0 0 0 0 188 0 185 184 0 0 182 181 180 179 178 178 0 0 177 0 0 174 0 0 171 170 0 0 167 166 0 0 0 0 0 0 159 157 155 154 153 152 150 148 0 145 144 144 0 0 0 0 144 0 144 144 146 147 0 147 149 0 150 149 150 0 0 0 150 150 0 151 152 0 153 153 152 0 154 0 0 0 158 159 0 0 0 165 0 0 172 0 0 0 167 169 0 0 0 167 163 163 163 163 0 0 0 164 164 0 0 0 165 164 0 0 0 0 163 0 0 0 0 0 0 163 163 163 163 164 164 165 0 166 0 169 170 172 0 0 0 0 176 176 0 176 176 176 0 0 176 178 0 0 182 0 183 0 0 0 0 181 181 180 0 0 180 181 185 191 203 0 0 0 0 0 238 0 0 0 248 248 248 248 248 248 248 248 248 248 248 248 248 248 248 248 248 248 248 248 248 248 248 248 248 248 248 248 248 248 248 248 248 248 248 248 248 248 248 248 248 248 248 248 248 248 248 248 248 248 248 248 248 248 248 248 248 248 248 248 248 248 248 248 248 248 248 248 248 248 248 248 248 248 248 0 0 0 0 0 0 0 0 0 0 0 0 0 0 0 0 0 0 247 0 247 247 247 247 0 247 247 0 0 247 247 247 247 0 0 247 0 0 0 0 248 248 248 248 248 248 248 248 248 248 248 248 248 248 248 248 248 248 248 248 248 248 248 248 248 248 248 248 248 248 248 248 248 248 248 248 248 248 248 248 248 248 248 248 248 248 248 248 248 248 248 248 248 248 248 248 248 248 248 248 248 248 248 248 248 248 248 248 248 248 248 248 248 248 248 248 248 248 248 248 248 248 248 248 248 248 248 248 248 248 248 248 248 248 248 248 248 248 248 248 248 248 248 248 248 248 248 248 248 248 248 248 248 248 248 248 248 248 248 248 248 248 248 248 248 248 248 248 248 248 248 248 248 248 248 248 248 248 248 248 248 248 248 
0 0 0 194 0 195 195 0 195 196 0 197 197 198 0 0 199 199 199 0 0 200 0 0 0 0 0 0 0 157 148 142 136 135 135 134 135 138 0 0 134 130 0 0 128 0 0 0 0 0 0 0 0 0 0 0 0 0 120 121 0 0 120 121 0 0 0 117 114 0 0 0 113 113 115 0 0 0 0 0 115 115 114 113 116 121 123 124 124 123 123 122 121 120 120 119 118 118 118 119 121 0 0 0 129 130 0 132 131 130 130 132 0 0 0 0 0 140 0 139 140 141 142 143 144 0 146 148 151 0 0 0 0 0 0 0 0 0 0 175 0 0 0 182 183 0 183 0 182 0 181 181 0 180 0 179 0 180 0 0 177 175 175 0 0 175 175 0 175 176 176 176 176 0 0 0 0 172 170 0 0 166 166 0 165 165 0 0 163 163 166 170 174 182 0 0 0 0 0 195 0 0 0 192 0 189 187 185 0 0 182 182 0 181 0 0 0 178 178 0 0 175 0 174 173 0 171 170 169 0 167 166 0 0 163 162 0 0 159 0 156 155 154 152 0 0 147 145 144 143 143 0 143 143 143 144 144 0 145 146 0 147 0 0 0 0 149 150 150 0 150 0 0 151 151 151 0 0 152 152 152 152 153 154 0 156 157 158 0 0 165 0 0 0 0 0 0 169 170 0 0 0 166 163 163 0 163 0 164 164 164 164 0 165 164 164 164 164 0 164 163 163 163 0 0 163 163 162 163 163 164 0 0 165 165 166 0 170 171 173 0 176 177 177 0 175 0 0 176 0 0 177 177 0 180 181 182 183 0 0 184 0 183 181 0 180 179 179 0 181 186 192 201 0 0 0 0 0 237 0 0 248 248 248 248 248 248 248 248 248 248 248 248 248 248 248 248 248 248 248 248 248 248 248 248 248 248 248 248 248 248 248 248 248 248 248 248 248 248 248 248 248 248 248 248 248 248 248 248 248 248 248 248 248 248 248 248 248 248 248 248 248 248 248 248 248 248 248 248 248 248 248 248 248 0 0 0 0 247 0 247 247 247 247 247 247 247 247 247 247 247 247 247 247 247 247 247 247 247 247 247 247 247 247 247 247 247 247 247 247 247 247 247 247 247 247 0 0 0 248 248 248 248 248 248 248 248 248 248 248 248 248 248 248 248 248 248 248 248 248 248 248 248 248 248 248 248 248 248 248 248 248 248 248 248 248 248 248 248 248 248 248 248 248 248 248 248 248 248 248 248 248 248 248 248 248 248 248 248 248 248 248 248 248 248 248 248 248 248 248 248 248 248 248 248 248 248 248 248 248 248 248 248 248 248 248 248 248 248 248 248 248 248 248 248 248 248 248 248 248 248 248 248 248 248 248 248 248 248 248 248 248 248 248 248 248 248 248 248 248 248 248 248 248 248 248 248 248 248 248 248 248 248 248 248 248 248 248 248 248 
0 0 0 0 0 0 194 194 195 195 196 0 197 0 198 0 199 199 199 199 0 200 0 0 0 0 0 0 164 0 0 141 135 135 135 137 0 0 0 0 129 127 127 127 127 128 0 0 0 127 0 0 0 0 123 123 0 0 0 0 122 0 0 0 123 122 120 118 116 113 114 114 114 116 118 0 0 118 118 0 0 116 115 115 118 0 0 0 0 124 0 0 0 0 0 121 120 120 119 120 0 0 0 0 0 0 0 0 0 0 132 132 134 136 0 0 140 140 140 0 0 142 143 144 145 146 0 0 0 0 0 157 159 161 164 167 0 0 0 175 0 179 0 181 181 0 0 0 0 181 181 181 0 180 0 179 0 179 0 0 176 175 0 0 175 175 175 175 175 0 0 175 176 0 0 0 172 170 0 167 166 0 164 164 0 0 0 163 161 162 170 178 187 0 0 0 0 196 0 194 0 193 192 191 0 0 186 0 184 0 181 181 0 181 180 179 178 0 0 0 0 175 174 173 0 0 170 0 0 167 0 166 165 164 163 162 0 0 159 0 157 0 0 153 151 149 147 145 144 143 143 0 142 142 143 144 0 145 0 146 146 146 147 0 0 0 149 0 149 0 150 0 0 0 0 151 151 0 0 0 0 151 151 153 0 154 154 155 158 160 0 163 163 165 169 0 0 175 170 172 0 0 0 165 164 0 0 0 0 164 0 164 164 0 0 0 164 0 164 164 0 163 162 163 163 163 0 0 0 164 0 0 165 165 165 166 0 0 0 0 0 0 0 177 0 175 175 175 176 0 0 177 178 0 0 181 182 0 0 0 183 183 0 181 180 180 0 180 181 183 187 192 199 207 214 0 0 232 240 0 0 248 248 248 248 248 248 248 248 248 248 248 248 248 248 248 248 248 248 248 248 248 248 248 248 248 248 248 248 248 248 248 248 248 248 248 248 248 248 248 248 248 248 248 248 248 248 248 248 248 248 248 248 248 248 248 248 248 248 248 248 248 248 248 248 248 248 248 248 248 248 248 248 0 0 247 247 247 247 247 247 247 247 247 247 247 247 247 247 247 247 247 247 247 0 0 0 247 0 0 0 0 0 0 0 247 247 247 247 247 247 247 247 247 247 247 247 247 0 0 0 248 248 248 248 248 248 248 248 248 248 248 248 248 248 248 248 248 248 248 248 248 248 248 248 248 248 248 248 248 248 248 248 248 248 248 248 248 248 248 248 248 248 248 248 248 248 248 248 248 248 248 248 248 248 248 248 248 248 248 248 248 248 248 248 248 248 248 248 248 248 248 248 248 248 248 248 248 248 248 248 248 248 248 248 248 248 248 248 248 248 248 248 248 248 248 248 248 248 248 248 248 248 248 248 248 248 248 248 248 248 248 248 248 248 248 248 248 248 248 248 248 248 248 248 248 248 248 248 248 248 248 248 248 248 248 248 248 248 248 
194 194 194 0 0 194 194 194 195 0 196 0 0 197 197 0 0 199 199 199 0 0 0 0 190 0 173 167 0 0 0 0 135 134 137 0 0 0 0 129 127 127 127 127 127 0 0 0 0 124 124 0 124 0 121 120 121 0 0 121 0 122 0 0 0 123 0 0 117 117 0 0 0 0 0 0 0 0 0 0 0 0 0 117 0 0 0 0 0 125 124 0 0 124 0 0 124 124 0 122 123 0 0 126 126 128 130 132 0 0 0 135 0 137 0 0 140 140 140 141 0 143 144 145 0 0 0 148 149 151 0 0 0 0 0 0 0 170 172 173 175 178 0 0 181 0 182 0 0 0 181 181 0 180 0 0 179 178 0 0 177 174 174 174 174 0 0 175 175 175 175 175 0 0 0 0 169 167 166 165 164 0 162 162 162 0 162 162 162 166 0 0 0 0 0 0 197 196 195 194 193 192 191 190 0 0 186 0 183 0 181 0 0 0 0 0 177 177 177 0 0 0 0 172 172 171 170 0 0 167 166 0 0 0 0 162 0 0 159 158 157 0 0 0 0 151 149 147 145 144 143 143 142 142 0 0 144 145 0 0 0 0 147 147 148 149 149 0 0 0 149 0 150 150 150 0 150 149 150 150 0 0 151 0 0 0 0 154 155 158 0 161 160 161 161 166 0 0 0 169 173 0 0 0 165 164 163 163 0 0 0 163 164 0 165 165 165 0 0 164 164 164 0 0 0 0 0 163 164 0 0 0 165 0 166 167 169 170 171 0 175 0 0 176 0 0 0 176 176 176 176 177 0 0 180 181 182 0 183 0 0 183 0 181 180 180 180 0 182 184 0 193 198 201 207 216 221 227 0 0 0 248 248 248 248 248 248 248 248 248 248 248 248 248 248 248 248 248 248 248 248 248 248 248 248 248 248 248 248 248 248 248 248 248 248 248 248 248 248 248 248 248 248 248 248 248 248 248 248 248 248 248 248 248 248 248 248 248 248 248 248 248 248 248 248 248 248 248 248 248 248 248 0 0 247 247 247 247 0 0 0 0 0 0 0 0 0 0 0 0 0 0 0 0 0 246 0 0 0 246 0 0 246 246 0 0 0 0 0 0 0 0 0 0 0 247 247 247 247 247 0 0 248 248 248 248 248 248 248 248 248 248 248 248 248 248 248 248 248 248 248 248 248 248 248 248 248 248 248 248 248 248 248 248 248 248 248 248 248 248 248 248 248 248 248 248 248 248 248 248 248 248 248 248 248 248 248 248 248 248 248 248 248 248 248 248 248 248 248 248 248 248 248 248 248 248 248 248 248 248 248 248 248 248 248 248 248 248 248 248 248 248 248 248 248 248 248 248 248 248 248 248 248 248 248 248 248 248 248 248 248 248 248 248 248 248 248 248 248 248 248 248 248 248 248 248 248 248 248 248 248 248 248 248 248 248 248 248 248 248 
0 0 193 194 0 194 194 0 0 0 196 0 197 197 0 198 0 199 199 199 199 0 0 0 0 173 164 0 0 0 139 133 131 134 0 0 0 133 127 125 125 128 0 0 0 0 0 123 121 121 121 122 120 119 119 120 0 0 120 120 121 120 121 122 0 0 0 118 117 0 0 0 0 0 0 119 118 117 115 116 0 0 117 118 121 0 0 0 0 125 125 125 125 0 125 0 0 0 0 0 124 124 123 123 126 128 130 132 133 0 0 0 0 0 139 140 140 0 141 141 142 0 0 0 0 147 147 147 148 149 151 0 0 0 0 0 0 0 0 0 174 0 0 0 0 181 182 0 183 182 181 181 0 0 180 179 0 178 179 0 0 174 174 174 174 0 0 0 174 0 0 175 0 0 172 0 166 0 0 163 162 0 161 160 0 161 161 162 163 0 0 0 0 0 0 0 196 0 0 0 0 0 0 0 0 186 185 184 0 182 181 180 180 0 0 0 178 0 176 0 174 174 0 172 0 0 0 167 0 0 165 165 165 164 0 163 162 161 0 158 0 157 156 0 0 0 0 149 147 145 145 144 143 143 0 145 145 146 0 0 0 0 147 0 0 0 148 149 149 149 148 149 0 149 149 0 0 149 149 148 0 149 0 150 150 152 0 154 154 0 0 0 159 157 160 163 171 0 0 172 169 175 0 0 169 164 163 163 163 163 163 0 164 0 0 165 0 166 165 165 0 165 0 0 164 163 163 163 164 0 0 164 165 0 0 0 0 170 0 0 0 0 176 0 175 175 176 0 0 176 176 177 0 180 0 181 0 182 182 183 0 0 0 181 0 0 180 181 183 186 0 0 197 201 0 209 213 0 0 0 248 248 248 248 248 248 248 248 248 248 248 248 248 248 248 248 248 248 248 248 248 248 248 248 248 248 248 248 248 248 248 248 248 248 248 248 248 248 248 248 248 248 248 248 248 248 248 248 248 248 248 248 248 248 248 248 248 248 248 248 248 248 248 248 248 248 248 248 0 0 0 0 0 247 247 247 0 0 0 246 246 246 246 246 246 246 246 246 246 246 246 246 246 246 246 246 246 246 246 246 246 246 0 0 0 246 246 246 246 246 246 246 0 246 0 0 0 247 247 247 247 0 0 0 248 248 248 248 248 248 248 248 248 248 248 248 248 248 248 248 248 248 248 248 248 248 248 248 248 248 248 248 248 248 248 248 248 248 248 248 248 248 248 248 248 248 248 248 248 248 248 248 248 248 248 248 248 248 248 248 248 248 248 248 248 248 248 248 248 248 248 248 248 248 248 248 248 248 248 248 248 248 248 248 248 248 248 248 248 248 248 248 248 248 248 248 248 248 248 248 248 248 248 248 248 248 248 248 248 248 248 248 248 248 248 248 248 248 248 248 248 248 248 248 248 248 248 248 248 248 248 248 248 248 248 248 248 248 248 248 
0 193 193 0 194 0 0 195 0 195 0 0 0 197 0 197 0 0 0 0 0 197 194 0 0 166 155 152 148 139 130 126 127 132 0 0 132 127 123 124 0 0 0 0 0 125 122 121 121 0 0 0 0 119 120 121 121 120 120 121 0 0 0 0 0 0 117 117 117 117 119 121 0 0 119 118 0 0 113 113 114 116 0 0 120 122 0 0 122 0 0 0 0 0 124 0 0 0 0 0 125 123 0 123 0 0 0 0 0 133 0 0 136 137 0 0 0 141 142 0 143 143 145 146 0 0 147 147 0 148 149 151 153 156 158 161 163 165 0 0 0 0 176 178 0 0 182 0 0 0 0 181 0 180 0 0 0 178 179 0 0 174 174 0 174 174 174 174 174 0 0 174 0 0 169 167 165 164 163 0 0 0 159 159 0 160 161 0 163 166 169 174 179 187 0 0 195 0 194 193 192 191 190 188 187 185 184 0 182 0 0 180 179 179 179 0 178 177 176 175 174 174 173 172 0 0 169 167 167 166 0 165 0 164 0 163 0 0 0 159 0 158 157 155 154 153 152 0 0 148 147 146 145 144 145 0 0 146 0 0 146 146 146 0 0 0 148 0 149 149 0 148 149 149 149 149 0 149 0 148 0 149 0 148 149 151 152 0 154 154 156 0 159 158 0 0 165 173 0 0 169 171 0 0 0 166 163 163 163 163 0 0 164 0 0 166 0 0 0 166 0 0 165 165 0 164 0 164 0 0 164 164 165 166 166 167 0 0 0 173 0 175 175 175 175 0 176 0 0 0 176 0 179 0 0 0 0 182 182 182 0 0 0 181 181 181 181 182 185 0 190 193 196 200 0 207 216 0 0 0 248 248 248 248 248 248 248 248 248 248 248 248 248 248 248 248 248 248 248 248 248 248 248 248 248 248 248 248 248 248 248 248 248 248 248 248 248 248 248 248 248 248 248 248 248 248 248 248 248 248 248 248 248 248 248 248 248 248 248 248 248 248 248 248 248 248 248 0 0 247 247 247 247 247 0 0 0 246 246 0 0 0 0 0 0 0 0 0 0 0 0 0 245 245 0 0 245 0 0 245 0 0 245 245 245 245 245 245 245 245 245 0 0 246 246 246 0 0 247 247 247 247 247 0 0 248 248 248 248 248 248 248 248 248 248 248 248 248 248 248 248 248 248 248 248 248 248 248 248 248 248 248 248 248 248 248 248 248 248 248 248 248 248 248 248 248 248 248 248 248 248 248 248 248 248 248 248 248 248 248 248 248 248 248 248 248 248 248 248 248 248 248 248 248 248 248 248 248 248 248 248 248 248 248 248 248 248 248 248 248 248 248 248 248 248 248 248 248 248 248 248 248 248 248 248 248 248 248 248 248 248 248 248 248 248 248 248 248 248 248 248 248 248 248 248 248 248 248 248 248 248 248 248 248 248 248 248 248 248 248 
193 0 0 0 194 194 0 194 0 194 195 195 196 0 196 197 198 0 198 0 0 0 192 184 174 162 153 148 144 137 128 125 127 0 0 131 126 123 120 122 0 0 0 127 125 124 0 120 120 0 0 119 118 120 0 0 0 0 0 0 0 0 0 0 119 116 115 116 117 117 118 118 119 119 118 117 0 0 115 113 113 115 118 118 119 120 0 118 119 120 0 0 0 124 124 0 0 128 0 0 0 123 121 120 122 126 0 0 132 132 0 135 137 138 140 142 0 143 0 144 0 144 145 0 147 147 0 0 147 147 148 148 150 0 0 0 160 162 165 167 0 172 173 175 0 0 0 0 182 0 182 0 0 180 0 179 0 0 0 0 0 175 0 0 0 173 173 173 0 0 174 0 0 170 166 165 0 162 0 0 158 157 157 158 159 160 0 0 163 164 165 166 170 175 184 0 0 0 193 192 0 0 189 188 186 184 0 0 182 181 0 180 179 0 178 178 0 0 0 0 0 0 0 0 171 170 0 0 0 167 166 0 164 163 163 163 163 0 161 160 0 0 0 0 154 0 153 152 0 0 0 0 0 146 0 0 147 147 0 0 146 146 147 148 0 0 148 148 0 0 0 148 0 150 150 150 149 149 148 148 149 149 148 147 149 0 0 0 0 152 152 0 0 0 0 160 0 167 0 0 176 170 172 0 0 0 164 163 0 0 0 163 163 165 166 0 166 0 0 0 166 0 0 0 165 0 0 164 164 164 0 0 165 166 0 167 0 0 0 172 0 0 174 174 0 175 176 0 0 177 177 0 0 181 0 182 182 182 0 0 184 184 0 182 181 181 182 184 187 0 191 193 196 200 204 207 225 0 0 0 248 248 248 248 248 248 248 248 248 248 248 248 248 248 248 248 248 248 248 248 248 248 248 248 248 248 248 248 248 248 248 248 248 248 248 248 248 248 248 248 248 248 248 248 248 248 248 248 248 248 248 248 248 248 248 248 248 248 248 248 248 248 248 248 248 248 0 0 247 247 247 247 0 0 0 246 246 0 0 245 245 245 245 245 245 0 244 0 245 245 245 0 0 0 0 244 244 244 244 244 244 0 244 244 244 244 244 244 244 244 244 0 245 245 0 246 246 0 0 0 247 247 247 247 0 0 0 0 248 248 248 248 248 248 248 248 248 248 248 248 248 0 0 0 248 248 248 248 248 248 248 248 248 248 248 248 248 248 248 248 248 248 248 248 248 248 248 248 248 248 248 248 248 248 248 248 248 248 248 248 248 248 248 248 248 248 248 248 248 248 248 248 248 248 248 248 248 248 248 248 248 248 248 248 248 248 248 248 248 248 248 248 248 248 248 248 248 248 248 248 248 248 248 248 248 248 248 248 248 248 248 248 248 248 248 248 248 248 248 248 248 248 248 248 248 248 248 248 248 248 248 248 248 248 248 248 248 248 248 248 
193 193 192 193 0 194 0 0 0 0 0 195 195 0 196 0 0 0 0 0 0 0 0 0 0 162 0 0 0 0 129 0 0 127 128 127 125 122 118 121 0 0 0 0 0 0 0 118 119 119 118 116 118 0 0 0 120 120 119 119 121 122 0 118 117 118 0 0 118 119 0 119 119 0 118 116 116 0 0 114 115 0 119 0 120 121 0 117 117 118 121 123 123 123 123 0 127 127 0 0 0 0 123 121 123 127 0 0 0 134 135 0 0 138 140 0 0 144 144 0 0 145 0 0 147 147 147 0 147 147 147 147 148 150 152 0 0 0 162 164 0 0 0 171 174 0 0 0 0 0 0 181 0 0 0 179 178 178 177 0 0 174 172 173 173 173 173 173 0 173 173 0 0 167 0 0 162 160 158 157 157 158 0 159 0 0 0 0 162 163 0 165 167 169 174 183 0 0 0 192 0 0 0 0 0 183 0 182 0 181 0 0 0 178 178 0 176 176 0 175 174 173 0 0 171 170 169 169 0 167 166 165 164 0 0 0 163 0 0 0 159 159 158 157 0 0 0 153 152 150 0 150 0 148 148 0 0 148 147 146 0 147 147 0 148 0 0 148 148 0 148 0 0 0 0 0 150 149 149 0 0 0 0 0 0 150 150 151 0 151 152 154 156 156 155 155 159 162 172 0 0 175 170 174 0 0 169 164 0 0 163 0 164 165 0 0 166 0 167 166 166 0 166 165 165 165 0 164 164 164 0 165 0 166 167 0 0 170 171 0 0 174 174 174 0 175 176 177 0 177 178 179 0 181 0 0 0 182 0 0 0 0 184 0 182 181 183 186 0 0 0 193 196 0 203 211 0 0 0 248 248 248 248 248 248 248 248 248 248 248 248 248 248 248 248 248 248 248 248 248 248 248 248 248 248 248 248 248 248 248 248 248 248 248 248 248 248 248 248 248 248 248 248 248 248 248 248 248 248 248 248 248 248 248 248 248 248 248 248 248 248 248 248 248 248 248 0 247 247 247 247 0 0 246 246 0 245 245 0 244 0 0 0 0 0 0 0 0 0 0 0 0 0 0 0 0 243 243 0 0 243 243 243 243 0 243 0 0 0 243 243 0 244 244 0 0 0 246 246 0 0 0 247 247 247 247 247 0 0 0 248 248 248 248 248 248 248 248 0 0 0 0 247 0 0 0 0 0 0 0 0 0 0 0 0 248 248 248 248 248 248 248 248 248 248 248 248 248 248 248 248 248 248 248 248 248 248 248 248 248 248 248 248 248 248 248 248 248 248 248 248 248 248 248 248 248 248 248 248 248 248 248 248 248 248 248 248 248 248 248 248 248 248 248 248 248 248 248 248 248 248 248 248 248 248 248 248 248 248 248 248 248 248 248 248 248 248 248 248 248 248 248 248 248 248 248 248 248 248 248 248 248 248 248 248 248 248 248 248 248 
193 0 0 192 193 194 0 0 0 0 194 0 195 0 196 196 197 198 0 0 0 0 0 0 171 160 153 0 0 0 127 122 123 0 0 0 123 0 0 0 0 0 0 121 0 120 119 119 120 120 0 119 0 120 121 120 120 0 118 119 122 122 120 120 121 0 119 120 120 120 0 0 121 0 119 117 116 0 114 115 117 0 0 0 0 0 0 117 0 0 0 0 121 120 123 0 0 127 128 0 0 0 0 123 0 0 0 0 0 0 0 0 138 138 140 0 0 0 144 145 0 146 146 147 0 0 148 148 0 0 147 147 147 147 148 150 153 0 0 161 164 166 166 169 171 175 0 0 0 182 181 181 0 180 0 0 178 0 177 0 0 173 173 0 173 0 0 173 0 0 0 0 166 0 0 162 160 158 157 157 157 0 0 0 160 161 0 162 0 0 0 164 165 167 170 176 0 0 192 0 0 0 0 186 185 183 182 182 0 181 0 0 177 177 0 0 176 175 175 174 173 0 0 172 171 0 0 0 0 167 166 165 0 0 163 163 163 0 162 161 160 0 159 158 0 154 0 0 153 0 152 0 149 149 149 0 0 0 0 147 0 148 0 0 148 148 0 148 149 0 148 149 149 0 0 0 0 0 0 149 149 0 0 148 0 149 149 149 149 0 0 0 0 0 0 154 155 160 167 0 0 0 171 170 0 0 0 165 163 163 0 0 164 165 166 0 167 167 166 166 0 0 166 166 0 165 0 164 164 164 164 165 165 166 166 0 0 0 171 172 173 0 0 174 174 175 0 177 177 178 0 0 0 181 181 181 182 182 182 184 0 0 184 0 184 184 185 189 0 0 0 194 0 199 203 218 0 0 0 248 248 248 248 248 248 248 248 248 248 248 248 248 248 248 248 248 248 248 248 248 248 248 248 248 248 248 248 248 248 248 248 248 248 248 248 248 248 248 248 248 248 248 248 248 248 248 248 248 248 248 248 248 248 248 248 248 248 248 248 248 248 248 248 248 248 248 0 247 247 247 0 0 246 0 245 245 0 244 0 243 0 242 0 0 242 0 242 242 242 242 242 242 242 0 242 242 0 0 242 242 242 0 0 0 0 0 0 241 0 0 0 242 0 0 244 244 245 0 0 246 246 0 0 0 247 247 247 247 247 0 0 248 248 0 0 0 0 0 0 247 247 247 247 247 247 247 247 247 247 247 0 0 247 247 0 0 0 0 248 248 248 248 248 248 248 248 248 248 248 248 248 248 248 248 248 248 248 248 248 248 248 248 248 248 248 248 248 248 248 248 248 248 248 248 248 248 248 248 248 248 248 248 248 248 248 248 248 248 248 248 248 248 248 248 248 248 248 248 248 248 248 248 248 248 248 248 248 248 248 248 248 248 248 248 248 248 248 248 248 248 248 248 248 248 248 248 248 248 248 248 248 248 248 248 248 248 248 248 248 248 
0 0 0 0 193 0 0 193 194 194 194 194 194 195 0 196 197 0 198 0 0 0 0 0 167 158 150 142 133 129 126 124 0 125 125 123 121 119 118 119 119 117 116 117 116 118 0 0 0 0 120 120 121 0 122 0 0 117 117 0 0 0 0 0 0 123 122 0 0 0 0 121 122 0 0 0 0 0 114 0 0 0 0 0 122 0 0 0 0 0 0 121 0 120 0 124 0 0 0 126 124 0 0 124 125 129 131 0 131 133 0 0 0 0 140 142 143 0 143 145 0 0 0 147 0 0 0 148 0 148 0 147 146 146 146 147 149 0 0 0 161 0 0 0 0 172 176 0 0 0 181 181 0 180 179 0 0 0 0 0 0 0 0 0 172 172 0 172 0 172 0 167 164 163 0 159 158 157 157 0 0 0 160 160 161 0 162 162 162 163 163 163 164 167 170 173 0 0 0 0 0 189 0 0 184 0 0 0 181 0 180 0 178 0 177 177 176 175 175 174 0 173 172 0 171 170 170 0 0 167 166 0 164 163 163 0 0 162 162 0 0 0 0 0 0 0 155 155 154 0 153 0 151 0 0 150 150 150 0 0 149 149 0 149 149 149 149 0 0 0 149 149 0 0 149 149 149 0 149 0 148 0 0 0 149 149 0 0 149 0 150 151 152 0 153 0 155 158 165 0 0 0 174 169 173 0 0 0 163 163 0 163 164 165 0 0 167 167 167 0 167 167 0 0 0 164 164 164 0 164 0 165 0 0 166 0 170 0 0 0 172 173 173 174 0 0 176 0 0 0 179 179 0 0 181 181 0 0 0 184 0 185 0 186 0 187 188 0 0 0 193 195 0 200 207 0 0 0 248 248 248 248 248 248 248 248 248 248 248 248 248 248 248 248 248 248 248 248 248 248 248 248 248 248 248 248 248 248 248 248 248 248 248 248 248 248 248 248 248 248 248 248 248 248 248 248 248 248 248 248 248 248 248 248 248 248 248 248 248 248 248 248 248 248 248 248 0 0 247 247 0 246 246 0 245 244 0 243 242 241 241 0 0 0 0 0 0 240 240 0 240 240 240 0 240 240 0 240 240 0 0 240 240 240 240 240 0 0 0 240 240 0 241 242 0 0 244 0 245 0 246 246 246 0 0 247 247 247 247 247 0 0 0 0 247 247 247 247 247 247 0 0 0 0 0 0 0 0 0 247 247 247 247 247 247 247 247 0 0 0 248 248 248 248 248 248 248 248 248 248 248 248 248 248 248 248 248 248 248 248 248 248 248 248 248 248 248 248 248 248 248 248 248 248 248 248 248 248 248 248 248 248 248 248 248 248 248 248 248 248 248 248 248 248 248 248 248 248 248 248 248 248 248 248 248 248 248 248 248 248 248 248 248 248 248 248 248 248 248 248 248 248 248 248 248 248 248 248 248 248 248 248 248 248 248 248 248 248 248 248 
192 0 192 0 192 0 0 193 193 194 0 0 0 194 0 196 197 0 0 0 0 0 0 177 165 157 0 141 131 126 125 0 0 0 124 0 0 0 0 0 118 116 117 117 117 0 0 0 0 120 121 0 0 0 0 0 0 120 120 0 0 0 0 0 0 0 0 0 121 0 0 0 122 0 0 0 0 114 114 115 117 0 120 121 121 0 0 0 118 118 119 121 121 121 122 123 126 0 0 0 123 125 125 126 128 0 0 131 131 132 0 137 0 0 0 142 144 144 144 145 0 146 146 147 148 0 149 0 0 148 0 0 146 0 145 0 147 149 152 0 158 161 164 0 0 170 172 0 0 181 181 181 181 0 180 179 178 176 176 0 176 0 172 172 172 172 0 172 0 0 0 165 0 0 159 157 0 0 158 158 0 0 160 161 0 0 162 0 0 0 163 164 0 0 0 171 176 0 0 0 0 187 186 185 184 0 182 181 181 180 180 179 178 0 177 0 0 176 0 0 0 173 172 171 0 170 170 0 169 167 166 0 164 164 0 0 0 163 162 162 0 160 159 159 0 0 157 0 155 0 154 0 152 151 0 151 0 0 150 150 150 0 0 0 0 0 150 0 149 149 149 0 149 149 148 0 0 0 149 0 148 0 148 148 149 0 150 150 150 149 149 150 150 150 150 152 0 155 159 167 0 0 0 169 170 0 0 0 167 163 163 0 164 165 0 166 0 0 0 0 167 0 0 0 0 0 164 163 0 164 0 165 0 165 166 0 0 0 170 171 172 173 0 174 175 0 176 177 0 0 0 0 179 0 181 181 181 0 183 184 185 186 0 0 0 189 0 0 0 194 193 196 0 200 213 0 0 0 248 248 248 248 248 248 248 248 248 248 248 248 248 248 248 248 248 248 248 248 248 248 248 248 248 248 248 248 248 248 248 248 248 248 248 248 248 248 248 248 248 248 248 248 248 248 248 248 248 248 248 248 248 248 248 248 248 248 248 248 248 248 248 248 248 248 248 248 0 247 247 0 0 246 0 245 0 0 243 0 240 0 239 0 0 0 239 239 0 0 238 0 0 0 0 0 0 0 238 238 0 0 238 0 0 0 0 0 0 0 0 0 238 0 0 0 0 242 243 0 244 0 0 0 246 246 0 0 0 247 247 247 247 247 247 247 247 247 0 0 0 0 0 246 246 246 246 246 246 246 246 0 0 0 0 247 247 247 247 247 247 0 0 248 248 248 248 248 248 248 248 248 248 248 248 248 248 248 248 248 248 248 248 248 248 248 248 248 248 248 248 248 248 248 248 248 248 248 248 248 248 248 248 248 248 248 248 248 248 248 248 248 248 248 248 248 248 248 248 248 248 248 248 248 248 248 248 248 248 248 248 248 248 248 248 248 248 248 248 248 248 248 248 248 248 248 248 248 248 248 248 248 248 248 248 248 248 248 248 248 248 248 
191 192 192 192 192 192 192 192 0 194 0 195 0 195 195 0 0 0 0 0 0 0 0 0 0 0 150 141 132 126 125 0 0 0 0 0 0 0 0 0 0 0 0 0 0 0 117 117 117 0 0 0 120 118 119 119 120 0 0 0 0 0 126 124 123 0 118 117 118 120 120 121 122 122 121 118 115 113 112 115 117 120 120 120 0 0 0 117 116 0 0 0 123 0 0 0 0 127 0 123 122 0 0 128 130 0 131 131 0 0 133 136 0 0 0 0 0 0 0 0 145 145 146 146 0 0 149 149 0 0 147 146 0 0 0 146 146 147 148 151 155 0 0 0 165 166 170 173 177 0 0 0 181 0 0 179 0 0 176 0 0 174 172 0 0 171 0 0 0 0 166 163 160 158 157 157 157 158 158 0 160 0 0 0 0 0 162 162 162 0 0 164 165 166 166 169 171 178 0 187 0 187 185 0 0 0 0 181 181 0 0 0 0 178 177 177 0 0 0 0 0 0 0 171 0 0 0 170 0 0 0 166 0 165 164 163 0 163 0 162 161 161 0 0 159 0 158 0 156 0 155 153 152 0 0 152 0 0 151 0 150 0 150 149 150 0 150 0 149 149 148 149 149 0 0 0 149 149 149 0 148 147 146 0 148 0 0 0 0 150 0 0 149 0 150 150 151 152 154 159 0 0 0 172 167 171 0 0 0 164 163 163 0 0 0 165 0 167 167 167 167 0 167 166 165 0 0 162 163 0 164 0 165 165 166 167 167 169 169 171 0 0 0 174 175 0 176 0 177 177 178 178 179 180 181 0 182 182 0 0 186 187 188 0 189 191 0 0 0 194 195 0 199 203 0 0 0 0 248 248 248 248 248 248 248 248 248 248 248 248 248 248 248 248 248 248 248 248 248 248 248 248 248 248 248 248 248 248 248 248 248 248 248 248 248 248 248 248 248 248 248 248 248 248 248 248 248 248 248 248 248 248 248 248 248 248 248 248 248 248 248 248 248 248 248 248 0 247 247 0 246 0 245 244 0 0 242 0 0 238 237 0 236 0 0 0 0 0 236 236 236 236 236 236 236 0 235 235 0 0 235 235 235 0 235 235 0 0 0 0 235 0 0 0 0 0 0 0 243 0 244 0 0 0 246 246 0 0 0 247 247 247 247 247 0 0 0 246 246 0 0 245 0 0 0 0 245 245 0 246 246 246 0 0 0 0 247 247 247 247 0 0 0 0 248 248 248 248 248 248 248 248 248 248 248 248 248 248 248 248 248 248 248 248 248 248 248 248 248 248 248 248 248 248 248 248 248 248 248 248 248 248 248 248 248 248 248 248 248 248 248 248 248 248 248 248 248 248 248 248 248 248 248 248 248 248 248 248 248 248 248 248 248 248 248 248 248 248 248 248 248 248 248 248 248 248 248 248 248 248 248 248 248 248 248 248 248 248 248 248 
0 0 0 0 0 191 192 0 193 0 0 195 195 0 194 195 0 197 197 0 191 183 176 0 0 0 0 0 0 0 0 122 120 119 118 118 119 121 0 118 114 113 115 0 0 115 113 113 115 117 0 0 117 114 115 117 0 0 0 0 0 0 0 122 119 118 116 117 119 120 122 122 0 123 121 118 117 115 115 0 0 0 0 119 0 116 115 114 115 119 0 0 124 0 0 0 0 127 0 123 124 0 0 0 0 0 0 131 131 132 133 0 137 140 142 0 0 0 0 145 0 146 0 146 147 0 149 149 149 0 146 145 145 145 146 146 146 146 147 149 151 0 0 0 0 0 0 0 0 0 0 181 181 180 180 179 177 177 176 0 0 173 173 172 172 171 171 171 0 167 163 0 158 157 157 0 157 0 159 0 161 161 161 0 0 161 0 162 162 0 163 0 0 0 165 166 169 176 0 186 0 0 0 185 183 182 181 0 181 0 180 179 0 0 0 177 0 176 175 174 173 0 171 171 0 170 0 170 169 167 0 166 0 0 0 164 163 163 162 162 0 0 0 160 159 0 158 0 157 0 0 0 154 154 0 0 153 151 0 151 150 0 150 0 0 0 0 0 0 0 149 149 149 149 0 148 148 0 149 0 0 148 0 0 147 148 0 0 0 0 0 150 149 0 149 149 149 149 151 155 163 0 0 0 167 167 173 0 0 170 163 163 163 163 0 0 0 0 165 166 166 0 166 165 0 164 0 162 0 163 164 0 0 0 165 0 167 0 170 0 172 173 174 0 175 175 176 0 176 176 177 177 179 180 181 182 0 183 184 0 187 0 0 189 190 0 0 0 195 195 196 198 200 210 0 0 0 248 248 248 248 248 248 248 248 248 248 248 248 248 248 248 248 248 248 248 248 248 248 248 248 248 248 248 248 248 248 248 248 248 248 248 248 248 248 248 248 248 248 248 248 248 248 248 248 248 248 248 248 248 248 248 248 248 248 248 248 248 248 248 248 248 248 248 248 0 0 247 247 0 246 0 0 244 243 242 241 0 237 0 0 234 0 0 234 0 234 0 0 233 0 0 0 233 233 0 0 0 232 0 0 232 232 232 232 0 0 231 231 231 231 232 0 0 237 0 0 0 0 0 243 0 244 0 245 0 246 246 0 0 0 0 0 0 0 246 246 0 245 0 244 0 0 243 243 0 0 244 0 245 0 0 246 246 246 0 0 247 247 247 247 247 247 0 248 248 248 248 248 248 248 248 248 248 248 248 248 248 248 248 248 248 248 248 248 248 248 248 248 248 248 248 248 248 248 248 248 248 248 248 248 248 248 248 248 248 248 248 248 248 248 248 248 248 248 248 248 248 248 248 248 248 248 248 248 248 248 248 248 248 248 248 248 248 248 248 248 248 248 248 248 248 248 248 248 248 248 248 248 248 248 248 248 248 248 248 248 248 248 248 
0 191 191 0 0 191 0 0 192 193 0 0 0 0 194 194 0 0 197 0 0 184 175 165 158 152 0 0 136 130 0 120 117 116 114 117 119 0 0 0 0 112 113 114 113 0 113 112 112 114 117 117 116 113 114 0 117 118 118 120 122 0 0 120 119 0 118 0 0 122 0 0 0 0 0 0 0 0 0 0 0 0 0 0 115 112 111 112 115 0 0 0 123 123 0 0 0 0 0 0 124 125 127 129 0 0 0 0 0 0 133 0 137 139 0 0 146 146 146 146 146 0 0 146 147 148 0 0 149 0 148 0 147 0 146 0 0 146 146 147 148 151 153 157 160 0 0 167 170 173 0 0 0 0 0 0 178 177 0 176 0 174 0 0 0 0 0 0 169 165 163 161 157 157 0 0 159 0 160 0 161 0 161 0 0 162 162 162 162 0 162 162 163 0 0 165 167 0 0 0 0 0 0 0 0 0 182 0 181 0 0 178 0 0 0 177 177 176 0 0 0 0 0 0 0 170 170 0 0 167 167 166 167 166 165 0 164 0 163 0 162 0 161 160 160 159 159 0 158 0 0 156 0 155 0 154 0 0 0 151 151 0 150 0 149 149 149 150 0 150 150 0 149 0 0 148 0 0 148 0 0 0 0 148 0 0 148 0 147 148 0 0 0 0 149 148 148 148 150 0 159 167 0 0 0 167 171 0 0 0 165 162 162 162 163 0 0 0 165 0 165 165 0 0 0 0 163 163 163 163 0 164 164 0 165 166 167 0 0 0 0 173 174 0 175 0 0 0 0 176 0 178 179 0 181 182 0 0 0 0 187 0 0 189 190 193 0 0 195 196 197 199 202 221 0 0 0 248 248 248 248 248 248 248 248 248 248 248 248 248 248 248 248 248 248 248 248 248 248 248 248 248 248 248 248 248 248 248 248 248 248 248 248 248 248 248 248 248 248 248 248 248 248 248 248 248 248 248 248 248 248 248 248 248 248 248 248 248 248 248 248 248 248 248 248 0 247 247 0 0 246 245 0 0 0 241 0 0 235 233 232 231 231 231 231 0 231 0 230 0 0 0 0 230 0 0 0 0 0 229 0 229 229 0 0 228 227 227 0 0 0 227 229 0 0 0 0 0 0 0 0 242 0 0 244 0 245 0 0 246 246 246 246 246 0 0 245 0 0 243 242 242 0 241 241 0 242 0 0 244 0 245 245 0 246 246 0 0 247 247 247 247 247 0 0 248 248 248 248 248 248 248 248 248 248 248 248 248 248 248 248 248 248 248 248 248 248 248 248 248 248 248 248 248 248 248 248 248 248 248 248 248 248 248 248 248 248 248 248 248 248 248 248 248 248 248 248 248 248 248 248 248 248 248 248 248 248 248 248 248 248 248 248 248 248 248 248 248 248 248 248 248 248 248 248 248 248 248 248 248 248 248 248 248 248 248 248 248 248 248 
191 191 0 190 0 191 0 192 0 0 193 193 194 0 0 194 195 0 0 0 0 0 174 160 151 147 144 0 135 0 0 118 115 115 116 119 0 120 118 114 112 111 0 113 113 0 112 111 112 114 0 0 116 114 113 114 0 117 119 0 120 120 119 119 118 118 118 119 121 0 0 0 0 0 0 0 116 116 0 116 0 0 0 0 0 113 112 113 116 0 0 0 0 120 121 124 0 0 125 123 123 124 127 0 0 128 129 0 132 133 134 136 138 0 0 145 146 0 147 147 147 0 0 147 0 0 148 148 149 0 0 0 0 0 147 146 0 146 146 0 146 148 150 0 0 160 0 165 167 170 0 0 0 0 180 179 178 0 176 174 0 0 175 174 172 171 0 170 171 0 0 159 157 158 159 0 160 0 161 0 161 0 161 161 0 0 162 162 0 161 0 0 162 162 0 165 167 172 0 0 0 0 185 184 183 183 0 0 0 0 0 179 178 178 177 0 0 0 0 0 173 173 0 0 171 170 0 169 169 0 0 0 0 167 0 0 165 164 0 163 161 161 161 161 0 0 159 159 0 158 0 0 0 155 0 154 0 0 151 151 0 151 149 150 149 0 0 150 0 0 0 0 0 149 0 148 148 0 148 147 148 0 0 148 148 147 147 0 147 148 149 0 0 0 0 148 148 148 149 0 155 164 0 0 0 169 169 175 0 0 171 163 162 161 0 163 163 164 0 0 0 164 163 163 163 163 162 163 0 0 0 0 164 0 165 166 167 0 0 172 0 0 0 174 0 0 175 175 0 175 177 0 179 180 181 182 0 0 0 0 188 189 0 190 191 0 0 195 196 196 0 199 208 0 0 0 248 248 248 248 248 248 248 248 248 248 248 248 248 248 248 248 248 248 248 248 248 248 248 248 248 248 248 248 248 248 248 248 248 248 248 248 248 248 248 248 248 248 248 248 248 248 248 248 248 248 248 248 248 248 248 248 248 248 248 248 248 248 248 248 248 248 248 248 0 0 247 247 0 246 0 245 244 243 0 240 0 236 232 230 229 229 0 228 227 228 227 227 227 228 228 227 227 0 0 0 0 0 0 0 0 0 226 225 225 225 224 0 222 222 222 222 225 227 0 232 0 0 0 238 0 0 0 0 0 0 244 0 0 245 0 245 0 245 0 244 0 243 242 241 0 0 0 238 0 0 240 241 242 0 0 244 0 245 0 246 246 0 0 0 247 247 247 247 0 0 248 248 248 248 248 248 248 248 248 248 248 248 248 248 248 248 248 248 248 248 248 248 248 248 248 248 248 248 248 248 248 248 248 248 248 248 248 248 248 248 248 248 248 248 248 248 248 248 248 248 248 248 248 248 248 248 248 248 248 248 248 248 248 248 248 248 248 248 248 248 248 248 248 248 248 248 248 248 248 248 248 248 248 248 248 248 248 248 248 248 248 248 248 248 
0 190 0 190 190 0 0 191 191 192 0 193 193 193 0 194 195 196 0 0 0 0 0 162 152 0 0 0 0 127 122 116 113 115 0 0 0 0 0 0 0 0 0 0 0 114 113 111 0 0 0 0 0 0 112 112 113 0 0 0 0 122 121 120 120 120 0 0 121 0 0 121 119 118 117 116 0 0 113 113 114 113 111 113 115 115 114 115 116 118 0 0 0 117 118 122 0 0 124 124 123 126 0 0 0 127 127 130 132 134 136 138 141 0 0 146 0 0 148 148 0 0 0 148 147 147 0 148 0 0 0 149 0 148 147 147 0 0 146 146 146 146 148 150 153 0 0 162 0 166 169 174 0 0 180 0 0 177 176 175 175 0 0 0 173 171 172 172 0 0 0 157 158 159 0 0 0 0 161 161 161 160 161 0 0 161 0 0 0 161 160 0 162 162 163 0 167 171 0 0 0 0 0 183 183 183 182 182 181 0 179 179 0 178 178 178 0 0 175 0 174 0 172 171 0 0 170 169 0 169 169 0 0 167 166 0 0 164 0 0 162 162 0 0 161 160 159 0 159 159 0 0 0 156 0 154 153 152 152 152 0 151 0 0 0 150 150 150 0 0 151 0 0 149 148 147 0 148 0 147 147 147 0 0 149 0 148 0 147 0 148 0 148 149 0 0 0 148 149 150 153 159 0 0 0 169 169 174 0 0 0 166 162 161 162 162 163 0 164 164 0 0 163 0 0 162 0 0 0 163 163 163 0 0 165 0 167 169 0 172 0 173 173 173 174 174 174 0 175 175 177 0 180 0 181 0 183 184 186 187 188 0 0 191 192 0 0 0 196 0 199 202 220 0 0 0 248 248 248 248 248 248 248 248 248 248 248 248 248 248 248 248 248 248 248 248 248 248 248 248 248 248 248 248 248 248 248 248 248 248 248 248 248 248 248 248 248 248 248 248 248 248 248 248 248 248 248 248 248 248 248 248 248 248 248 248 248 248 248 248 248 248 248 248 0 247 247 247 0 246 245 0 0 0 241 0 237 0 232 229 227 227 226 226 225 226 226 226 0 0 226 0 0 0 213 207 207 209 0 0 0 224 0 0 0 0 0 0 220 220 219 219 221 223 225 228 0 232 0 0 0 0 0 0 0 0 242 243 0 0 244 244 244 244 0 243 0 0 0 0 0 236 235 235 236 237 0 0 240 0 242 0 244 244 245 0 0 246 246 0 0 247 247 247 247 0 0 248 248 248 248 248 248 248 248 248 248 248 248 248 248 248 248 248 248 248 248 248 248 248 248 248 248 248 248 248 248 248 248 248 248 248 248 248 248 248 248 248 248 248 248 248 248 248 248 248 248 248 248 248 248 248 248 248 248 248 248 248 248 248 248 248 248 248 248 248 248 248 248 248 248 248 248 248 248 248 248 248 248 248 248 248 248 248 248 248 248 248 248 248 
190 190 190 190 190 190 0 191 191 192 0 192 0 193 193 193 0 0 0 0 0 183 0 161 0 0 138 133 0 124 120 0 113 114 0 0 0 0 0 113 112 110 111 114 0 0 0 0 0 0 0 0 115 114 0 111 112 0 0 0 0 0 0 0 0 0 0 122 122 122 121 118 116 114 113 0 0 113 111 113 0 113 113 0 0 0 116 0 0 119 0 0 0 117 118 0 0 122 122 0 0 0 0 0 124 124 126 130 0 0 0 0 0 0 146 146 147 148 0 0 148 149 0 149 148 148 148 148 0 149 149 149 0 0 148 0 147 0 0 146 0 146 147 147 150 0 0 0 0 0 166 170 0 0 179 0 0 177 176 175 174 0 0 0 0 0 173 0 0 0 162 157 0 160 0 161 161 161 161 161 0 160 0 0 0 0 0 0 0 160 0 161 0 162 163 164 166 170 177 0 0 0 184 184 0 183 0 0 181 0 0 179 0 179 0 178 178 177 175 175 0 172 171 171 171 0 170 170 0 169 0 0 167 167 0 166 166 165 0 0 163 0 162 162 0 161 161 0 160 0 159 0 158 0 0 155 154 153 153 0 152 152 152 0 151 0 0 0 150 0 0 0 0 148 148 147 0 148 0 0 0 0 148 0 0 0 0 0 147 0 0 148 147 0 0 0 0 151 0 149 151 153 162 0 0 167 167 0 179 0 0 171 163 162 162 162 163 163 0 0 0 163 0 163 0 0 0 162 162 162 0 163 163 164 165 0 167 0 0 0 172 172 0 0 0 173 174 0 175 176 0 179 0 0 181 0 183 0 0 188 0 189 0 0 192 0 194 195 197 0 199 209 0 0 0 248 248 248 248 248 248 248 248 248 248 248 248 248 248 248 248 248 248 248 248 248 248 248 248 248 248 248 248 248 248 248 248 248 248 248 248 248 248 248 248 248 248 248 248 248 248 248 248 248 248 248 248 248 248 248 248 248 248 248 248 248 248 248 248 248 248 248 248 248 0 247 247 0 0 0 245 244 0 242 0 0 0 234 0 229 226 225 225 225 225 225 0 225 0 0 0 0 0 205 199 202 202 193 192 204 0 0 0 0 0 0 0 0 0 0 217 218 219 220 222 223 226 0 0 0 0 233 235 237 0 0 0 0 0 242 0 243 0 0 242 0 241 240 0 237 235 232 232 232 233 235 236 0 239 240 241 242 0 244 0 245 245 0 246 246 0 0 247 247 247 247 0 248 248 248 248 248 248 248 248 248 248 248 248 248 248 248 248 248 248 248 248 248 248 248 248 248 248 248 248 248 248 248 248 248 248 248 248 248 248 248 248 248 248 248 248 248 248 248 248 248 248 248 248 248 248 248 248 248 248 248 248 248 248 248 248 248 248 248 248 248 248 248 248 248 248 248 248 248 248 248 248 248 248 248 248 248 248 248 248 248 248 248 248 248 
189 0 0 189 0 190 190 190 0 0 192 192 0 193 193 193 0 0 196 0 0 0 0 156 0 0 0 128 123 120 0 0 112 111 114 0 0 115 110 109 110 111 112 0 0 0 0 0 111 110 112 113 113 0 113 111 113 0 0 121 122 123 0 0 0 0 0 123 0 0 0 120 117 115 112 113 114 113 111 112 0 0 116 0 0 0 116 0 0 0 0 0 0 118 0 119 118 118 120 124 0 0 0 0 124 125 129 134 0 0 142 144 147 0 0 148 148 149 0 0 149 0 150 0 0 0 0 0 148 148 149 149 149 148 0 0 147 0 0 145 146 0 146 147 149 151 153 156 159 0 163 165 171 0 0 0 0 177 0 175 174 0 175 174 0 0 0 0 167 159 157 159 0 0 0 0 161 161 161 161 161 0 160 160 0 159 159 0 0 159 160 0 0 161 0 0 165 169 0 0 0 0 185 184 0 183 0 182 181 181 0 180 180 0 179 0 0 0 0 175 0 0 0 0 170 170 0 170 0 169 0 167 167 167 167 0 166 0 0 165 0 0 0 163 0 0 162 0 0 160 159 159 0 0 0 157 156 0 0 153 152 152 0 0 151 0 151 151 0 150 150 150 0 149 0 0 148 148 148 148 0 0 147 0 0 148 0 0 146 148 0 0 148 0 149 0 0 0 0 150 150 152 155 0 0 0 166 0 0 181 0 0 166 163 163 163 163 0 0 163 163 163 0 163 163 162 162 0 162 162 0 163 0 0 164 165 167 167 0 0 170 171 0 173 0 0 0 175 0 177 0 178 180 0 181 0 0 186 0 0 0 190 0 191 192 0 194 195 0 199 204 222 0 0 0 248 248 248 248 248 248 248 248 248 248 248 248 248 248 248 248 248 248 248 248 248 248 248 248 248 248 248 248 248 248 248 248 248 248 248 248 248 248 248 248 248 248 248 248 248 248 248 248 248 248 248 248 248 248 248 248 248 248 248 248 248 248 248 248 248 248 248 248 248 0 247 247 0 246 0 245 244 243 242 240 238 236 0 231 0 226 225 225 0 225 225 225 225 225 0 0 214 201 206 0 0 0 203 192 185 194 0 0 0 190 185 191 0 0 0 0 0 0 0 220 0 222 223 225 0 227 229 0 0 0 236 0 0 0 0 0 0 0 0 241 0 0 0 0 235 233 231 229 230 231 233 0 236 238 0 240 0 0 243 0 244 0 245 0 246 246 0 0 247 247 247 0 248 248 248 248 248 248 248 248 248 248 248 248 248 248 248 248 248 248 248 248 248 248 248 248 248 248 248 248 248 248 248 248 248 248 248 248 248 248 248 248 248 248 248 248 248 248 248 248 248 248 248 248 248 248 248 248 248 248 248 248 248 248 248 248 248 248 248 248 248 248 248 248 248 248 248 248 248 248 248 248 248 248 248 248 248 248 248 248 248 248 248 248 248 
0 0 0 0 0 0 0 190 190 191 0 192 0 193 193 193 194 0 195 0 0 0 161 149 142 133 127 123 120 119 0 114 111 112 0 0 0 0 110 109 112 0 113 111 111 114 111 109 110 112 0 0 115 114 114 114 115 116 118 0 0 122 0 0 0 0 0 122 0 0 0 0 0 0 0 114 0 0 0 114 0 0 0 0 0 0 0 116 116 116 115 115 117 0 0 117 116 118 122 0 0 0 0 0 125 0 0 0 141 142 144 147 0 0 0 0 150 0 151 150 150 0 0 0 150 149 148 0 148 148 0 0 149 149 0 148 147 146 0 0 0 145 145 0 0 0 151 154 0 0 0 163 166 0 0 0 0 177 0 174 174 0 175 174 175 0 0 165 158 157 158 0 0 161 161 0 0 161 0 161 0 0 0 159 159 0 158 0 159 159 0 161 0 162 162 163 165 167 175 0 0 0 185 185 184 183 183 0 0 0 0 0 0 0 179 0 0 0 0 176 175 174 0 0 171 170 170 170 169 169 0 0 0 0 0 167 167 0 166 165 0 0 0 163 0 0 0 162 161 0 160 0 159 159 0 0 0 0 0 0 152 152 153 0 151 0 0 0 150 150 0 148 0 149 0 0 149 0 0 148 147 0 147 147 147 0 148 147 0 148 0 0 0 0 148 149 151 0 0 150 0 0 154 161 0 0 171 175 0 184 181 0 172 164 0 0 0 0 163 163 163 0 0 0 0 162 0 0 162 0 0 163 163 164 164 0 167 0 0 0 170 0 0 0 173 173 0 174 0 0 178 179 180 0 181 182 0 0 188 189 190 191 0 191 192 0 194 196 199 201 212 0 0 0 248 248 248 248 248 248 248 248 248 248 248 248 248 248 248 248 248 248 248 248 248 248 248 248 248 248 248 248 248 248 248 248 248 248 248 248 248 248 248 248 248 248 248 248 248 248 248 248 248 248 248 248 248 248 248 248 248 248 248 248 248 248 248 248 248 248 248 248 248 0 0 247 247 0 246 0 245 244 0 0 240 238 0 0 0 227 226 225 225 225 0 225 225 0 0 0 215 204 209 0 0 0 0 0 0 190 181 184 186 175 161 162 162 0 0 193 0 0 0 0 0 0 0 0 0 222 223 225 228 230 231 232 232 234 0 237 238 239 0 0 0 0 238 0 235 233 0 229 228 0 230 231 233 235 0 0 0 0 0 242 0 0 0 244 245 0 0 246 0 0 247 247 0 0 248 248 248 248 248 248 248 248 248 248 248 248 248 248 248 248 248 248 248 248 248 248 248 248 248 248 248 248 248 248 248 248 248 248 248 248 248 248 248 248 248 248 248 248 248 248 248 248 248 248 248 248 248 248 248 248 248 248 248 248 248 248 248 248 248 248 248 248 248 248 248 248 248 248 248 248 248 248 248 248 248 248 248 248 248 248 248 248 248 248 248 248 
0 189 0 0 189 189 189 0 190 0 0 0 0 0 0 193 194 0 0 0 0 0 158 146 138 130 127 125 0 119 116 112 109 109 0 0 0 113 111 113 0 0 0 113 0 0 0 112 0 0 0 0 0 0 116 0 0 0 0 0 0 0 121 0 122 122 0 121 0 0 0 0 0 0 114 114 0 113 113 114 0 0 0 110 109 111 114 0 115 114 113 115 0 0 0 0 117 0 0 0 0 125 124 123 125 132 0 0 145 0 0 0 0 0 0 0 0 0 0 0 151 150 150 0 0 149 148 148 148 0 149 0 0 0 0 0 147 146 145 145 145 145 0 146 147 0 150 152 154 157 0 161 163 169 0 0 0 177 175 174 174 0 176 175 0 0 166 160 157 158 0 0 0 0 0 161 0 160 0 160 0 0 159 0 0 0 158 158 159 0 0 0 0 0 162 163 165 167 175 0 0 0 186 0 185 0 183 182 181 0 181 0 180 0 0 0 178 0 0 176 0 0 0 172 171 0 0 0 0 169 0 169 169 169 0 167 0 167 0 0 165 165 164 163 0 0 163 162 0 161 0 0 159 159 0 0 158 157 0 154 153 0 153 0 0 0 151 151 0 150 0 149 0 0 149 0 0 149 0 148 147 0 0 147 147 0 0 0 0 148 147 148 0 149 0 150 0 0 150 0 151 0 152 157 0 0 0 171 0 0 183 0 0 167 163 0 164 163 0 0 0 163 163 163 0 162 162 0 163 163 163 163 0 164 165 0 167 0 0 0 169 0 171 0 172 172 0 0 175 0 0 179 0 181 182 183 185 0 188 0 190 0 0 193 0 0 195 198 201 207 223 0 0 0 248 248 248 248 248 248 248 248 248 248 248 248 248 248 248 248 248 248 248 248 248 248 248 248 248 248 248 248 248 248 248 248 248 248 248 248 248 248 248 248 248 248 248 248 248 248 248 248 248 248 248 248 248 248 248 248 248 248 248 248 248 248 248 248 248 248 248 248 0 0 247 247 0 0 246 0 0 244 243 0 240 0 0 233 0 227 225 225 225 225 225 225 0 0 0 0 206 206 0 0 216 209 207 0 0 189 183 0 174 160 155 158 155 157 165 170 170 169 174 0 0 0 0 0 0 0 0 222 0 0 228 229 229 230 232 0 0 236 0 0 0 0 0 0 0 231 0 0 227 227 229 230 232 234 236 237 0 0 240 0 0 242 243 0 0 245 245 0 246 0 0 247 247 0 0 0 248 248 248 248 248 248 248 248 248 248 248 248 248 248 248 248 248 248 248 248 248 248 248 248 248 248 248 248 248 248 248 248 248 248 248 248 248 248 248 248 248 248 248 248 248 248 248 248 248 248 248 248 248 248 248 248 248 248 248 248 248 248 248 248 248 248 248 248 248 248 248 248 248 248 248 248 248 248 248 248 248 248 248 248 248 248 248 248 248 248 
0 189 0 0 0 0 189 0 190 190 191 0 192 192 192 192 193 0 0 0 0 0 158 146 137 133 0 0 0 117 115 114 112 111 112 113 113 113 113 117 0 0 115 113 0 113 113 0 0 115 116 116 0 0 117 0 0 118 0 0 0 0 0 0 119 0 0 118 118 119 118 116 113 113 114 0 0 112 113 113 114 112 111 109 109 111 0 0 0 0 115 116 0 118 117 115 116 0 0 0 0 124 123 125 129 136 0 0 0 0 0 0 152 0 0 0 153 152 152 0 0 151 0 151 0 150 0 149 148 149 149 149 149 148 148 0 147 0 146 145 144 145 0 0 146 147 148 150 152 0 0 0 161 165 0 0 0 0 0 174 0 0 0 0 0 0 162 156 157 159 160 161 161 0 0 161 160 159 159 159 159 0 158 158 158 0 0 0 159 0 160 160 160 161 162 0 0 169 174 0 0 0 0 0 185 0 0 182 0 181 181 0 180 180 0 0 177 177 176 176 175 0 0 172 0 171 0 170 0 170 0 169 169 169 0 169 0 167 0 167 0 0 165 0 164 164 0 163 162 162 161 0 160 159 0 159 158 157 156 155 0 0 153 0 152 151 151 0 151 0 0 149 0 149 149 0 0 0 149 0 0 147 147 147 147 147 147 0 0 0 147 147 0 149 0 0 0 149 148 0 149 0 151 154 159 165 166 167 182 0 0 183 0 172 163 164 0 0 0 163 163 0 163 163 162 0 163 163 0 163 163 163 164 164 165 0 166 166 167 0 169 0 169 170 0 171 172 0 173 175 0 0 0 181 0 184 0 187 0 0 191 192 193 0 0 0 197 200 204 214 0 0 0 248 248 248 248 248 248 248 248 248 248 248 248 248 248 248 248 248 248 248 248 248 248 248 248 248 248 248 248 248 248 248 248 248 248 248 248 248 248 248 248 248 248 248 248 248 248 248 248 248 248 248 248 248 248 248 248 248 248 248 248 248 248 248 248 248 248 248 0 0 0 247 247 247 0 246 0 245 0 0 0 0 0 0 235 232 229 227 225 0 0 0 0 224 0 0 0 0 204 0 0 0 0 207 210 0 0 191 0 0 171 165 0 0 0 152 153 153 153 147 145 160 169 169 169 171 190 0 0 0 0 0 0 0 0 229 0 0 0 0 0 0 0 0 0 0 0 229 227 226 0 227 0 230 0 0 0 0 236 0 238 239 240 241 242 243 0 244 0 0 246 246 0 247 247 247 247 0 0 248 248 248 248 248 248 248 248 248 248 248 248 248 248 248 248 248 248 248 248 248 248 248 248 248 248 248 248 248 248 248 248 248 248 248 248 248 248 248 248 248 248 248 248 248 248 248 248 248 248 248 248 248 248 248 248 248 248 248 248 248 248 248 248 248 248 248 248 248 248 248 248 248 248 248 248 248 248 248 248 248 248 248 248 248 248 248 248 248 
188 188 189 0 189 188 188 0 0 189 190 191 191 191 0 0 192 193 0 0 0 0 0 145 135 135 0 0 0 0 0 0 0 0 0 0 0 0 0 0 0 0 114 111 110 111 114 0 0 0 116 116 0 0 0 0 0 0 0 0 115 0 0 115 115 115 116 118 118 0 115 112 110 113 0 0 0 112 0 114 114 0 0 113 112 112 0 0 115 0 0 0 118 118 118 116 116 122 0 126 0 125 127 130 0 0 0 0 148 0 150 151 152 0 0 154 153 153 152 152 0 151 151 0 151 0 0 0 149 0 0 149 149 148 148 0 0 0 0 145 144 0 146 146 145 146 0 148 150 153 0 0 160 162 0 0 0 0 0 172 174 0 178 0 0 166 157 156 0 0 0 161 0 0 161 0 160 0 0 158 158 158 157 0 157 158 0 0 0 159 159 160 160 0 162 0 165 169 176 0 0 0 0 0 184 0 0 182 181 181 0 180 179 179 179 0 0 176 176 0 175 0 174 173 0 171 171 0 0 170 169 0 0 169 169 0 0 169 0 167 0 166 165 0 165 164 0 0 163 0 0 161 0 0 159 159 158 157 0 156 0 0 153 152 0 0 0 0 151 0 149 0 0 149 149 0 150 0 0 0 148 147 0 147 147 146 146 0 146 0 146 146 147 148 0 0 0 148 147 0 0 149 149 152 0 0 164 167 179 0 0 186 0 0 167 165 165 0 164 164 163 0 0 0 163 0 0 163 0 0 0 0 0 0 0 165 165 166 0 167 167 0 0 0 169 0 171 0 172 173 0 177 179 181 183 0 0 0 189 190 0 0 194 0 0 197 0 200 207 0 0 0 0 248 248 248 248 248 248 248 0 0 0 0 0 248 248 248 0 0 0 0 0 0 0 0 0 0 0 0 0 0 0 0 248 248 248 248 248 248 248 248 248 248 248 248 248 248 248 248 248 248 248 248 248 248 248 248 248 248 248 248 248 248 248 248 248 248 0 0 0 247 247 247 247 0 0 246 0 0 244 0 242 241 0 237 0 232 229 0 0 0 0 0 0 0 0 0 0 211 207 0 0 0 0 207 0 0 0 195 0 176 171 0 0 0 151 148 150 0 0 140 141 156 0 0 171 165 166 174 0 0 0 206 0 0 0 0 0 0 0 0 0 193 0 0 0 0 0 0 0 226 226 227 0 0 0 232 0 0 234 0 0 0 238 0 241 242 243 0 244 245 0 246 0 0 247 247 247 247 0 248 248 248 248 248 248 248 248 248 248 248 248 248 248 248 248 248 248 248 248 248 248 248 248 248 248 248 248 248 248 248 248 248 248 248 248 248 248 248 248 248 248 248 248 248 248 248 248 248 248 248 248 248 248 248 248 248 248 248 248 248 248 248 248 248 248 248 248 248 248 248 248 248 248 248 248 248 248 248 248 248 248 248 248 248 248 248 248 248 
0 188 188 0 0 188 188 0 189 189 0 0 0 190 0 192 192 0 0 0 176 165 0 144 137 0 0 129 123 118 0 0 0 0 113 0 114 113 0 0 0 116 113 113 113 0 0 0 117 117 0 0 116 0 0 0 112 112 112 113 113 113 112 112 112 114 115 0 0 0 114 113 113 116 0 0 0 111 112 0 0 0 0 0 0 0 114 0 114 116 0 0 0 0 0 118 0 0 0 124 124 126 129 0 0 0 143 145 146 147 0 151 0 0 0 154 0 0 154 0 0 152 151 151 151 0 151 150 0 0 0 0 0 0 148 147 0 0 147 146 146 0 0 0 145 145 0 147 0 151 154 0 0 160 167 0 0 176 174 172 174 0 0 0 0 162 155 157 159 0 161 0 0 161 161 0 159 159 0 158 0 157 0 157 157 0 158 0 158 158 159 0 0 160 161 163 165 170 176 0 0 0 185 184 183 183 181 181 181 181 0 179 179 179 178 178 177 176 176 0 175 175 0 173 172 171 0 0 170 0 169 0 170 0 0 169 0 170 0 169 0 167 166 166 0 165 0 0 0 163 162 162 0 161 160 0 0 0 0 156 0 0 0 0 151 151 151 151 0 150 150 149 0 0 0 0 150 149 0 149 148 0 0 0 0 147 0 146 146 146 147 146 147 147 148 0 0 148 147 148 0 148 148 150 153 0 0 169 173 0 0 192 185 0 172 167 165 0 0 0 164 0 164 0 0 164 164 164 164 0 0 0 0 164 164 164 165 0 166 0 166 167 0 167 167 0 170 0 172 0 174 176 0 0 183 185 187 188 189 0 191 193 0 196 196 197 200 202 214 0 0 0 0 248 0 0 0 0 0 0 0 247 247 247 0 0 0 0 0 247 247 247 247 247 0 247 247 247 247 247 0 247 247 0 0 248 248 248 248 248 248 248 248 248 248 248 248 248 248 248 248 248 248 248 248 248 248 248 248 248 248 248 248 0 0 0 0 0 0 247 0 247 247 0 0 0 246 0 245 244 0 0 0 240 0 0 0 0 0 0 0 0 0 0 0 0 0 0 0 207 212 0 0 0 212 210 0 0 0 0 0 174 171 0 158 152 146 144 0 0 0 134 0 155 0 0 0 0 0 154 152 164 179 186 192 196 203 0 0 184 169 157 154 158 161 162 161 174 0 0 0 0 0 227 227 0 0 230 0 231 0 232 232 234 236 0 0 241 0 243 0 244 0 0 246 0 0 247 247 247 0 0 248 248 248 248 248 248 248 248 248 248 248 248 248 248 248 248 248 248 248 248 248 248 248 248 248 248 248 248 248 248 248 248 248 248 248 248 248 248 248 248 248 248 248 248 248 248 248 248 248 248 248 248 248 248 248 248 248 248 248 248 248 248 248 248 248 248 248 248 248 248 248 248 248 248 248 248 248 248 248 248 248 248 248 248 248 248 248 248 
188 188 188 0 0 188 188 0 0 189 189 190 0 190 0 0 192 192 0 0 0 163 153 142 136 136 135 130 122 114 111 112 113 112 111 114 113 113 0 0 115 113 113 0 0 0 117 0 0 0 0 0 0 114 113 111 111 112 113 113 113 113 113 0 0 0 114 115 0 0 113 0 0 0 0 0 112 110 111 115 0 0 0 0 115 0 114 113 114 116 0 0 0 0 0 119 120 0 0 0 125 128 131 134 136 139 142 0 146 147 0 0 0 154 0 155 0 0 155 0 154 152 151 151 0 152 0 150 149 149 0 0 0 149 148 148 148 148 0 147 146 0 0 0 144 144 144 145 0 149 152 0 157 159 164 0 0 0 0 171 173 0 0 0 0 158 155 158 0 0 0 0 161 161 0 0 159 158 0 0 0 157 157 157 157 157 158 0 0 0 0 0 160 160 0 163 165 169 175 0 184 184 184 0 0 0 182 0 181 181 0 0 0 0 0 0 0 176 0 0 175 0 0 173 0 171 171 0 170 0 169 0 170 0 169 0 170 170 0 169 0 0 167 0 166 0 165 165 0 163 163 163 0 161 0 0 0 0 156 156 0 155 0 152 152 0 0 151 0 150 0 0 149 149 149 0 0 150 0 0 148 147 147 148 0 0 147 147 147 0 0 0 0 147 0 148 0 147 146 147 0 148 148 150 152 0 0 0 169 183 0 0 188 0 0 167 166 0 0 0 165 0 164 164 164 164 0 0 0 164 0 164 164 164 164 164 0 165 0 0 166 166 167 167 167 0 0 170 0 0 0 175 0 0 0 186 0 189 190 0 191 193 0 196 197 0 200 207 0 0 0 0 0 0 0 247 247 247 247 247 247 247 247 247 247 247 247 247 247 247 247 247 247 247 247 247 247 247 247 247 247 247 247 247 0 0 248 248 248 248 248 248 248 248 248 248 248 248 248 248 248 248 248 248 248 248 248 248 0 0 0 0 0 0 247 247 247 247 247 247 247 247 247 0 246 246 0 245 0 0 0 242 0 0 0 0 0 0 0 219 210 205 204 206 205 207 0 0 0 204 0 0 0 0 211 0 0 0 0 0 183 172 0 0 154 0 142 145 0 0 137 137 141 147 0 0 0 0 162 154 144 147 0 0 0 0 183 172 159 149 146 145 149 0 156 155 150 146 150 174 0 0 0 0 227 227 0 228 228 229 229 229 230 0 234 236 238 0 241 242 0 243 244 245 0 246 0 0 0 247 247 0 0 0 0 248 248 248 248 248 248 248 248 248 248 248 248 248 248 248 248 248 248 248 248 248 248 248 248 248 248 248 248 248 248 248 248 248 248 248 248 248 248 248 248 248 248 248 248 248 248 248 248 248 248 248 248 248 248 248 248 248 248 248 248 248 248 248 248 248 248 248 248 248 248 248 248 248 248 248 248 248 248 248 248 248 248 248 248 248 
0 0 187 188 0 188 188 188 188 0 188 0 0 0 0 191 0 0 0 0 0 161 151 144 141 0 0 0 123 117 115 0 116 115 115 0 0 115 0 113 111 112 115 0 0 0 115 113 113 113 0 115 0 112 111 112 112 114 0 0 114 0 0 0 113 113 0 0 114 111 112 0 0 0 0 113 111 0 0 0 0 114 115 0 116 115 114 112 113 0 0 0 0 119 119 119 0 0 0 124 126 0 0 0 0 137 0 0 0 147 0 0 0 153 154 0 0 0 0 0 0 0 0 0 152 0 0 151 150 0 149 149 149 149 0 0 0 0 0 148 147 0 146 144 143 143 0 145 146 147 149 153 0 158 161 0 0 0 0 172 173 0 0 0 163 157 158 0 0 161 162 162 0 0 0 159 0 0 158 158 157 157 156 0 157 0 0 158 0 159 159 0 160 161 0 0 165 167 175 0 0 0 183 183 182 182 182 0 181 0 0 0 0 178 0 177 176 176 176 176 175 175 174 173 0 172 0 170 0 170 0 0 170 0 169 0 170 0 0 0 170 169 0 167 167 0 166 0 0 164 0 0 0 161 160 159 158 157 156 156 0 155 153 153 152 0 0 151 0 0 150 150 149 0 148 149 0 0 0 149 0 147 0 148 148 147 0 0 147 0 0 0 148 148 148 147 148 0 147 0 148 0 149 0 152 155 0 0 166 178 0 0 0 186 0 171 166 167 0 166 0 0 164 164 0 0 163 0 0 0 0 0 164 164 0 164 164 164 164 164 165 0 0 0 166 0 0 170 0 172 173 174 0 181 0 0 0 0 0 0 191 0 195 196 197 199 203 216 0 0 0 247 247 247 247 247 247 247 247 247 247 247 247 0 0 0 0 0 0 0 0 0 0 0 0 0 0 0 0 0 0 247 247 247 247 0 0 0 0 248 248 248 248 248 248 248 248 248 248 248 248 248 248 248 248 248 0 0 0 247 0 247 0 0 247 247 247 247 247 247 247 0 0 0 246 0 245 0 244 243 242 241 0 238 236 0 0 0 218 212 212 215 0 0 210 204 199 200 197 195 0 0 0 0 208 0 208 0 0 0 178 170 163 0 151 146 145 0 0 143 136 0 136 140 156 165 159 157 161 0 0 151 148 161 0 0 163 155 148 147 0 0 149 149 155 154 150 144 138 139 161 0 0 0 0 0 227 227 227 227 227 227 227 229 232 234 236 238 0 0 0 0 0 244 245 0 246 246 0 247 247 247 247 247 0 0 0 0 0 248 248 248 248 248 248 248 248 248 248 248 248 248 248 248 248 248 248 248 248 248 248 248 248 248 248 248 248 248 248 248 248 248 248 248 248 248 248 248 248 248 248 248 248 248 248 248 248 248 248 248 248 248 248 248 248 248 248 248 248 248 248 248 248 248 248 248 248 248 248 248 248 248 248 248 248 248 248 248 248 248 
187 187 187 0 0 0 187 0 187 187 188 0 190 190 0 190 0 0 0 0 0 158 148 145 0 0 0 0 124 0 0 0 0 0 0 118 0 0 113 111 111 113 0 0 0 0 112 110 107 109 0 0 0 114 113 0 0 0 0 115 115 0 116 0 114 112 113 0 113 112 113 0 0 0 117 112 112 0 0 0 114 113 0 0 0 0 0 0 111 0 0 0 117 118 120 0 0 119 120 122 0 130 0 134 134 136 140 0 0 146 148 0 0 153 154 154 0 155 0 0 0 154 0 0 152 152 0 0 0 150 0 149 149 0 149 149 149 0 0 0 0 0 0 0 0 0 0 0 145 0 148 0 0 156 159 0 0 0 173 171 174 0 0 0 158 157 159 0 0 0 162 162 0 160 159 158 158 158 0 157 0 156 0 0 157 157 0 157 0 0 159 0 160 161 162 0 165 169 0 0 0 0 183 182 182 182 182 0 181 0 180 180 179 178 177 177 177 176 176 0 0 175 0 174 173 172 171 170 170 170 170 170 0 169 0 170 170 170 170 0 0 0 169 0 0 167 166 0 165 165 0 164 0 160 159 159 158 157 0 156 156 0 0 0 153 0 151 151 151 151 150 0 0 0 149 149 149 150 0 148 147 147 0 0 0 0 147 147 0 146 0 0 147 0 0 149 149 148 147 0 148 149 0 0 151 152 157 161 166 172 187 0 0 190 183 176 169 167 0 166 166 0 0 164 0 0 0 0 164 0 164 164 164 164 0 164 164 0 164 0 165 165 165 165 165 166 167 0 170 171 0 174 177 181 0 186 0 0 189 189 191 0 195 196 198 199 208 0 0 0 0 0 0 0 0 0 0 0 0 0 0 0 0 0 246 246 0 246 246 246 246 246 246 246 246 246 246 246 246 246 0 0 0 247 247 247 247 247 0 0 248 248 248 248 248 248 248 248 248 248 248 248 248 248 0 0 0 247 247 247 247 247 247 247 247 247 247 247 0 0 0 0 246 246 0 245 244 244 0 0 0 0 0 236 235 0 0 220 216 0 0 0 0 0 0 0 0 0 189 184 0 0 0 0 203 0 0 200 0 181 170 0 162 153 148 145 147 0 0 138 144 0 138 145 152 158 0 0 0 0 0 156 149 153 156 155 152 150 146 150 148 144 148 0 0 0 0 0 144 137 140 170 0 0 0 0 0 0 226 0 0 226 227 0 230 232 0 0 238 0 241 242 243 0 0 245 0 246 0 0 0 247 247 247 247 247 247 247 0 0 0 0 248 248 248 248 248 248 248 248 248 248 248 248 248 248 248 248 248 248 248 248 248 248 248 248 248 248 248 248 248 248 248 248 248 248 248 248 248 248 248 248 248 248 248 248 248 248 248 248 248 248 248 248 248 248 248 248 248 248 248 248 248 248 248 248 248 248 248 248 248 248 248 248 248 248 248 248 248 248 
0 0 187 187 187 187 187 0 0 187 0 0 189 0 0 0 0 0 0 0 0 156 150 0 0 0 134 127 123 121 119 0 118 0 0 0 0 0 0 113 0 0 0 0 0 0 111 109 107 107 109 112 0 0 0 0 0 0 0 115 115 116 0 0 0 113 113 0 0 113 114 116 0 0 117 116 116 116 116 0 0 0 0 0 117 0 116 113 111 113 0 119 118 0 0 0 118 117 118 121 0 0 0 0 133 135 0 0 0 146 147 0 0 0 0 154 154 155 0 155 154 153 153 152 152 0 0 152 151 0 0 150 0 0 0 0 0 0 149 148 0 0 144 143 0 0 143 144 145 146 147 149 0 154 157 165 0 0 0 170 175 0 0 164 156 0 159 0 162 162 0 162 0 0 158 158 157 0 157 156 0 156 0 156 0 157 157 0 158 158 0 159 159 0 162 163 165 170 0 0 0 183 0 0 182 182 0 0 181 0 0 0 0 0 0 0 0 0 0 176 175 175 0 0 0 0 0 171 0 170 170 170 0 169 0 0 170 170 170 171 0 171 0 169 167 167 0 166 0 0 0 0 163 0 160 0 159 158 0 156 0 0 0 154 0 0 152 151 151 0 0 150 150 150 0 149 149 0 149 0 0 147 147 0 0 0 147 146 146 146 0 0 147 0 0 0 0 0 148 148 148 149 0 0 150 152 0 158 162 170 179 0 0 197 187 0 171 169 167 166 0 165 165 0 164 164 0 0 0 164 164 0 164 164 164 0 163 0 164 0 0 164 0 165 0 166 166 0 169 171 0 0 177 181 0 0 0 0 188 189 0 0 195 0 199 204 220 0 0 0 0 246 0 246 246 246 246 246 246 246 246 246 246 0 0 0 0 0 0 0 0 0 0 0 0 0 0 0 0 0 246 246 0 0 0 247 247 247 247 0 0 0 0 0 248 248 248 248 248 248 0 0 0 0 0 247 247 247 247 247 247 247 247 247 0 0 0 0 0 246 246 246 0 245 0 244 0 243 0 242 241 0 0 0 234 0 0 217 0 0 0 0 0 0 0 0 0 0 194 180 191 0 0 0 200 0 0 0 189 174 163 0 0 150 147 147 0 0 145 142 0 0 0 0 156 0 0 0 169 166 162 156 150 149 151 0 0 0 0 0 150 142 151 0 0 156 0 155 149 0 142 148 183 0 0 0 0 0 0 0 0 225 0 227 0 231 233 235 0 238 0 0 242 243 244 0 245 0 246 246 0 0 0 247 247 247 247 247 247 247 247 0 0 0 0 0 248 248 248 248 248 248 248 248 248 248 248 248 248 248 248 248 248 248 248 248 248 248 248 248 248 248 248 248 248 248 248 248 248 248 248 248 248 248 248 248 248 248 248 248 248 248 248 248 248 248 248 248 248 248 248 248 248 248 248 248 248 248 248 248 248 248 248 248 248 248 248 248 248 248 
0 0 0 186 0 187 187 187 187 187 187 188 189 190 0 190 190 0 0 0 164 153 152 0 0 138 127 123 0 0 117 115 114 116 0 0 0 116 114 115 115 115 114 0 0 0 0 0 0 0 111 113 0 0 117 116 115 114 0 0 0 0 0 114 0 0 0 0 112 113 0 116 117 118 119 120 0 0 116 114 112 112 114 116 117 0 116 114 111 113 0 0 0 0 0 121 118 117 117 119 124 0 0 0 134 135 137 140 0 0 0 149 150 152 153 154 154 0 0 0 0 0 153 153 152 152 0 0 151 150 0 150 0 149 0 149 0 0 149 0 0 0 0 144 143 142 143 143 0 145 0 148 151 0 157 163 0 0 0 170 176 0 0 158 155 0 160 0 0 0 0 162 0 159 158 0 158 0 0 156 0 156 156 156 157 0 157 0 158 158 0 159 0 161 162 163 166 171 0 0 0 0 182 0 0 182 0 181 0 180 180 179 179 0 0 178 0 177 0 176 0 175 0 175 173 173 172 171 171 0 170 170 170 170 0 171 171 0 171 0 171 0 0 0 0 0 167 0 166 0 165 165 0 163 162 161 0 0 0 157 154 155 0 154 0 0 0 0 151 0 0 149 149 150 0 149 149 0 148 0 148 147 0 0 147 147 0 146 0 146 145 146 146 146 148 0 0 0 0 0 149 149 0 0 150 152 0 159 161 0 177 189 0 0 192 0 173 169 0 0 166 165 165 165 0 164 164 0 0 164 0 0 164 164 0 0 162 0 164 164 0 0 164 164 0 0 0 167 169 0 172 0 176 181 0 0 0 0 189 190 191 194 196 199 202 212 0 0 0 0 0 0 0 0 0 0 0 245 245 245 245 245 245 245 245 245 245 245 245 245 0 244 244 244 0 244 244 0 245 245 0 0 246 246 0 0 0 247 247 247 247 247 247 0 0 0 0 0 0 0 0 247 247 247 247 247 247 247 247 247 247 247 0 0 0 246 246 246 246 0 0 245 0 0 244 0 0 242 0 0 0 238 236 0 0 0 0 211 0 0 0 0 207 205 204 0 0 0 0 181 185 0 0 0 0 0 0 0 0 169 161 0 0 152 0 0 0 0 0 0 0 149 153 155 159 164 166 165 164 164 0 0 145 146 154 0 0 0 0 0 0 0 152 148 146 160 0 0 154 145 145 146 156 0 0 215 217 220 220 221 0 0 0 0 0 0 0 0 0 237 0 240 241 242 0 0 244 0 245 0 246 246 0 0 0 0 247 247 247 247 247 247 247 247 247 0 0 0 0 0 0 248 248 248 248 248 248 248 248 248 248 248 248 248 248 248 248 248 248 248 248 248 248 248 248 248 248 248 248 248 248 248 248 248 248 248 248 248 248 248 248 248 248 248 248 248 248 248 248 248 248 248 248 248 248 248 248 248 248 248 248 248 248 248 248 248 248 248 248 248 
188 187 187 187 0 0 0 0 187 187 0 188 0 0 0 190 0 0 0 0 165 155 0 0 0 0 127 122 123 0 116 112 115 0 0 0 118 115 116 0 117 115 114 113 110 109 0 108 110 0 0 0 0 0 0 0 0 0 0 114 0 0 0 111 109 108 110 110 111 0 0 0 0 117 0 0 0 0 117 115 113 113 113 0 0 0 0 0 0 114 116 0 120 0 0 0 121 0 118 119 123 128 0 0 0 135 135 137 0 0 0 149 150 0 0 0 154 0 154 154 154 154 154 0 0 153 153 0 0 0 150 150 149 149 0 150 150 0 149 0 148 147 0 0 0 143 143 0 144 144 146 147 150 153 156 161 0 0 0 170 0 0 167 155 157 0 160 162 0 163 0 0 160 159 158 0 0 0 0 156 156 156 0 0 0 0 157 0 158 158 0 159 160 161 0 163 166 171 0 0 181 181 181 0 182 0 0 181 0 180 0 179 178 178 0 0 0 176 176 0 175 176 176 0 175 174 173 172 172 0 171 0 170 170 0 0 171 0 171 0 0 0 172 0 170 169 167 167 166 166 166 165 165 0 163 162 162 161 0 0 157 155 0 154 153 153 152 0 0 0 0 0 150 150 0 149 0 0 148 0 148 0 0 147 0 147 0 0 146 146 145 145 0 146 147 149 0 0 0 0 150 149 0 0 150 152 156 0 0 0 173 180 0 0 0 185 175 169 167 167 166 0 0 165 0 0 0 0 0 0 0 0 164 0 0 163 163 0 164 164 164 164 0 164 0 166 167 167 169 0 172 174 177 0 0 0 188 188 0 0 192 195 0 199 207 0 0 0 0 245 245 0 244 0 244 0 244 0 0 0 0 0 0 0 0 0 0 0 0 0 0 0 0 243 243 243 0 0 0 244 0 245 245 0 246 246 0 0 0 0 247 247 247 247 247 247 247 247 247 247 247 247 247 247 247 0 0 0 0 0 0 0 0 246 246 246 0 0 245 0 244 244 0 0 0 0 0 0 240 0 0 236 234 0 0 0 0 195 197 0 0 0 189 194 194 189 0 0 0 0 0 0 0 0 183 0 0 0 0 167 158 0 0 152 141 140 0 0 142 143 143 145 0 0 0 0 166 0 0 0 0 157 152 0 0 0 0 152 148 151 156 0 154 151 164 0 0 0 0 155 145 146 151 166 0 0 0 0 218 216 216 215 214 0 217 0 0 0 0 235 237 0 240 241 242 0 0 244 0 245 0 0 246 246 246 0 0 0 0 0 0 247 247 247 247 247 247 0 0 247 0 0 0 0 0 248 248 248 248 248 248 248 248 248 248 248 248 248 248 248 248 248 248 248 248 248 248 248 248 248 248 248 248 248 248 248 248 248 248 248 248 248 248 248 248 248 248 248 248 248 248 248 248 248 248 248 248 248 248 248 248 248 248 248 248 248 248 248 248 248 
0 0 187 0 0 186 186 0 0 187 0 0 188 0 189 0 0 0 0 0 167 158 0 0 0 134 127 127 0 0 119 114 115 0 0 115 118 0 0 0 0 0 0 0 108 106 106 108 110 112 112 113 115 0 0 0 112 111 111 113 0 0 0 110 107 107 110 110 110 112 0 0 115 115 120 0 0 0 117 117 116 117 115 115 0 115 0 0 115 114 116 0 118 118 120 0 0 120 120 123 0 0 0 0 0 135 135 136 139 0 0 0 0 0 0 0 0 154 154 154 153 0 0 154 154 154 0 153 152 150 150 0 149 149 0 0 0 150 149 0 148 147 146 145 144 143 143 143 0 145 146 147 149 152 155 159 166 0 0 170 0 0 160 155 157 159 0 0 0 0 162 0 160 0 158 157 156 156 0 0 155 156 0 0 157 0 157 157 158 0 159 159 160 161 0 164 166 172 0 0 0 181 181 0 181 181 181 0 180 180 0 0 0 177 176 176 0 176 176 0 0 0 176 0 176 0 174 0 0 172 0 0 171 170 0 0 171 0 171 172 172 0 0 0 170 0 169 0 0 0 0 0 0 165 0 164 0 0 161 160 0 157 155 154 0 153 152 152 151 151 0 150 0 150 0 149 148 148 148 148 148 148 0 0 147 147 146 146 0 146 0 0 146 146 146 147 0 0 0 0 0 149 149 149 149 151 0 0 0 0 170 173 190 0 0 189 0 170 0 0 166 0 0 165 165 165 0 164 0 0 164 163 163 0 0 163 163 0 0 0 163 0 0 0 165 166 167 0 0 171 172 174 178 182 0 0 186 0 190 191 0 196 199 204 216 0 0 0 0 0 0 0 243 0 0 0 242 242 242 242 242 242 242 242 242 242 242 242 242 242 242 242 0 241 0 0 0 242 242 0 0 244 244 0 245 0 246 246 246 0 0 247 247 247 247 247 247 247 247 247 247 247 0 0 0 0 246 246 246 246 246 246 0 0 0 0 0 244 244 0 243 0 242 0 241 240 0 239 238 237 0 0 0 0 217 208 0 188 181 182 184 181 181 0 0 0 173 162 164 0 0 167 166 160 157 169 0 0 0 173 165 165 0 0 140 138 0 0 138 139 143 155 0 0 0 166 0 0 0 0 158 0 0 0 0 151 146 149 0 0 0 0 156 159 0 0 0 0 0 0 0 140 144 155 0 0 0 0 0 0 0 0 208 206 207 207 211 0 0 0 236 0 0 0 0 241 242 0 0 244 0 245 0 0 0 246 246 246 246 246 0 0 0 0 247 247 247 247 247 247 247 0 247 247 0 0 0 0 248 248 248 248 248 248 248 248 248 248 248 248 248 248 248 248 248 248 248 248 248 248 248 248 248 248 248 248 248 248 248 248 248 248 248 248 248 248 248 248 248 248 248 248 248 248 248 248 248 248 248 248 248 248 248 248 248 248 248 248 248 248 
188 0 187 186 186 186 186 186 0 187 187 187 187 0 189 0 189 0 0 0 0 160 154 147 140 131 128 0 0 0 0 116 115 116 115 116 118 0 0 0 0 0 0 0 109 107 108 0 0 0 0 112 114 0 0 114 110 109 110 111 115 0 114 111 109 110 0 0 0 112 113 114 114 117 120 0 0 119 116 119 0 0 120 116 113 111 113 115 115 0 0 0 117 117 120 123 0 121 121 0 0 0 130 131 134 0 0 137 138 142 0 148 149 150 150 151 153 154 0 0 154 0 0 0 0 0 0 153 152 151 0 0 150 150 0 0 0 0 0 0 0 0 0 0 144 143 143 143 0 145 0 0 149 0 155 159 164 0 0 170 0 0 156 156 157 159 0 0 162 162 161 0 0 0 157 0 0 156 0 155 155 156 156 156 156 157 157 0 158 0 159 0 160 0 163 164 167 173 0 0 0 181 181 181 0 0 180 180 0 0 0 179 0 178 0 177 177 176 176 177 0 0 0 176 0 0 0 0 0 173 172 172 0 171 0 0 171 0 171 0 0 0 0 172 171 0 170 0 167 167 167 167 0 166 0 0 0 0 0 161 0 0 157 155 154 0 0 152 151 0 150 149 0 150 0 149 0 148 0 0 0 148 148 0 147 147 0 146 0 145 0 0 146 146 145 145 147 0 0 0 150 0 150 149 149 150 0 157 161 0 165 171 183 0 0 192 182 172 167 166 166 0 165 0 165 165 0 164 0 164 0 163 0 163 163 163 163 162 160 0 164 0 164 164 165 165 167 0 0 0 172 175 0 0 0 187 187 0 191 192 195 198 202 211 0 0 0 0 0 0 0 241 241 241 241 0 0 240 240 240 240 240 240 240 0 0 0 0 0 0 0 0 0 0 0 239 239 0 0 241 0 0 0 0 244 0 245 0 0 246 0 0 0 0 0 0 247 0 0 0 0 0 0 246 246 246 246 0 0 0 0 245 245 245 0 244 0 243 0 0 242 241 0 0 239 238 0 0 236 235 0 0 0 214 0 0 185 179 176 177 0 175 176 0 166 0 0 148 149 0 154 156 0 156 147 148 159 0 0 170 0 165 0 150 137 135 138 137 139 145 152 0 0 0 166 0 0 0 0 157 153 151 150 0 0 0 146 0 0 0 149 153 158 0 166 0 183 0 0 159 148 145 138 147 175 0 0 0 210 0 0 208 208 0 0 0 201 201 0 0 0 0 237 0 0 240 241 242 0 243 0 244 244 244 0 245 0 0 0 0 246 246 246 0 0 0 0 0 247 247 247 247 247 247 247 0 247 0 0 0 0 0 248 248 248 248 248 248 248 248 248 248 248 248 248 248 248 248 248 248 248 248 248 248 248 248 248 248 248 248 248 248 248 248 248 248 248 248 248 248 248 248 248 248 248 248 248 248 248 248 248 248 248 248 248 248 248 248 248 248 
188 0 187 186 0 0 0 186 186 0 0 187 0 0 188 0 0 188 0 0 0 160 0 0 0 129 128 0 0 0 120 118 118 117 115 116 0 0 118 117 115 114 112 0 0 0 0 110 110 110 111 113 0 0 0 0 111 109 111 0 0 0 114 0 0 0 0 0 112 112 112 114 116 0 0 0 0 0 118 120 0 0 0 119 115 114 113 115 0 0 0 0 118 0 0 0 0 0 0 128 0 128 129 131 0 0 0 137 137 140 0 0 0 0 149 0 152 154 0 0 0 0 154 154 154 0 0 0 0 152 0 150 0 0 150 0 150 149 148 148 147 148 0 146 0 0 0 143 143 144 0 147 149 151 0 158 163 0 0 171 0 164 155 0 158 160 0 0 0 0 161 160 159 0 0 156 156 155 155 0 0 156 0 156 156 0 0 0 0 159 0 160 0 0 163 164 167 174 0 0 182 182 0 181 181 0 180 180 180 179 178 178 0 0 0 0 0 177 177 0 0 0 177 176 177 0 0 175 174 0 172 0 172 0 0 0 171 0 0 172 0 0 0 0 0 0 171 0 167 167 0 0 167 0 166 0 0 165 164 163 0 0 158 0 0 154 153 0 152 0 0 150 0 0 0 149 0 148 147 147 148 148 148 0 0 147 0 146 145 145 145 0 0 0 146 146 0 0 0 0 148 0 0 149 149 151 0 155 158 161 163 171 181 0 0 195 185 175 167 0 166 0 165 0 0 0 0 164 164 164 0 0 0 162 162 0 0 0 162 0 0 0 163 164 0 166 0 167 170 172 174 178 182 0 186 187 0 0 192 194 197 200 208 0 0 0 0 0 0 239 0 0 0 0 0 0 0 0 0 0 0 0 0 0 0 237 0 0 237 237 0 0 0 0 0 0 236 236 0 0 0 241 0 242 0 0 244 0 245 245 0 246 246 246 246 0 0 0 246 0 246 246 246 246 0 0 0 245 0 244 244 244 244 244 0 0 0 242 0 0 240 0 238 0 0 236 235 234 0 0 0 0 210 201 0 182 176 0 0 0 0 0 0 163 155 151 147 142 143 0 145 145 0 0 0 151 149 159 0 162 0 164 0 0 134 136 137 140 0 0 0 0 0 0 0 0 0 0 156 153 151 149 146 146 146 0 144 139 139 144 150 0 158 0 162 162 0 0 0 157 152 0 144 142 159 0 0 207 208 0 202 203 0 0 0 0 0 199 199 0 0 0 0 0 0 0 240 0 0 242 242 0 0 0 0 244 0 245 245 245 0 0 0 0 246 246 246 0 0 0 0 0 247 247 247 247 247 247 247 247 247 0 0 0 248 248 248 248 248 248 248 248 248 248 248 248 248 248 248 248 248 248 248 248 248 248 248 248 248 248 248 248 248 248 248 248 248 248 248 248 248 248 248 248 248 248 248 248 248 248 248 248 248 248 248 248 248 248 248 248 
189 0 187 186 185 185 0 0 186 0 0 186 187 187 188 0 0 188 0 0 170 159 0 141 132 129 127 127 125 121 119 0 0 0 117 0 0 116 115 115 0 111 110 109 107 108 0 110 110 110 112 115 0 117 116 115 114 112 0 0 0 0 116 116 0 0 0 114 113 113 114 115 0 0 0 0 0 0 118 119 0 0 0 0 0 0 0 0 0 0 117 117 0 0 0 121 122 126 0 0 0 127 127 130 133 0 0 137 137 139 142 0 146 147 149 0 152 0 0 0 0 154 154 154 0 155 155 0 0 0 0 151 0 0 150 149 0 0 149 0 0 0 0 147 0 0 0 143 142 143 145 147 0 150 0 157 0 0 0 170 0 160 155 0 0 0 162 0 162 0 0 159 158 0 157 156 0 155 155 155 0 0 156 156 0 0 157 157 0 0 0 160 0 161 163 165 169 0 0 0 0 0 0 181 181 0 180 180 180 0 0 178 178 178 0 178 177 0 177 0 177 178 0 0 0 0 176 175 174 0 173 0 0 172 171 171 171 170 171 0 172 0 173 173 0 0 0 170 169 0 0 167 167 0 166 166 165 165 0 0 0 161 0 0 0 155 154 0 153 152 151 0 0 150 0 149 148 0 147 0 0 0 148 0 0 0 146 145 145 0 145 146 146 0 0 146 146 146 147 147 148 0 149 0 150 151 153 0 156 0 164 0 183 192 0 0 191 178 169 167 166 165 0 0 0 165 0 0 164 0 163 0 163 162 162 0 0 0 0 163 163 0 0 0 0 166 167 167 170 173 176 0 0 0 187 188 0 192 193 196 200 206 0 0 0 0 0 0 236 0 0 0 235 0 235 0 0 0 0 0 234 234 0 0 0 0 0 0 0 0 0 0 232 0 232 0 0 232 0 0 0 0 0 240 0 242 243 0 244 0 245 245 245 0 0 246 246 246 0 0 0 245 245 0 0 245 244 244 244 0 243 243 243 243 0 242 0 241 240 0 238 237 236 235 0 0 0 0 230 229 0 216 202 0 0 176 172 0 160 158 157 161 159 152 148 145 140 137 139 0 141 139 141 0 0 0 147 146 0 158 0 159 0 0 136 137 140 0 0 0 0 0 0 0 0 0 157 155 153 154 0 150 146 144 142 142 0 0 141 0 151 154 158 0 163 156 169 0 0 161 0 0 145 142 149 0 0 0 0 203 201 207 0 211 210 209 0 0 187 196 0 0 0 0 0 0 0 239 0 0 241 0 242 242 0 243 0 244 244 244 244 0 245 245 245 0 0 246 246 0 246 0 0 0 247 247 247 247 247 247 247 247 247 0 0 0 0 0 248 248 248 248 248 248 248 248 248 248 248 248 248 248 248 248 248 248 248 248 248 248 248 248 248 248 248 248 248 248 248 248 248 248 248 248 248 248 248 248 248 248 248 248 248 248 248 248 248 248 248 248 
0 0 0 186 185 0 0 185 185 0 186 186 186 0 0 0 0 0 0 0 0 156 145 139 137 0 0 0 124 121 0 0 0 118 117 117 117 116 0 114 0 0 109 107 107 108 0 0 111 112 0 0 0 117 0 116 0 0 0 115 115 0 0 0 0 0 0 112 112 0 0 0 117 117 117 116 117 119 119 119 120 119 118 117 0 0 118 117 117 117 116 115 117 118 119 120 122 0 0 0 127 127 128 0 132 0 0 0 0 0 141 142 144 147 0 151 152 0 0 153 153 0 154 0 0 0 155 154 153 152 152 0 0 151 150 150 150 150 0 0 0 149 0 147 0 144 143 143 142 142 145 0 0 150 153 156 159 0 0 0 0 158 156 157 159 161 0 0 0 0 159 158 0 157 156 156 0 155 0 155 155 155 156 156 0 157 0 157 158 0 159 160 160 161 162 165 170 0 0 0 182 0 0 181 181 0 0 0 180 0 179 0 178 178 178 178 177 178 178 0 178 0 0 178 0 177 176 175 173 0 173 173 0 172 0 0 171 170 171 0 172 172 0 0 0 173 172 171 0 0 0 167 165 0 0 0 0 0 0 0 0 0 0 0 0 155 154 0 0 0 151 151 0 150 149 0 148 148 148 148 147 0 0 0 147 146 146 145 145 145 0 0 146 146 146 146 0 0 0 0 0 0 149 149 0 0 0 0 155 0 165 0 0 193 0 0 0 182 170 166 0 165 165 0 165 165 0 164 164 164 0 163 163 0 162 161 162 162 163 163 163 163 0 164 165 166 167 0 171 173 0 0 0 187 189 0 0 0 195 199 0 212 0 0 0 0 0 0 0 0 0 0 0 0 0 230 0 0 0 0 0 0 0 0 0 0 0 0 0 0 0 0 0 0 0 0 0 227 0 0 0 0 0 0 0 0 0 242 0 0 244 0 0 0 245 245 0 245 245 245 0 244 244 0 244 0 0 0 243 0 242 242 0 0 0 240 0 0 0 0 0 0 0 0 0 228 0 0 0 0 0 206 0 0 177 166 165 0 160 155 153 0 152 146 143 140 136 134 135 0 138 136 134 133 0 0 0 144 147 152 0 0 157 0 137 138 0 147 0 0 158 161 160 160 0 0 154 152 154 0 0 0 148 143 140 139 0 141 140 146 0 0 158 163 0 161 163 0 0 164 0 0 150 143 145 172 0 0 0 203 0 0 0 0 0 208 0 0 191 179 199 203 211 0 0 0 0 237 0 0 0 0 0 0 241 0 0 0 243 0 243 0 244 0 0 0 245 0 0 0 0 246 246 0 0 0 0 247 247 247 247 247 247 247 247 247 247 0 0 0 0 248 248 248 248 248 248 248 248 248 248 248 248 248 248 248 248 248 248 248 248 248 248 248 248 248 248 248 248 248 248 248 248 248 248 248 248 248 248 248 248 248 248 248 248 248 248 248 248 248 
0 0 188 186 0 0 0 0 184 0 0 186 186 0 186 187 188 188 0 0 0 155 144 141 0 0 0 0 124 121 120 120 119 117 117 0 0 0 0 0 110 109 107 108 109 110 111 0 0 114 0 0 0 0 0 0 115 0 0 0 114 115 0 116 116 116 0 113 113 116 0 0 117 116 115 115 118 0 0 0 118 116 113 114 0 0 119 117 117 0 0 0 116 117 121 122 0 0 127 125 126 0 0 129 130 0 134 134 136 0 140 141 144 0 0 0 0 152 152 152 152 153 154 0 0 155 0 0 0 0 0 152 151 151 0 0 0 150 0 149 149 0 148 146 146 0 0 144 143 143 145 147 0 150 0 155 158 0 0 0 0 157 156 0 0 0 0 162 161 0 158 157 0 0 0 156 0 0 155 155 155 155 156 0 0 156 0 0 0 159 159 160 0 160 161 164 171 0 0 181 0 0 181 181 181 0 0 0 0 0 0 0 0 178 0 178 0 0 0 0 0 0 0 0 0 177 0 0 174 173 0 173 0 0 170 0 0 171 0 0 172 0 173 0 0 173 0 0 0 0 0 166 165 0 0 0 163 163 0 163 0 0 159 157 0 154 154 0 0 153 0 150 0 150 149 148 0 147 0 0 147 0 0 147 0 146 0 0 145 145 0 146 146 145 0 0 145 145 148 0 0 150 0 150 150 152 0 152 153 157 163 170 0 0 0 0 0 192 172 166 165 165 0 0 164 0 0 164 0 0 163 163 0 163 0 0 0 0 0 163 163 163 163 164 165 166 167 170 172 174 178 184 0 188 0 0 194 195 198 204 0 0 0 0 0 0 0 0 0 225 0 0 0 0 0 0 0 223 223 0 0 223 0 0 0 0 222 0 0 0 0 220 0 0 0 0 0 0 0 0 0 0 0 0 0 0 0 240 0 242 243 0 0 244 244 244 244 244 244 244 0 0 0 0 243 0 242 242 242 0 241 0 0 240 0 0 237 237 0 0 0 0 229 227 0 222 218 217 219 0 0 197 0 0 165 161 162 0 0 153 152 0 0 143 0 137 133 133 134 0 0 0 0 126 128 0 0 0 143 147 0 0 151 0 140 0 0 148 0 156 0 0 158 157 157 156 154 152 153 157 0 0 0 145 0 142 141 141 140 144 0 0 159 163 0 164 167 0 0 160 158 0 0 149 145 161 0 0 202 204 0 0 0 207 206 0 0 0 0 181 0 0 194 212 0 0 0 0 235 0 237 237 0 239 0 240 0 241 0 0 242 0 243 0 0 244 244 244 244 244 0 245 0 246 246 246 0 0 0 0 0 0 247 247 247 247 247 247 247 247 0 0 0 0 0 0 0 248 248 248 248 248 248 248 248 248 248 248 248 248 248 248 248 248 248 248 248 248 248 248 248 248 248 248 248 248 248 248 248 248 248 248 248 248 248 248 248 248 248 248 
0 190 187 0 186 185 185 0 0 0 185 0 0 186 186 0 187 0 0 0 0 155 146 0 0 0 133 127 123 119 118 117 117 0 120 0 0 0 0 111 109 0 108 0 0 112 0 113 113 114 0 116 116 118 0 0 112 111 110 110 113 115 116 116 116 116 115 115 0 0 0 0 0 116 116 117 0 0 0 0 0 0 114 115 0 0 0 0 117 0 0 0 0 122 0 0 0 0 0 125 0 0 128 0 129 0 0 134 136 0 0 142 0 146 148 0 151 151 152 0 153 0 0 154 0 0 0 0 153 0 153 152 0 151 151 0 0 150 149 0 149 0 148 0 0 0 145 0 0 0 145 147 0 150 0 0 158 0 0 0 158 156 156 158 160 0 0 161 0 159 0 157 156 156 156 156 0 155 0 155 155 0 0 0 0 156 0 0 0 0 159 0 0 160 161 164 0 0 0 0 0 181 181 181 181 0 180 0 0 0 0 0 0 178 0 0 0 0 0 0 0 0 0 0 0 0 0 0 0 0 0 174 0 171 167 167 169 170 0 172 172 0 173 0 174 173 173 0 170 167 166 0 0 162 162 162 161 161 0 0 0 159 0 156 154 153 153 0 0 153 152 152 0 150 149 148 148 0 0 0 147 147 0 146 0 0 146 0 145 145 0 0 0 145 145 0 145 146 148 0 0 149 0 150 0 0 0 152 152 156 0 164 173 0 0 0 0 0 175 166 165 0 164 164 164 164 0 163 163 0 163 163 0 0 163 163 163 163 163 163 0 163 163 164 166 0 0 0 173 177 181 186 0 0 0 0 195 198 203 0 0 0 0 0 0 0 0 218 0 0 217 0 217 0 216 216 0 0 0 0 0 0 0 0 0 0 214 0 0 213 212 0 0 0 0 0 0 212 0 0 222 225 0 231 0 0 237 0 0 0 0 242 0 243 0 0 0 0 0 243 243 0 242 242 242 0 0 241 0 240 0 0 0 0 237 0 235 0 0 0 0 0 225 0 0 0 0 216 214 0 199 188 0 163 155 158 161 162 156 154 0 0 145 140 0 0 131 132 133 132 132 0 0 127 123 126 142 0 0 139 146 0 148 0 138 0 137 0 0 0 0 0 0 0 155 0 0 0 0 0 0 154 149 144 144 0 142 0 0 145 150 0 0 0 0 162 0 0 0 159 155 154 0 0 149 157 0 0 198 203 0 0 0 203 200 0 191 186 0 181 0 0 192 207 0 0 228 0 231 0 0 235 0 236 0 0 0 239 0 240 0 0 0 242 0 0 243 243 0 0 244 244 0 245 0 0 0 246 246 246 246 0 0 0 0 247 247 247 247 247 247 247 247 247 247 247 0 0 0 0 248 248 248 248 248 248 248 248 248 248 248 248 248 248 248 248 248 248 248 248 248 248 248 248 248 248 248 248 248 248 248 248 248 248 248 248 248 248 248 248 
0 0 0 187 186 185 185 0 0 0 185 185 0 0 186 0 187 187 0 0 0 155 150 0 142 135 130 126 122 120 0 0 119 0 0 0 0 0 111 110 111 0 0 0 0 113 0 0 0 114 115 116 0 0 0 114 110 111 109 110 113 115 117 117 116 117 117 116 0 0 119 0 118 117 0 0 0 121 0 0 0 118 115 114 118 120 119 0 116 0 0 120 122 0 0 0 123 123 123 123 124 126 0 128 129 130 0 134 135 137 0 0 145 146 147 148 150 0 0 0 0 0 153 153 153 154 154 154 0 153 153 0 151 151 151 151 151 150 150 0 149 149 0 0 0 146 146 0 0 0 146 147 0 150 0 154 156 0 0 0 156 156 157 0 0 0 162 0 0 158 0 156 156 0 0 0 154 154 0 155 0 155 156 0 0 156 0 157 157 158 158 159 159 160 162 165 0 0 0 0 181 181 0 0 0 0 0 0 0 0 0 0 0 0 0 0 0 0 0 0 0 171 0 0 0 0 0 0 172 0 0 0 0 0 166 165 166 0 0 173 0 0 173 174 0 174 174 173 171 167 165 163 161 161 161 0 160 0 0 0 0 157 156 0 153 153 154 0 0 155 0 154 0 151 150 149 149 149 149 148 147 0 0 0 147 0 0 146 145 145 146 147 0 146 146 0 0 145 148 0 0 148 0 0 0 152 0 152 152 155 0 161 166 177 188 0 0 0 179 165 0 164 163 0 0 164 0 163 163 0 163 163 163 0 163 163 163 0 0 163 163 163 164 164 167 0 171 173 178 185 188 190 0 0 193 193 197 202 0 0 0 0 0 0 211 211 0 210 210 0 209 209 209 0 208 207 0 207 207 207 207 207 207 207 207 206 205 205 205 204 203 203 203 202 202 202 202 203 207 211 215 0 223 226 0 232 234 236 0 239 0 0 0 0 242 0 0 242 242 0 0 0 0 241 0 0 240 0 0 0 238 0 236 235 234 0 232 231 0 0 0 0 222 0 220 218 215 0 0 0 0 179 0 143 141 155 0 0 0 155 0 0 139 134 0 0 131 0 0 130 128 129 0 0 0 124 125 0 0 0 138 0 0 0 133 132 138 0 0 0 0 152 155 154 153 152 0 0 0 158 0 155 0 148 146 144 142 143 0 146 146 0 0 0 166 161 162 0 0 158 156 152 0 148 148 154 0 188 0 0 0 0 0 0 0 182 172 179 0 0 175 0 189 0 0 222 224 0 226 0 0 0 232 0 234 0 0 0 0 0 0 0 240 240 241 0 0 242 242 0 0 0 0 244 0 245 245 245 245 0 0 246 246 246 0 0 0 0 0 0 0 247 247 247 247 247 247 247 247 0 0 0 248 248 248 248 248 248 248 248 248 248 248 248 248 248 248 248 248 248 248 248 248 248 248 248 248 248 248 248 248 248 248 248 248 248 248 248 248 248 
0 191 188 187 0 0 184 0 183 183 0 185 185 185 0 0 187 187 0 0 0 158 0 0 0 0 0 0 121 119 0 0 120 0 0 117 115 114 113 113 0 0 115 0 113 0 0 0 113 113 115 0 0 0 115 112 112 0 0 113 116 0 0 118 118 0 0 119 119 0 117 117 0 0 0 119 119 121 0 122 0 116 116 117 0 0 0 0 114 114 117 120 0 0 0 0 123 120 122 123 125 0 0 0 127 128 0 0 134 135 140 0 0 146 146 147 0 151 0 152 152 152 153 0 153 0 153 0 0 0 0 0 0 151 151 0 0 0 0 0 150 149 149 0 0 146 146 146 146 146 146 147 148 149 151 153 155 158 0 160 157 156 157 0 0 0 0 0 159 157 0 0 155 155 155 155 0 154 0 155 0 0 0 156 156 156 156 156 157 0 158 158 158 160 162 170 0 0 181 182 0 0 0 0 0 0 172 171 171 171 172 171 171 171 0 169 169 167 167 167 167 166 166 167 167 167 167 167 0 0 169 0 0 0 164 164 165 0 0 0 174 0 0 174 174 0 0 0 0 0 167 163 161 160 160 160 159 0 157 157 157 156 155 154 153 153 0 0 0 0 0 155 0 0 0 149 0 0 0 148 148 0 0 147 0 0 0 0 0 146 0 0 0 146 0 0 145 146 147 0 0 147 0 0 150 150 151 151 152 155 157 159 165 0 181 205 0 0 186 167 164 163 163 163 0 0 163 163 0 162 162 163 163 163 0 0 0 0 162 163 0 164 0 0 167 0 172 176 188 0 0 0 0 0 193 195 201 0 0 0 205 202 203 203 203 203 202 202 202 202 202 202 201 201 200 200 199 199 199 200 200 200 199 199 199 198 198 197 198 197 196 196 196 195 194 195 195 197 199 203 208 214 218 222 225 0 231 0 0 0 0 0 0 240 240 0 0 0 240 240 240 0 0 0 0 0 238 0 237 0 235 0 0 0 0 230 0 226 225 0 220 217 0 216 215 214 212 211 0 0 0 165 141 133 137 0 0 0 0 155 145 0 136 132 132 0 130 130 0 0 127 127 127 0 0 0 118 121 0 0 132 129 132 0 131 134 0 137 141 147 149 151 0 0 0 150 151 0 0 156 0 0 0 0 148 145 0 144 0 146 145 150 0 0 0 0 153 154 156 159 0 156 147 145 144 149 165 0 0 0 0 0 0 0 176 167 176 0 0 0 163 169 179 0 0 216 0 0 0 0 0 0 0 229 0 231 232 0 235 0 236 237 0 0 239 0 240 0 241 0 242 242 0 0 0 0 0 244 244 0 245 245 0 0 0 246 246 246 246 246 0 0 0 0 247 247 247 247 247 247 247 0 0 0 0 0 0 248 248 248 248 248 248 248 248 248 248 248 248 248 248 248 248 248 248 248 248 248 248 248 248 248 248 248 248 248 248 248 248 248 
0 0 189 187 185 184 184 183 183 0 184 0 0 184 185 0 187 0 0 0 171 161 0 0 141 132 0 0 120 120 0 121 119 117 115 113 114 0 0 0 0 0 0 0 113 0 0 113 0 0 0 0 0 0 0 109 111 0 0 0 0 0 0 118 120 0 0 0 119 118 117 117 118 120 0 0 122 121 121 121 0 0 0 118 119 0 0 117 113 114 118 122 0 0 0 0 0 122 122 124 0 128 128 127 126 128 0 0 135 137 0 0 0 147 146 147 0 0 0 0 151 152 0 0 0 0 153 153 0 151 151 152 0 151 150 0 151 151 151 0 0 150 0 148 0 147 146 146 146 146 147 0 0 0 151 0 0 157 0 0 158 156 156 158 0 0 0 160 0 157 156 0 155 154 0 155 0 0 0 155 155 154 155 0 0 0 155 156 0 0 0 157 158 160 163 0 0 0 0 0 0 0 174 169 167 166 166 166 167 167 0 167 167 166 166 166 0 0 165 0 164 163 0 164 164 164 164 164 165 164 164 164 163 162 162 162 163 166 0 0 0 0 0 174 174 0 0 0 0 0 0 0 164 161 160 160 159 158 156 0 156 0 0 154 0 153 152 0 0 0 155 0 0 0 150 149 0 0 149 149 0 148 0 147 146 146 146 0 0 147 0 148 147 145 145 0 145 0 147 147 0 146 147 0 148 150 150 151 153 155 0 159 162 169 178 199 0 0 194 167 163 0 0 0 162 0 0 162 0 0 0 0 0 162 162 162 0 0 162 163 0 0 165 166 167 171 174 185 0 0 0 196 0 194 194 199 0 0 0 204 199 199 199 199 199 199 199 199 199 199 199 199 199 197 198 197 197 197 196 0 197 197 197 197 196 195 195 195 195 194 194 194 194 194 193 193 193 194 196 200 205 0 214 0 222 225 228 0 0 234 235 0 0 0 0 0 0 0 0 0 0 0 237 0 236 236 0 235 0 0 0 0 231 0 0 0 0 222 220 218 215 212 212 213 0 0 210 207 0 0 0 157 136 131 142 0 0 0 173 150 140 138 134 132 0 130 130 128 130 0 126 125 124 126 0 0 122 119 121 0 128 118 124 130 132 0 135 136 142 0 148 0 0 0 0 0 150 0 0 156 0 0 0 0 0 0 0 144 0 0 146 147 157 0 0 0 149 151 0 158 0 0 148 141 140 146 0 0 0 0 0 0 0 172 161 174 0 0 174 169 161 163 170 0 0 0 0 0 0 0 0 0 0 0 0 227 0 0 0 0 0 234 235 0 0 237 0 0 0 0 240 0 241 0 242 242 0 243 0 0 244 244 0 245 245 245 0 0 0 0 246 246 246 0 0 0 247 247 247 247 247 247 247 247 247 247 0 0 0 0 248 248 248 248 248 248 248 248 248 248 248 248 248 248 248 248 248 248 248 248 248 248 248 248 248 248 248 248 248 248 
0 193 190 187 185 184 0 183 182 183 0 184 0 184 185 186 0 0 0 0 0 163 0 0 138 129 126 123 0 0 0 0 122 0 118 0 0 0 114 114 0 0 0 114 113 113 113 113 110 110 111 0 114 0 0 109 111 113 0 0 0 122 0 120 120 0 0 0 0 0 0 119 119 120 0 0 0 122 120 0 120 0 0 0 117 0 0 115 115 0 0 0 125 125 127 0 0 0 122 124 0 0 128 126 126 127 0 0 0 139 0 0 0 0 147 147 149 150 151 151 151 0 152 152 153 153 0 152 152 151 151 0 0 151 151 151 151 150 150 0 151 0 0 149 148 148 0 0 147 147 0 0 0 0 150 152 154 156 158 0 158 155 157 158 0 0 161 160 158 157 0 155 154 0 0 0 0 0 155 155 0 0 0 155 155 155 0 156 0 156 157 157 0 159 164 0 0 183 0 0 0 174 167 165 165 165 0 0 0 166 0 0 165 164 164 163 163 163 163 0 162 0 163 162 0 163 163 163 163 0 161 0 161 161 161 0 162 165 0 0 174 0 0 0 174 174 174 0 175 0 0 0 0 166 163 0 159 158 157 156 155 155 0 154 0 153 152 152 153 0 153 152 151 151 150 149 0 0 0 0 0 0 0 147 147 147 146 146 147 148 0 0 0 0 0 0 0 146 147 148 147 147 147 149 150 150 0 152 154 155 157 158 160 166 180 199 0 0 0 170 162 0 0 0 161 161 0 162 161 162 0 162 0 0 161 162 162 0 0 163 163 0 165 167 0 172 178 0 0 0 200 196 194 195 199 0 0 0 205 199 199 0 0 0 199 199 0 198 198 198 198 0 197 197 0 196 196 196 196 0 0 196 196 196 0 195 0 0 0 0 0 194 193 193 0 0 193 193 195 198 202 0 211 0 0 0 0 227 229 0 0 0 235 0 0 236 236 236 0 235 0 0 0 0 0 0 232 0 0 0 229 0 227 0 225 223 0 0 216 0 211 207 0 0 0 0 0 0 0 0 0 153 136 133 154 0 0 0 0 145 138 0 0 131 130 129 0 131 129 0 125 0 121 124 0 124 124 0 121 121 0 122 122 0 0 137 0 0 0 0 0 0 142 139 145 0 145 150 0 150 153 0 0 0 0 145 0 143 145 0 147 147 0 0 0 155 147 148 0 158 0 0 0 141 139 140 154 0 0 0 0 0 164 159 0 0 0 167 0 165 161 0 161 167 183 188 191 188 189 199 205 211 0 0 0 0 225 226 227 0 0 0 0 0 0 0 235 236 0 237 238 0 0 0 240 0 0 241 242 0 0 243 0 0 244 244 0 245 245 245 0 0 0 246 246 0 0 0 0 0 247 247 247 247 247 247 247 247 247 0 0 0 0 0 0 0 248 248 248 248 248 248 248 248 248 248 248 248 248 248 248 248 248 248 248 248 248 248 248 248 
0 195 191 0 0 185 0 0 0 0 0 0 0 0 185 0 0 0 0 0 0 0 0 0 135 127 122 123 0 0 124 0 0 0 0 0 0 115 114 0 113 115 116 115 114 0 0 0 110 107 108 110 111 112 112 112 111 114 0 121 0 0 0 120 0 0 0 121 121 0 0 0 119 121 0 0 0 0 121 0 0 118 114 113 116 118 117 116 116 120 0 0 0 0 124 124 0 122 0 0 0 129 0 0 127 127 128 131 0 0 0 0 146 0 148 0 149 149 150 151 0 151 151 152 0 152 0 0 152 0 0 0 152 152 0 0 151 150 151 0 0 151 151 150 149 149 0 0 0 0 148 148 0 148 150 0 153 0 0 0 0 157 157 0 160 0 161 0 0 156 155 154 154 154 154 154 154 0 0 0 0 0 0 154 154 0 155 0 156 156 0 158 159 160 169 0 0 182 0 0 0 170 165 0 0 165 0 0 165 164 164 0 163 0 162 162 162 162 0 161 161 0 162 162 162 162 0 0 162 161 160 160 0 0 0 161 162 164 0 172 0 174 174 0 174 0 172 0 0 0 0 0 0 0 0 164 160 158 0 156 156 155 154 153 153 153 153 0 152 151 151 150 149 149 149 149 0 0 149 148 148 148 148 0 147 0 0 147 0 148 0 0 0 146 145 145 0 146 0 0 0 147 147 0 0 150 150 153 156 158 159 158 160 167 182 199 0 0 0 174 162 161 0 161 0 0 161 0 0 161 161 162 0 162 162 0 162 162 163 0 163 165 0 0 171 175 181 0 0 0 197 194 195 199 0 0 0 204 199 198 198 0 198 0 0 0 0 198 0 0 197 0 196 196 196 0 0 196 196 196 196 196 195 0 0 195 0 194 0 0 0 194 193 193 193 192 192 193 194 196 199 0 207 0 214 217 0 0 0 0 0 0 0 232 232 0 0 0 0 0 0 0 230 0 0 0 0 0 0 0 0 0 223 0 0 219 218 0 0 0 0 206 205 0 0 0 199 0 0 0 0 149 134 138 0 0 0 0 0 145 138 135 132 130 0 129 0 0 0 0 124 121 121 0 122 120 122 0 0 117 0 0 125 0 0 0 0 0 138 0 0 138 133 136 0 144 144 147 0 149 147 147 0 145 143 143 0 142 141 0 0 146 154 0 0 155 146 146 147 158 0 0 0 143 141 143 145 165 0 0 0 161 156 0 0 0 159 162 0 159 160 0 157 154 167 0 0 181 179 183 189 0 0 212 215 0 0 222 222 224 225 0 227 0 230 231 0 0 0 0 0 236 237 0 0 239 0 240 0 241 241 0 242 242 0 0 0 0 244 244 0 245 245 245 0 0 246 246 246 0 0 0 0 247 247 247 247 247 247 247 247 0 247 247 247 0 0 0 248 248 248 248 248 248 248 248 248 248 248 248 248 248 248 248 248 248 248 248 248 248 
0 197 193 190 0 185 0 182 181 182 182 183 184 0 0 185 185 0 0 0 0 161 151 0 0 124 121 125 0 0 121 123 0 122 0 118 116 113 113 0 115 116 0 0 0 0 0 0 113 110 0 111 0 113 0 113 114 0 0 122 0 0 120 118 119 121 121 120 120 120 121 120 119 122 0 0 0 121 119 0 0 0 113 114 0 0 118 0 117 0 124 0 0 0 123 122 122 119 121 0 0 0 0 0 130 127 126 128 132 138 0 144 145 147 0 0 150 0 0 151 152 152 0 0 0 0 152 0 152 152 0 0 0 0 0 152 0 151 152 152 152 152 152 0 0 150 0 148 0 0 0 0 0 148 0 0 152 154 157 0 0 0 156 158 0 0 0 0 157 156 155 0 154 154 153 153 0 154 154 154 154 154 0 0 154 0 155 0 0 156 0 0 159 161 0 0 0 181 0 0 0 170 164 164 164 164 0 0 164 163 0 162 161 0 161 161 161 161 161 0 161 0 161 161 0 161 161 161 0 0 160 0 0 160 160 160 161 164 0 0 0 0 0 174 0 172 169 171 0 0 0 175 0 0 0 166 162 159 157 157 0 0 154 154 154 154 0 153 0 150 150 150 149 148 148 148 148 148 0 148 0 0 148 0 147 0 0 148 0 148 0 0 147 146 146 0 145 146 0 0 0 147 148 0 0 150 150 153 0 0 0 159 160 169 181 197 0 0 0 177 163 161 0 160 160 160 0 0 0 0 161 0 162 162 162 162 0 0 163 163 165 166 169 171 172 177 182 193 0 198 194 195 200 0 0 0 205 199 198 197 198 198 198 0 198 198 198 0 197 0 0 0 196 196 196 196 196 0 0 0 196 0 0 195 195 195 0 194 194 0 194 194 0 193 193 193 193 193 193 195 197 200 204 207 0 213 216 0 0 0 225 0 0 0 0 0 0 0 0 0 225 0 0 0 224 0 0 222 0 222 0 0 219 218 217 0 214 0 0 209 0 204 202 198 196 192 192 0 186 181 0 151 131 139 0 0 0 0 0 148 137 133 131 131 0 128 129 0 133 0 0 120 121 0 120 117 119 0 0 118 117 0 0 0 132 134 136 134 138 0 136 133 133 0 0 142 0 0 0 0 0 143 141 140 140 139 139 140 139 0 141 145 0 0 0 0 0 147 143 154 0 0 0 0 139 144 0 157 164 161 155 153 0 0 159 157 159 0 0 157 155 0 0 149 153 0 0 0 0 0 178 180 0 0 0 213 216 0 0 221 222 222 224 225 226 227 0 229 0 0 0 0 0 235 236 0 0 0 0 239 0 240 0 241 0 242 242 0 243 0 0 244 244 244 0 245 245 0 0 0 246 246 0 0 0 0 0 247 247 247 247 247 247 247 247 0 247 0 0 0 0 0 0 248 248 248 248 248 248 248 248 248 248 248 248 248 248 248 248 248 
0 200 0 192 188 185 184 183 182 181 182 183 0 183 0 0 0 184 0 0 0 159 147 140 132 124 0 0 0 121 121 0 0 120 117 114 0 112 112 113 0 0 117 116 118 0 0 0 0 111 0 0 0 0 0 113 116 0 0 0 122 120 0 118 0 0 0 120 120 121 121 120 120 125 0 0 0 121 118 118 119 117 115 115 0 0 0 0 118 120 123 0 0 0 123 123 0 0 121 120 122 0 0 0 0 129 126 128 0 0 0 0 0 147 0 151 151 152 0 0 0 0 152 151 151 151 151 0 0 152 0 151 150 0 0 0 0 153 153 0 0 153 153 0 0 150 0 0 0 0 144 144 145 147 149 0 0 0 0 0 0 157 156 158 0 0 0 158 156 0 155 0 0 0 0 0 0 153 0 153 0 0 154 0 154 154 0 155 155 0 156 0 159 161 0 0 0 0 0 0 0 167 163 0 0 163 163 0 0 162 161 161 160 161 0 160 160 160 0 160 160 0 160 0 160 0 0 160 160 159 160 160 0 159 159 159 161 164 0 0 0 0 0 0 0 0 167 170 172 0 0 0 175 0 0 0 162 159 159 0 0 157 155 156 155 155 155 0 151 151 0 0 149 148 0 147 147 148 148 149 0 0 0 147 0 147 148 0 0 0 149 0 0 0 146 0 146 148 0 0 0 148 149 150 150 0 150 152 0 0 0 159 161 169 180 195 0 0 0 181 163 0 0 159 159 160 160 160 161 0 0 0 162 162 162 162 0 163 163 164 166 0 170 172 175 180 185 191 194 195 195 199 0 0 0 206 199 198 198 198 198 0 0 0 197 197 0 0 197 197 0 0 196 0 0 195 195 0 195 0 0 0 195 195 0 0 0 0 194 0 0 194 193 0 0 193 0 0 194 194 195 198 0 0 0 209 0 0 216 0 220 0 222 0 0 222 222 0 0 0 0 0 217 0 217 217 217 0 216 216 216 216 215 0 0 0 0 0 207 205 204 0 0 0 190 176 179 0 178 176 0 154 136 139 0 0 0 0 0 153 138 133 132 0 129 128 128 0 0 0 0 124 124 0 121 118 117 119 0 0 115 117 0 0 132 134 0 0 0 132 133 0 133 136 0 0 0 0 0 0 0 0 0 138 0 0 139 0 137 137 139 143 0 0 153 0 0 147 144 147 153 0 0 0 140 140 0 0 149 148 150 151 153 152 154 0 0 161 0 0 157 0 0 150 140 153 164 165 167 0 0 0 171 182 0 0 0 214 217 0 220 220 221 222 222 223 0 225 0 0 0 0 0 0 0 0 234 235 236 0 0 238 0 0 0 240 0 0 0 242 0 243 243 0 0 244 244 0 245 245 245 0 0 246 246 246 0 0 0 0 247 247 247 247 247 247 247 247 247 0 247 247 0 0 0 0 248 248 248 248 248 248 248 248 248 248 248 248 248 248 
0 0 199 0 190 186 185 0 0 182 0 183 0 182 182 0 0 184 0 0 0 159 146 137 130 124 0 0 0 121 123 0 0 115 115 115 0 113 0 0 0 117 117 117 118 120 0 117 0 113 0 0 114 113 112 112 117 0 0 0 0 0 118 119 0 0 0 120 120 123 0 0 0 0 0 0 0 120 118 119 120 119 118 117 0 0 0 0 0 0 0 0 0 0 120 0 0 0 123 119 119 120 126 0 0 0 128 127 128 131 135 0 143 0 0 0 0 0 0 153 0 152 152 0 0 0 151 0 0 0 0 150 149 150 152 153 0 0 0 0 0 154 153 0 0 0 0 0 0 139 0 0 0 0 0 0 0 0 0 0 0 157 155 0 0 160 159 157 156 0 154 0 153 0 0 153 0 0 153 153 0 153 153 153 0 154 0 0 155 155 156 157 158 161 166 0 0 0 0 0 0 164 163 163 163 162 162 162 161 161 160 160 0 0 0 0 159 0 0 0 0 0 159 0 160 160 0 160 0 159 0 0 159 159 0 159 0 162 165 0 167 167 0 0 0 0 166 0 0 0 0 0 0 0 0 167 163 162 0 0 159 156 157 159 160 160 158 154 152 151 0 150 149 0 148 148 0 148 149 0 150 0 148 148 0 147 148 0 149 149 149 0 0 146 146 147 0 149 150 151 0 149 149 150 150 150 149 150 157 0 160 158 159 165 178 195 0 0 0 185 163 161 160 0 160 160 160 160 0 161 161 161 162 0 0 162 0 163 164 165 167 0 171 175 0 183 0 0 195 196 200 0 0 0 208 202 200 200 0 199 198 198 197 197 0 197 196 196 197 197 0 196 196 196 0 195 0 0 195 195 0 195 195 195 195 194 195 195 195 195 195 194 193 0 0 193 0 194 0 194 195 196 198 199 202 0 0 208 0 0 214 0 0 0 0 0 0 214 213 0 212 211 211 0 210 210 0 0 211 211 0 0 0 209 207 206 0 0 0 201 201 0 0 0 0 172 174 176 173 174 0 154 138 136 0 0 0 0 0 0 147 137 0 0 128 125 126 0 0 129 0 130 128 0 0 0 116 116 121 0 120 121 0 0 131 0 0 0 131 130 0 130 130 0 0 0 0 0 0 0 134 134 0 136 0 0 0 0 136 136 139 142 0 147 147 0 146 0 0 146 148 0 150 0 141 136 141 0 142 0 0 0 149 0 154 156 0 0 151 0 0 0 0 0 138 140 147 147 149 150 153 156 157 159 171 0 0 0 0 0 0 0 0 220 220 221 221 222 222 224 0 225 0 0 229 230 0 232 0 234 0 0 236 0 0 238 0 0 240 0 0 0 242 242 0 0 0 0 244 244 0 0 245 245 245 0 246 246 246 0 0 0 0 0 0 0 0 247 247 247 247 247 247 247 247 0 0 0 248 248 248 248 248 248 248 248 248 248 248 248 
0 0 200 197 193 189 186 185 0 183 0 183 182 182 181 182 0 0 0 0 0 163 0 0 0 123 121 124 123 121 0 0 120 116 0 0 0 111 113 0 0 116 0 0 0 0 0 0 112 0 0 0 114 0 0 0 0 0 122 0 0 0 117 117 119 121 122 122 0 0 0 0 0 0 0 0 118 118 0 0 0 0 0 0 0 0 114 113 0 0 115 0 0 0 112 117 0 0 0 0 121 122 126 0 0 0 132 130 129 130 132 137 142 146 0 0 0 0 0 0 151 151 0 0 151 0 0 0 0 0 151 150 149 151 0 0 0 155 0 0 155 155 154 0 0 0 0 135 133 133 134 0 0 0 0 0 143 0 0 0 0 157 155 157 0 0 158 0 0 0 154 0 0 153 153 153 153 153 153 0 0 0 0 153 0 154 0 154 0 0 0 0 159 160 162 165 165 166 169 167 164 162 162 0 0 161 161 0 160 0 159 160 0 160 159 159 0 159 159 159 159 0 159 0 0 159 0 0 159 159 159 0 159 159 0 158 159 160 162 163 163 164 164 165 166 165 164 0 0 167 167 170 0 174 0 169 165 0 0 0 158 157 0 0 0 0 0 154 0 151 0 149 149 0 148 148 0 148 0 0 150 149 149 149 148 147 148 148 149 149 149 0 149 147 146 147 0 0 150 0 0 151 150 0 151 150 150 150 153 156 158 158 161 164 175 190 0 0 0 191 164 160 160 0 160 160 0 0 0 161 161 161 162 0 0 162 163 0 165 166 167 171 174 0 181 185 0 0 196 201 0 0 0 210 205 203 0 0 0 0 0 198 198 198 0 197 0 0 0 0 0 196 0 196 195 0 196 195 195 196 196 196 196 196 196 196 197 0 198 0 197 196 195 194 194 194 194 194 0 0 195 195 196 196 0 200 201 203 205 0 207 0 208 208 208 207 207 0 206 0 205 205 0 204 204 0 204 205 0 206 206 0 0 204 202 200 200 201 199 198 199 199 0 0 184 173 0 174 175 0 0 159 142 133 145 162 0 0 0 0 0 0 0 0 127 123 0 124 124 126 0 0 134 130 126 117 0 0 118 0 0 120 121 125 130 0 134 132 129 126 129 129 0 0 0 0 129 128 128 125 127 130 133 0 0 134 134 134 0 0 138 140 143 142 0 0 142 143 0 145 145 0 0 0 0 134 131 133 135 139 144 0 0 0 150 151 0 149 143 143 147 149 0 0 140 136 140 142 143 145 0 0 149 148 151 167 0 0 207 0 0 218 218 218 0 0 220 220 220 220 221 222 222 223 0 226 227 0 0 0 0 0 233 234 0 0 236 237 0 0 0 240 0 0 0 242 242 0 243 0 0 244 244 0 0 0 245 0 0 0 246 246 246 246 0 246 0 0 247 247 247 247 247 247 247 247 247 0 0 0 248 248 248 248 248 248 248 248 248 248 
0 0 0 199 0 0 188 185 184 183 0 0 182 182 182 182 183 0 0 0 0 0 0 141 131 127 0 0 121 121 0 0 118 114 114 0 110 109 111 0 115 114 0 0 0 117 116 113 112 113 113 113 113 115 0 0 0 0 119 119 0 0 114 115 0 0 0 124 0 0 122 119 118 119 118 114 112 0 0 0 0 0 0 0 0 0 110 107 106 106 108 113 113 109 106 114 0 123 124 0 0 0 125 0 0 0 0 0 0 132 134 138 142 0 0 0 0 0 0 0 151 150 0 0 0 0 150 150 150 150 151 0 151 0 153 154 155 155 156 0 0 0 0 0 0 141 135 130 127 128 130 0 0 132 0 132 132 136 142 0 157 158 157 157 159 159 0 156 155 154 153 152 153 153 153 153 0 0 0 0 153 0 0 153 153 0 154 154 154 155 156 157 159 0 0 0 0 166 0 164 162 161 160 0 161 0 160 0 0 159 159 0 0 159 158 159 159 0 0 158 0 159 0 159 159 158 0 0 158 158 158 0 159 159 0 158 159 160 162 0 162 162 162 162 162 161 161 164 164 164 167 0 0 0 0 0 0 165 163 161 159 158 0 0 0 0 0 152 151 150 150 149 0 149 148 0 0 147 0 0 150 151 0 151 149 148 0 0 149 0 151 151 151 148 0 147 148 0 149 151 0 0 152 0 0 151 150 150 150 0 0 0 0 164 172 183 0 0 0 0 167 160 0 159 0 159 160 160 160 161 161 0 162 162 0 163 0 0 166 166 170 0 177 180 183 188 192 197 202 0 0 0 211 207 205 203 202 0 201 200 199 0 0 0 0 197 197 196 196 196 196 196 196 196 196 196 197 197 0 198 198 198 198 198 199 0 0 0 201 0 0 0 0 0 195 0 0 194 194 0 195 195 195 195 195 197 198 199 199 200 201 201 200 201 200 200 200 200 199 199 199 199 199 198 199 199 199 0 200 200 0 0 201 199 199 199 0 0 198 195 0 0 0 0 173 170 0 174 0 0 0 0 0 142 145 0 160 156 152 151 147 139 131 129 0 120 120 0 120 124 128 0 0 138 0 119 117 114 115 0 0 121 121 0 0 0 0 0 124 126 0 0 0 123 125 126 122 0 0 120 0 128 130 0 0 0 131 129 130 0 136 138 0 0 0 141 140 0 0 0 141 139 137 135 0 0 129 128 129 131 136 145 0 0 0 144 0 141 137 139 0 0 146 0 0 137 136 137 137 139 141 141 143 0 144 149 166 0 0 0 0 216 0 217 0 0 218 0 0 0 0 220 220 220 221 222 0 0 225 0 227 0 0 0 0 232 0 234 235 236 0 0 238 0 0 240 0 0 0 242 242 0 0 0 0 244 244 244 0 245 245 0 0 0 0 246 246 0 0 0 0 0 0 247 247 247 247 247 247 0 0 248 248 248 248 248 248 248 248 248 
207 0 0 202 198 0 190 186 185 184 183 0 183 182 0 182 0 0 182 0 0 0 0 138 131 0 0 124 120 122 0 0 118 114 113 111 109 111 112 0 0 0 0 113 114 114 0 115 114 113 0 115 115 116 118 0 0 118 116 115 115 115 113 115 120 0 124 124 124 0 117 114 114 0 114 111 111 112 113 0 0 0 0 0 111 109 106 106 107 110 112 115 116 116 115 117 0 123 0 0 124 122 123 127 0 0 0 0 0 0 0 0 0 0 0 0 0 0 0 0 0 0 149 0 0 149 149 149 149 0 151 0 0 152 153 0 0 156 0 0 0 0 0 0 0 0 132 129 125 126 126 124 122 121 124 124 124 126 133 147 0 0 0 0 0 158 0 155 0 0 153 0 0 0 0 0 153 153 153 153 153 153 153 153 153 153 0 154 0 0 155 0 158 0 0 0 0 0 0 163 161 160 159 0 160 0 159 0 0 0 158 0 158 158 0 0 158 158 0 0 158 0 0 0 0 0 0 157 0 158 158 0 0 0 0 158 158 161 0 0 163 161 0 0 0 0 160 161 162 164 0 0 0 0 0 0 0 165 163 161 0 158 158 158 158 157 154 153 151 151 0 0 0 0 148 147 147 147 147 0 150 0 0 0 0 0 0 149 149 0 0 0 0 150 148 148 149 0 150 151 0 153 153 0 153 152 152 150 150 153 0 157 162 167 172 181 0 0 0 0 170 159 159 159 0 0 159 160 0 0 162 0 0 162 0 163 164 165 167 170 173 177 0 182 185 190 196 204 0 0 0 212 207 207 0 204 203 202 201 0 199 199 199 199 0 0 197 0 0 196 196 0 197 197 198 199 199 201 201 200 201 200 200 201 202 0 0 0 0 0 202 201 0 0 0 195 194 0 0 195 195 195 195 195 195 195 196 195 196 196 196 196 197 197 197 196 196 197 197 196 196 197 197 197 197 197 198 0 196 196 199 199 198 198 0 0 0 0 0 195 0 0 0 0 163 166 0 173 0 0 0 0 0 148 145 0 0 151 145 144 0 0 0 128 0 119 117 0 118 120 127 0 0 0 0 133 121 114 115 123 0 123 124 0 0 0 125 122 121 0 0 121 120 122 125 0 121 0 0 120 123 126 0 0 129 128 0 128 0 0 0 136 0 0 0 136 136 0 0 0 138 0 135 131 131 0 129 127 129 131 135 0 0 139 137 138 0 136 136 139 0 0 142 142 0 0 137 0 0 0 152 144 139 137 140 141 147 166 0 0 0 0 0 216 216 216 216 217 217 218 218 218 0 0 0 220 220 221 222 222 223 0 226 227 0 229 0 0 0 0 0 0 235 236 237 0 0 0 0 240 0 241 0 242 0 243 0 0 0 244 244 0 245 245 245 0 0 246 246 246 246 246 0 0 247 247 247 247 247 247 0 0 248 248 248 248 248 248 248 248 
0 0 0 0 201 197 0 0 187 184 183 0 0 183 0 182 182 182 0 0 0 156 141 132 127 128 0 123 120 0 0 0 0 113 0 0 0 0 113 114 0 111 110 109 112 0 0 0 0 115 0 0 0 118 0 120 118 117 116 0 116 116 117 118 0 0 0 0 0 0 116 114 114 0 113 113 113 111 109 107 107 106 104 105 108 113 0 0 0 0 0 0 0 0 0 0 0 0 0 0 0 0 0 0 0 0 0 0 0 0 0 0 0 0 0 0 0 0 0 0 0 0 0 0 0 0 0 0 0 0 150 0 0 0 0 0 0 0 0 0 0 0 145 138 135 133 130 128 126 125 124 120 117 118 121 122 121 121 129 146 0 0 0 0 161 156 0 155 154 0 153 0 0 152 152 0 152 152 0 152 0 0 153 0 153 153 153 153 0 154 155 156 0 159 160 161 162 0 0 162 0 158 158 159 0 158 158 0 157 0 158 158 0 157 0 158 0 157 157 156 157 0 157 158 0 157 157 157 0 157 158 0 0 158 158 158 0 160 0 0 162 160 0 159 159 0 160 160 161 162 0 167 0 0 0 0 0 165 163 161 159 157 156 155 155 155 154 0 152 151 0 0 149 0 0 147 147 0 147 147 149 151 0 0 0 0 0 148 148 0 0 0 0 150 148 149 0 0 149 151 0 154 156 0 155 155 0 154 150 151 155 157 162 0 175 182 0 202 0 0 171 160 159 0 0 160 160 160 161 0 0 0 0 0 163 163 164 166 169 173 177 181 183 185 190 197 206 0 0 0 213 208 208 0 0 0 0 0 201 0 200 0 0 199 198 198 0 0 197 0 196 198 0 0 201 0 0 0 0 0 0 204 0 0 205 0 0 205 0 0 0 0 0 0 198 196 195 195 0 195 195 0 0 195 195 195 0 195 195 0 196 195 196 196 196 196 196 196 196 196 196 196 0 196 0 0 197 0 196 196 0 0 196 195 197 195 195 195 0 193 194 0 0 0 157 161 0 0 0 0 166 161 0 147 145 0 0 0 0 0 0 133 0 0 0 118 115 115 116 118 0 0 138 0 0 0 0 125 0 0 0 0 126 0 0 120 119 120 120 0 119 118 122 0 0 0 0 0 118 118 120 0 0 0 124 124 0 129 130 0 132 132 134 137 136 132 131 132 133 132 134 0 0 131 128 0 129 129 0 0 0 0 131 130 131 0 0 134 0 137 137 139 139 139 138 0 138 0 0 0 0 0 0 148 140 137 141 150 167 0 0 0 0 215 0 215 0 0 0 216 0 217 217 0 218 0 219 0 220 220 220 0 222 223 0 225 0 227 0 229 230 231 232 233 234 0 236 237 0 238 0 0 240 0 241 0 242 242 0 243 0 0 0 244 244 0 245 245 0 0 0 246 246 0 0 0 247 247 247 247 247 0 248 248 248 248 248 248 248 248 
206 0 206 0 0 199 195 0 188 185 184 184 184 0 183 0 0 182 181 0 0 158 141 132 128 0 0 0 120 119 121 0 0 111 110 110 0 0 0 0 0 112 110 110 112 0 0 115 113 0 0 0 0 121 0 0 0 116 116 117 118 0 121 121 123 0 0 0 118 116 116 116 116 114 116 122 127 128 128 125 119 112 110 114 0 0 0 114 112 113 113 114 115 115 116 114 113 113 113 113 113 115 117 117 117 117 116 117 120 122 125 128 129 130 129 127 127 129 130 131 134 137 136 137 138 140 0 0 0 0 0 0 0 0 0 0 0 0 0 0 0 0 0 0 0 0 0 0 0 0 0 0 0 0 0 134 136 134 138 0 0 159 0 0 161 156 155 154 154 0 153 152 152 152 152 152 0 0 0 0 152 0 152 0 0 153 153 0 0 0 154 155 156 157 158 159 159 0 0 0 0 158 0 0 0 158 157 157 0 157 0 0 0 157 157 157 157 0 0 156 156 157 157 157 157 156 0 0 0 0 158 0 158 158 157 0 158 159 0 0 161 159 159 158 0 159 159 160 0 161 161 162 162 161 161 162 163 163 0 162 159 157 0 0 154 154 154 0 0 0 0 0 0 148 147 0 146 0 146 146 147 148 150 0 150 150 150 0 148 151 0 155 153 151 149 0 0 0 151 152 154 155 157 0 159 163 0 0 156 153 0 158 162 0 176 184 0 199 0 0 171 160 0 159 0 160 160 0 0 162 162 162 162 163 163 164 166 170 0 177 0 0 187 192 199 208 0 0 0 212 210 209 208 0 0 0 204 0 0 200 0 200 0 199 198 198 198 198 197 197 198 200 202 0 0 0 207 208 0 0 208 0 0 207 207 207 0 0 206 205 0 0 202 0 199 0 196 195 195 195 195 195 0 0 195 0 195 195 0 0 196 0 0 196 0 196 196 196 196 0 0 196 196 196 196 0 196 196 0 196 0 0 0 0 0 0 194 194 0 192 191 0 0 0 154 153 0 0 0 0 0 0 148 145 0 0 0 141 138 136 132 129 127 126 123 117 115 114 115 122 0 0 136 143 0 0 0 131 0 0 124 0 123 0 0 120 117 118 0 0 117 0 0 0 119 117 116 115 114 116 118 0 120 120 123 127 0 0 129 130 132 0 132 0 0 132 0 131 131 132 132 133 0 132 128 0 128 0 0 0 130 127 126 127 130 0 0 134 0 0 134 135 137 0 135 136 136 140 148 154 159 163 0 0 0 0 137 143 153 171 0 0 0 214 0 215 215 0 216 216 216 216 216 0 216 217 218 0 218 0 219 0 220 220 221 222 223 224 0 0 0 0 0 0 0 0 0 234 235 236 0 237 0 0 0 0 240 0 241 0 242 242 0 0 243 0 0 244 244 0 245 0 0 246 246 0 0 247 247 247 247 0 0 0 248 248 248 248 248 248 
206 0 206 206 0 0 197 0 0 0 185 184 183 0 183 182 0 0 0 0 0 0 147 138 131 128 125 122 119 118 0 0 112 107 107 109 110 0 0 0 113 0 111 0 112 113 114 113 114 115 116 118 0 0 0 0 0 117 115 0 0 0 0 0 0 0 121 117 113 115 0 0 119 123 136 0 0 0 0 0 0 0 0 127 117 111 109 110 114 0 0 0 0 0 0 0 0 0 0 116 114 0 0 119 0 0 0 0 0 128 132 0 0 0 0 0 0 0 138 137 136 136 136 135 134 132 131 132 132 133 133 134 133 135 138 139 140 141 142 141 137 134 0 0 0 0 0 0 0 0 0 0 0 0 0 0 0 0 0 0 0 149 0 0 0 156 0 0 0 153 0 152 152 152 0 152 0 0 0 0 152 0 152 152 0 0 153 0 154 154 154 0 0 157 157 0 157 159 0 159 158 158 158 157 158 0 0 156 156 156 0 0 0 156 157 0 0 0 0 156 0 0 0 0 156 0 0 157 157 157 157 0 158 0 0 157 157 158 0 0 159 0 0 158 158 158 0 0 160 0 0 160 0 160 0 161 161 162 0 0 160 0 0 156 155 154 0 153 153 152 0 0 149 0 147 0 146 146 146 146 146 147 0 148 148 148 149 149 148 148 149 152 0 0 149 149 149 151 155 0 156 156 157 0 164 0 0 0 0 153 154 158 162 167 176 187 0 199 0 0 175 159 159 158 159 0 160 161 0 162 162 162 0 0 165 166 171 175 178 183 0 0 196 202 0 0 0 0 215 211 210 0 0 0 0 0 204 0 0 0 200 200 0 0 0 0 0 0 199 199 200 202 0 206 207 208 209 0 0 211 0 0 210 0 0 208 207 207 0 0 205 0 203 0 200 0 196 195 195 195 195 0 0 195 195 0 195 195 195 196 0 0 196 0 0 0 0 196 196 196 0 196 0 196 195 196 0 195 0 0 195 196 0 195 0 0 0 194 0 192 191 188 0 172 152 145 146 150 152 152 148 143 139 141 0 137 136 0 0 132 129 0 0 0 0 119 118 121 0 130 0 140 139 0 145 0 141 134 132 128 126 0 124 121 0 120 0 116 119 0 122 0 0 116 115 0 113 0 0 113 114 116 118 119 125 0 0 128 125 128 0 0 132 0 0 130 129 130 0 0 130 131 0 0 128 0 127 127 128 128 126 126 124 124 130 0 136 134 0 134 134 0 0 134 135 134 134 133 146 0 0 162 158 0 0 0 145 139 142 155 0 0 0 0 214 0 0 215 0 215 215 0 0 0 216 216 216 0 0 217 217 217 0 0 0 220 220 221 221 222 222 224 225 225 227 0 0 0 0 0 0 234 235 236 0 0 238 0 239 0 240 0 241 0 0 242 0 243 0 0 244 0 245 0 246 246 0 0 247 247 247 247 247 0 0 248 248 248 248 248 
0 0 0 206 0 0 0 195 0 0 187 185 183 183 0 182 0 0 182 0 0 0 153 140 133 128 0 0 0 0 117 0 112 109 108 0 0 110 111 112 113 113 112 0 0 0 0 0 0 0 116 116 120 0 0 0 0 0 113 115 119 0 0 0 0 120 117 113 113 0 118 120 131 0 0 0 0 0 0 0 0 0 0 0 130 122 118 116 118 120 0 0 0 131 130 130 0 0 0 0 117 116 0 0 0 0 0 128 0 0 0 0 0 0 0 0 0 0 0 0 0 0 0 0 0 0 0 0 0 0 0 0 0 0 142 140 139 136 134 129 125 123 124 122 122 123 127 126 122 121 123 124 123 124 125 128 131 135 136 138 135 136 148 0 0 155 154 154 153 153 152 152 0 152 0 152 152 152 0 0 0 152 0 152 0 152 153 0 154 154 154 0 0 0 157 0 157 157 158 158 0 157 0 0 0 157 156 156 156 156 156 155 156 0 0 0 155 154 155 155 156 156 155 156 155 156 156 156 157 0 157 0 0 157 0 157 157 158 0 0 158 158 158 157 158 157 158 0 159 158 0 159 159 0 0 0 160 161 0 162 0 0 0 157 155 154 154 153 0 152 150 0 147 147 146 0 0 145 0 146 146 146 146 146 146 148 0 0 0 150 150 0 0 152 150 149 150 153 0 0 0 0 159 161 0 0 0 162 154 152 154 0 162 166 175 190 0 203 206 0 178 159 159 0 158 160 0 161 0 162 0 162 163 164 167 171 0 0 183 0 194 199 206 0 0 0 0 216 214 211 209 0 0 207 0 0 203 202 201 201 200 200 199 199 199 199 199 199 201 202 203 0 0 0 0 0 0 212 0 0 0 0 211 0 0 0 208 207 0 206 0 0 203 202 0 0 196 195 195 195 195 0 0 0 195 0 0 0 0 196 196 0 196 196 196 0 0 0 196 196 196 196 196 0 0 0 0 195 0 0 195 0 0 192 194 0 194 194 0 0 193 0 0 176 155 143 139 143 147 149 145 143 141 139 135 131 130 130 0 0 0 0 0 121 121 0 0 0 0 0 0 144 143 0 0 0 0 135 0 0 128 0 0 120 0 119 115 116 0 0 0 0 116 115 115 0 115 0 112 111 113 0 0 0 0 0 0 127 126 130 0 0 135 0 133 129 129 130 0 132 131 130 0 0 128 127 0 126 126 0 127 0 124 123 129 0 135 134 134 133 132 134 0 133 0 134 0 132 141 0 0 167 156 152 155 0 0 145 134 143 163 0 0 0 214 214 213 214 0 214 214 0 215 215 0 0 0 216 216 216 216 216 217 218 218 219 0 0 220 220 220 221 222 222 0 0 225 227 0 229 0 231 0 0 234 0 235 236 0 237 0 0 0 0 240 0 0 0 242 0 243 0 244 245 0 246 246 0 0 247 247 247 247 247 0 248 248 248 248 248 
207 207 0 0 0 0 0 199 194 0 0 186 182 182 0 182 182 0 0 0 0 0 157 141 133 127 122 121 0 0 0 113 112 0 0 106 105 0 109 110 0 0 0 0 113 0 0 0 0 0 0 116 118 0 0 0 119 116 113 116 0 0 0 0 122 117 114 114 116 119 123 135 0 0 0 0 0 0 159 155 151 0 0 0 0 0 130 125 121 122 128 0 0 136 135 136 135 134 132 130 123 118 119 121 122 126 127 131 135 139 142 0 0 149 0 0 0 150 150 150 150 0 149 0 0 149 0 0 0 0 0 0 0 0 0 0 0 0 0 134 0 0 128 0 127 0 130 131 132 134 0 134 131 127 124 121 121 129 129 127 126 132 144 0 0 154 154 0 153 0 0 152 151 151 0 152 151 152 152 152 152 152 152 152 152 152 0 0 0 154 0 0 156 156 0 156 156 0 0 157 157 157 0 0 0 156 0 0 0 0 155 0 0 156 155 155 155 155 0 0 156 0 0 0 155 0 156 0 0 0 0 157 0 157 157 157 156 0 0 157 0 0 0 0 0 0 0 0 0 157 0 157 158 0 159 0 0 161 161 161 0 0 0 0 156 155 0 154 0 0 151 0 148 147 147 147 0 146 0 0 0 0 146 146 0 0 149 0 0 0 150 0 152 151 0 152 153 155 0 158 157 0 159 0 0 0 0 157 152 152 155 0 0 166 174 190 0 0 204 0 181 160 159 0 0 0 161 161 0 162 0 163 163 165 169 175 0 0 189 194 201 0 0 0 0 0 217 215 0 0 208 208 208 207 206 204 202 201 201 202 202 202 201 201 202 202 203 202 204 205 206 207 209 212 212 213 212 214 214 214 0 212 0 212 0 0 208 207 207 0 205 0 0 202 0 198 196 195 195 195 0 0 0 195 0 196 196 196 196 196 196 196 196 196 196 196 196 0 0 196 196 0 195 0 196 196 0 195 0 195 195 0 193 192 0 0 0 195 0 0 0 0 0 0 174 156 146 144 145 150 0 0 0 0 142 135 129 125 122 121 119 117 115 113 118 0 122 118 126 140 0 0 145 0 145 0 0 137 133 0 0 0 125 121 0 119 115 0 0 0 0 116 111 112 114 0 0 112 111 110 111 117 121 0 0 125 0 130 129 0 0 139 0 0 133 130 130 130 0 0 0 129 129 0 129 0 0 124 123 0 0 0 124 123 129 0 0 0 0 0 132 0 0 134 0 134 0 134 135 0 0 0 0 167 154 149 0 0 136 139 153 0 0 0 0 0 213 213 0 214 214 214 214 0 215 215 214 0 215 0 0 216 0 0 217 0 0 0 0 219 219 220 0 221 221 221 222 223 0 225 0 227 228 0 0 0 0 0 234 0 235 236 237 0 238 0 0 0 240 0 0 0 0 244 245 0 246 246 0 0 247 247 247 0 0 248 248 248 248 248 
207 207 207 207 0 0 0 0 198 194 0 0 186 183 182 182 182 0 183 0 0 0 0 148 135 127 121 119 117 115 114 114 0 0 109 107 106 105 107 109 0 0 112 0 0 111 0 112 112 112 114 0 0 0 0 0 0 0 114 0 120 0 0 0 121 116 115 0 118 119 134 0 0 0 0 165 161 157 154 150 144 137 134 138 0 0 0 0 131 129 0 0 0 0 0 0 0 0 0 0 0 0 130 126 127 130 131 135 140 0 0 0 0 151 0 152 0 0 0 0 0 0 151 151 0 0 0 0 0 149 149 149 149 149 148 146 145 141 138 0 0 0 132 0 133 0 0 0 0 0 0 0 0 0 0 0 0 0 0 0 135 139 146 0 0 0 154 0 153 152 0 152 0 151 0 0 0 0 0 152 0 0 0 152 152 152 0 152 152 154 155 156 0 0 0 0 155 155 156 0 0 156 156 155 0 155 155 155 0 0 0 155 0 0 155 0 0 0 155 0 0 0 156 156 0 156 156 156 157 157 0 157 157 157 157 157 157 157 157 156 156 157 0 0 0 0 156 0 0 0 0 156 0 0 157 157 158 161 0 161 160 159 158 0 157 156 155 0 154 0 151 149 148 0 0 147 0 146 145 145 145 0 0 0 146 147 148 149 150 150 0 0 0 152 0 153 0 0 157 156 155 155 157 0 0 0 160 155 153 154 0 158 160 165 174 190 0 207 203 0 185 160 0 160 160 161 0 0 162 0 163 0 165 167 172 180 0 190 194 200 0 0 0 0 0 216 215 214 212 210 208 210 211 212 212 213 214 216 216 218 0 0 0 0 0 0 0 0 0 220 220 220 220 221 220 220 219 219 218 216 215 214 214 212 212 211 210 0 0 0 205 205 204 202 199 0 196 195 195 195 0 196 196 196 196 0 196 196 196 196 0 196 0 0 196 0 195 195 196 0 0 196 195 0 196 0 196 0 0 0 195 0 192 191 193 194 194 195 0 0 0 0 0 0 0 0 0 0 149 153 161 162 0 0 0 0 0 130 126 122 120 117 116 116 0 0 117 121 0 0 0 0 145 0 140 0 0 138 133 132 0 0 124 122 120 120 0 0 116 0 0 113 110 111 0 0 114 110 110 110 113 0 122 0 127 124 0 0 131 135 138 0 0 135 132 131 130 0 130 0 0 128 127 0 0 128 0 0 124 126 0 0 123 123 0 0 133 0 0 0 131 0 0 134 132 132 0 0 132 148 0 0 0 0 0 154 143 0 141 142 148 163 0 0 0 0 0 213 213 0 214 0 214 214 0 214 214 214 214 0 215 0 0 216 216 216 217 217 0 0 218 0 0 219 0 220 220 221 222 222 222 0 224 225 0 0 229 0 0 0 232 0 234 0 0 236 237 0 238 239 240 0 242 0 244 245 0 246 246 0 0 247 247 0 248 248 248 248 248 248 
0 0 207 0 0 206 206 0 0 196 192 0 0 185 182 182 0 183 183 0 0 0 0 0 137 127 125 0 119 113 113 0 0 111 109 107 0 105 0 0 0 0 109 109 109 108 0 0 0 0 113 113 0 117 118 119 119 0 116 116 118 124 0 0 123 119 118 0 116 125 0 0 0 0 164 160 156 156 0 0 0 134 123 125 136 0 0 0 0 135 135 138 0 0 0 0 0 0 0 0 0 0 0 0 0 0 0 0 0 0 150 0 0 0 153 153 0 154 154 154 0 154 153 0 0 0 152 152 0 151 151 0 0 0 148 0 0 0 141 140 139 138 0 0 0 138 0 140 144 0 0 0 142 136 134 134 145 0 0 146 0 0 148 152 0 0 153 153 0 152 0 151 0 0 0 0 0 151 151 0 0 152 152 152 152 0 0 152 153 0 0 0 0 0 0 155 0 0 155 155 155 155 0 155 0 155 154 154 0 155 155 155 155 0 155 0 0 0 0 155 155 155 0 0 0 156 0 0 0 0 0 0 157 0 0 157 0 157 0 156 156 156 0 156 156 156 155 0 155 155 154 154 153 154 155 156 158 161 0 162 159 159 0 158 0 0 0 0 154 0 150 149 148 148 148 148 0 147 146 146 0 145 145 145 145 146 147 0 149 0 150 151 0 152 0 154 0 0 0 0 0 157 158 0 0 159 155 154 153 0 0 0 160 162 172 203 0 217 207 0 0 161 159 160 0 0 0 161 162 163 163 164 166 172 0 186 0 195 202 0 0 0 0 219 218 216 216 216 216 217 0 0 0 0 0 0 0 0 0 0 0 0 0 0 0 0 0 0 0 0 0 0 0 0 0 0 0 0 0 0 0 222 220 216 214 212 212 210 209 207 207 0 0 0 199 197 196 195 0 196 196 196 196 0 196 0 0 196 196 196 196 196 196 196 196 0 196 0 196 0 0 196 0 0 195 196 196 0 0 0 195 0 193 191 0 0 0 194 194 194 191 189 0 194 0 0 0 0 163 0 0 0 164 0 0 149 142 0 0 130 127 125 0 0 0 0 119 125 0 0 0 0 139 138 135 137 0 0 0 130 0 0 123 0 121 0 0 115 112 0 0 114 111 0 0 0 0 112 0 111 114 0 122 0 127 129 0 131 0 133 0 0 0 134 0 0 129 130 0 129 0 0 125 127 0 0 125 0 123 125 0 0 123 124 0 129 131 0 131 0 132 133 0 132 131 131 0 0 131 134 151 0 0 0 0 0 142 140 0 0 142 149 171 186 191 203 0 0 0 214 214 0 213 0 214 0 0 214 214 214 214 215 215 215 215 215 216 216 216 0 216 217 0 218 218 219 0 0 220 220 221 221 221 222 222 224 225 226 0 227 0 0 0 0 0 0 0 0 235 0 0 0 241 242 0 244 245 0 246 246 0 247 247 0 0 0 248 248 248 248 
206 0 207 0 206 0 205 0 0 0 195 191 0 0 184 182 0 0 0 182 182 0 0 0 140 129 128 0 0 114 113 0 112 111 110 107 105 105 107 0 0 0 109 108 107 107 107 107 108 111 0 0 0 115 0 0 120 119 118 118 121 0 0 0 0 121 0 118 117 137 0 0 0 164 159 156 156 0 0 0 140 129 121 121 132 0 0 143 0 0 0 137 139 140 141 0 144 0 0 0 0 0 0 0 0 0 0 0 0 0 0 0 0 0 154 0 0 0 155 154 0 0 0 154 153 153 153 0 0 0 0 152 0 0 149 147 146 0 0 0 0 0 0 0 0 0 0 143 0 0 0 0 137 132 132 141 0 0 0 148 0 0 151 0 0 153 153 152 0 0 151 151 0 0 151 151 151 151 151 151 151 151 151 0 0 152 152 152 0 0 0 0 155 155 155 154 154 154 154 0 0 155 0 155 0 0 154 154 154 154 154 0 0 154 0 154 155 155 0 0 154 154 0 0 155 156 0 157 157 0 0 157 0 0 156 0 0 0 0 155 0 0 156 0 0 155 0 0 154 0 153 0 152 153 154 0 0 160 0 160 0 0 0 158 158 0 0 0 155 0 151 149 148 148 0 148 0 0 147 0 0 145 0 144 145 0 147 0 148 0 0 151 151 151 0 154 155 155 157 159 0 159 159 159 0 156 154 152 151 152 156 0 158 160 175 0 0 0 203 0 0 162 159 160 0 161 161 161 162 0 165 0 172 180 0 193 198 205 0 0 0 0 0 0 0 0 0 0 0 0 0 0 0 0 0 0 0 0 0 0 0 0 0 0 0 0 0 0 0 0 0 0 0 0 0 0 0 0 0 0 0 0 0 0 0 0 221 216 213 212 209 207 205 202 199 197 0 196 196 0 0 0 0 0 197 0 197 0 0 196 196 196 0 0 196 196 196 0 0 196 196 196 196 0 0 0 0 195 0 195 0 0 0 191 0 0 193 193 193 0 0 188 0 192 0 0 0 167 0 0 0 0 167 0 0 0 0 0 0 136 134 0 129 0 0 123 121 126 131 136 0 0 134 134 0 0 135 0 0 129 0 126 121 121 0 0 0 115 113 0 0 0 0 0 112 113 113 0 0 112 0 119 122 0 0 0 0 131 131 0 0 0 133 133 0 0 0 129 0 127 0 0 125 124 0 0 125 0 122 124 0 123 0 0 0 127 128 0 130 0 0 130 0 0 0 130 131 131 0 129 135 146 156 0 163 0 0 140 139 140 139 146 0 0 183 193 0 0 214 214 0 0 213 0 214 214 0 214 0 0 214 0 0 214 0 215 0 0 215 0 216 216 216 216 217 0 0 218 219 0 0 220 220 220 221 0 222 222 222 224 225 226 227 228 229 0 231 0 0 234 236 0 0 241 0 0 244 245 0 246 0 247 247 247 247 0 248 248 248 248 
206 0 0 0 206 205 204 0 0 0 0 194 191 0 0 184 182 181 0 0 0 0 0 0 144 134 131 0 0 117 112 112 0 0 0 0 108 107 107 109 110 0 0 0 0 0 106 105 108 110 0 0 112 112 116 0 0 0 118 118 0 0 0 0 125 122 120 117 124 0 0 0 166 161 157 157 0 0 0 0 138 131 127 127 132 139 143 144 0 0 0 141 140 140 141 142 145 0 147 0 147 147 0 148 0 0 0 0 0 0 0 153 0 0 0 0 155 0 0 0 155 155 0 155 0 0 0 153 0 0 0 0 152 151 150 0 0 146 145 145 0 144 144 0 0 0 0 144 0 0 0 0 132 129 134 0 0 0 154 150 151 152 0 0 0 153 0 152 0 151 151 0 151 150 0 150 0 151 151 0 150 0 151 151 151 0 0 152 152 151 152 153 153 0 154 0 0 0 154 0 0 154 154 154 154 0 154 154 154 0 154 154 0 0 154 154 154 0 154 154 154 154 0 0 155 155 0 0 156 156 156 156 0 156 155 155 155 0 155 154 154 155 0 0 0 153 0 153 153 0 152 152 0 152 152 154 0 0 160 160 0 159 159 158 158 0 0 0 0 0 0 150 148 0 0 148 148 0 147 146 145 145 144 0 144 145 0 147 148 0 0 152 0 151 152 155 157 157 156 159 0 161 159 158 157 0 154 151 151 151 155 0 158 159 173 0 0 0 190 0 0 163 160 160 0 161 161 0 162 164 166 174 181 0 0 201 0 0 0 0 0 0 0 0 0 0 0 0 205 202 200 199 198 197 197 196 197 201 210 0 0 0 211 204 204 206 209 213 0 0 0 0 0 0 226 227 0 0 0 0 0 0 0 0 0 0 0 0 0 0 220 214 207 203 199 198 197 196 196 196 0 197 197 197 197 0 0 197 0 196 197 0 197 0 0 0 196 0 196 196 195 0 196 196 196 196 0 195 0 195 195 0 0 190 192 0 194 0 0 0 0 188 185 188 0 0 174 169 0 178 175 173 0 165 0 0 154 147 145 143 0 0 133 0 0 127 126 0 0 123 127 0 0 134 0 130 131 0 0 131 0 0 119 0 0 117 0 0 114 0 0 0 114 111 111 112 112 0 0 111 113 119 0 0 126 0 128 130 130 0 128 130 131 0 0 130 0 128 0 128 126 0 126 123 125 0 125 123 122 122 0 121 121 120 122 0 0 0 0 0 0 128 0 130 0 130 130 131 0 130 130 134 0 0 0 0 0 140 138 0 139 144 0 0 179 195 0 0 214 214 214 0 0 0 0 214 0 214 213 214 214 214 214 214 214 0 0 0 214 0 0 0 0 216 216 0 216 217 0 0 0 0 219 0 0 220 220 220 221 0 222 222 0 224 225 0 227 228 229 231 0 236 0 240 0 243 244 0 0 246 0 0 247 247 247 0 248 248 248 248 
0 0 0 206 206 0 204 203 204 0 0 0 194 190 0 0 183 181 181 0 181 0 0 0 147 137 0 129 0 116 110 111 0 0 0 0 110 0 0 0 109 109 109 0 0 0 106 105 0 0 0 0 109 108 115 0 0 0 119 117 121 0 0 128 124 123 121 120 133 0 0 0 0 0 158 0 0 0 151 146 140 137 134 133 0 0 0 0 146 0 0 143 142 0 0 0 0 0 0 0 0 147 147 148 149 0 151 152 152 0 153 153 153 154 154 154 155 0 0 0 155 0 0 0 0 154 153 152 153 153 0 0 0 0 0 0 0 0 146 0 145 145 0 0 0 0 0 0 0 0 0 132 128 128 143 0 0 163 155 155 155 154 154 0 153 0 153 152 0 151 0 151 150 0 0 0 0 151 0 0 0 151 151 0 151 0 151 0 151 151 0 152 152 0 153 153 153 153 0 0 154 154 0 154 154 154 154 0 154 154 154 154 154 0 154 0 154 0 0 0 154 0 154 154 154 155 0 0 0 155 155 155 0 0 155 154 154 0 154 154 154 0 153 153 152 152 152 152 152 152 0 151 151 151 152 154 0 0 160 0 159 159 0 0 158 0 157 157 0 0 153 150 149 0 0 148 148 148 0 146 145 0 0 0 0 145 146 147 148 150 0 0 153 151 152 156 0 0 160 160 0 0 0 0 0 0 0 152 152 152 0 0 157 158 163 186 0 186 178 0 0 163 160 160 0 161 161 0 163 167 174 0 0 0 0 0 0 0 0 0 0 0 200 198 196 194 192 190 188 187 188 189 189 188 188 189 189 189 191 193 195 195 194 192 192 192 193 196 199 201 206 0 0 216 217 218 219 220 220 221 222 224 226 227 0 0 0 0 0 0 0 0 0 0 212 206 199 197 197 197 196 0 0 0 197 197 197 196 197 0 0 0 197 197 197 196 0 197 0 196 195 0 196 196 196 0 196 0 0 195 194 0 0 191 191 0 0 193 193 193 192 0 183 184 0 0 162 166 0 0 0 0 0 163 159 161 161 158 154 0 145 142 139 136 133 0 0 0 0 123 121 0 0 133 0 127 124 0 0 135 0 0 121 0 0 115 115 0 115 0 0 114 112 112 0 0 110 111 111 111 0 0 0 0 121 0 0 0 0 0 128 0 130 0 0 129 129 129 129 0 125 0 125 0 124 0 0 121 121 120 120 0 119 118 120 0 125 126 127 0 128 127 0 129 129 0 130 0 0 129 127 126 136 0 0 0 139 137 0 0 139 142 153 162 176 0 0 0 214 0 213 0 214 213 214 214 214 214 214 214 0 214 214 214 214 214 214 214 214 214 214 215 0 0 0 0 215 216 216 216 217 217 218 218 218 0 0 0 220 220 220 220 221 221 221 222 223 224 225 228 231 234 0 239 0 242 0 0 245 0 246 0 247 247 247 0 0 248 248 248 
0 0 0 0 0 205 0 203 203 203 204 0 0 193 188 0 0 182 181 181 181 0 0 0 148 136 132 0 0 115 108 109 111 110 112 0 0 0 109 0 0 0 108 109 109 107 106 105 106 107 0 0 110 110 0 0 0 0 118 115 118 0 0 0 127 125 125 126 141 0 0 0 163 158 157 0 0 151 148 0 0 0 139 136 0 0 0 146 0 147 0 145 143 143 143 144 144 145 146 147 147 147 148 149 149 0 151 0 0 0 153 153 153 154 154 154 155 0 155 0 0 0 0 154 0 153 153 0 152 0 152 152 0 0 0 0 0 146 0 0 0 0 0 0 0 0 139 140 143 0 0 130 123 129 0 0 0 161 156 162 0 0 157 153 153 153 0 0 0 0 151 151 151 0 0 150 150 0 0 150 0 150 151 0 0 0 0 151 0 0 0 151 152 0 0 0 0 153 153 153 0 153 0 154 0 0 0 0 153 0 0 0 153 0 154 0 153 0 154 154 0 153 153 0 154 0 0 155 155 155 155 155 0 155 155 0 0 0 0 0 0 154 153 0 152 152 0 0 0 151 151 151 151 151 0 155 0 0 0 0 159 0 0 0 157 0 157 157 0 0 152 150 149 0 0 0 0 0 0 146 145 145 144 144 0 145 146 0 148 151 0 0 0 152 153 159 0 0 163 158 160 159 161 0 0 0 0 155 152 153 0 154 156 158 159 162 171 172 171 0 0 161 160 160 0 161 161 164 169 0 0 0 0 0 0 0 0 199 195 192 189 188 186 186 186 186 186 187 0 185 0 187 187 0 0 187 187 188 188 188 188 188 189 189 0 189 190 190 191 191 193 196 203 207 210 211 211 212 212 213 214 216 217 219 220 222 224 225 227 0 0 0 0 0 0 0 0 212 203 199 197 198 197 197 197 0 197 197 197 0 197 198 0 197 0 197 197 0 0 197 0 0 0 196 195 196 196 196 0 195 195 194 0 194 191 193 0 192 193 0 0 0 0 178 0 0 155 0 0 0 172 166 166 173 0 0 0 0 164 0 0 149 145 141 0 0 0 0 0 0 122 127 0 129 128 0 122 128 0 135 0 0 121 120 0 120 115 111 113 0 0 113 0 0 0 110 110 110 111 113 114 115 120 0 120 121 122 0 125 125 126 0 0 131 0 0 128 0 0 0 126 124 123 0 122 124 0 0 121 119 118 0 0 117 118 121 0 126 126 0 124 0 0 128 0 128 129 0 130 0 127 124 127 133 136 0 130 130 133 0 0 146 0 151 161 0 0 0 214 0 213 213 0 0 214 214 214 0 0 214 0 0 214 0 0 0 0 0 0 214 214 214 0 215 215 0 0 215 0 0 216 0 0 217 217 217 218 0 0 0 0 219 220 220 220 220 220 221 222 225 228 0 235 0 0 0 243 244 245 0 246 0 247 247 0 247 0 248 248 248 
206 0 0 206 0 205 204 0 204 204 204 0 0 0 192 187 186 0 181 181 181 0 0 0 0 144 0 0 0 113 111 0 0 112 114 0 113 109 109 109 107 107 109 0 0 0 107 105 105 105 0 109 110 111 114 0 0 0 118 116 117 0 0 0 0 0 0 135 0 0 0 0 0 156 155 0 0 149 146 146 147 0 0 138 138 0 0 147 0 148 0 147 0 0 144 145 0 0 0 0 147 147 0 0 0 151 0 152 152 153 153 153 0 0 0 155 155 0 155 154 155 155 155 155 154 153 0 0 0 151 151 0 150 149 147 0 0 0 0 0 0 0 140 138 137 136 136 138 0 0 0 0 119 129 0 0 0 153 155 0 0 0 157 152 0 152 0 0 151 151 0 0 0 0 0 150 0 0 0 0 150 150 0 151 0 0 0 151 0 151 0 152 152 152 152 152 0 0 0 153 153 153 0 0 0 153 153 153 153 0 0 153 153 0 0 0 153 153 0 153 0 153 153 0 154 0 155 155 155 0 155 155 155 155 0 155 0 0 154 154 0 0 0 0 152 152 0 151 0 0 151 0 0 151 153 155 157 158 0 0 0 0 0 159 158 157 0 157 0 0 0 150 149 148 147 147 147 147 0 146 0 0 0 144 0 145 146 0 149 152 155 0 0 154 156 160 0 0 167 166 0 163 162 162 161 0 0 0 153 153 152 154 165 0 167 162 0 0 170 0 0 160 160 0 161 162 164 169 0 0 0 0 0 190 190 189 187 187 186 185 185 185 185 0 185 0 0 186 186 186 0 186 187 0 0 187 187 0 188 188 188 0 0 189 189 189 0 190 190 0 190 191 195 200 0 0 207 0 207 0 209 209 210 211 213 0 216 0 0 221 222 224 227 0 0 0 0 0 0 0 210 203 198 197 197 0 0 0 0 198 0 0 198 0 0 0 198 0 198 0 0 197 0 196 196 196 196 196 196 0 196 195 0 0 0 0 0 193 0 0 193 189 186 181 175 160 147 162 0 169 170 177 0 0 0 0 0 0 171 0 165 0 151 147 0 135 133 131 128 125 122 124 0 128 0 123 121 0 0 0 0 125 119 120 0 0 0 112 112 0 0 111 110 109 110 110 0 0 0 0 112 115 0 0 0 116 115 117 118 0 127 0 130 0 0 129 126 0 0 0 0 124 123 123 123 123 124 0 122 119 117 117 116 116 117 0 0 0 0 0 123 0 0 126 0 0 128 0 129 0 0 125 124 126 127 127 126 128 132 0 0 0 0 0 153 170 0 0 0 0 0 214 0 0 0 0 0 214 214 214 214 214 214 0 0 0 0 0 0 214 0 214 214 214 215 0 0 215 215 215 0 0 216 216 0 216 0 217 217 218 0 219 0 0 0 0 0 220 220 222 225 230 0 0 239 241 242 0 244 0 246 0 247 247 0 0 0 248 248 248 
0 0 0 0 0 204 0 0 0 0 0 0 0 0 0 192 187 0 0 181 181 0 0 0 0 145 0 0 122 114 116 0 0 116 116 0 0 0 110 109 108 0 0 112 112 110 109 108 106 106 106 108 110 111 0 117 0 0 0 117 118 0 0 130 0 0 0 140 150 0 0 0 159 154 154 0 0 0 146 146 0 0 0 135 132 0 0 148 148 149 0 0 0 146 145 0 0 0 0 0 0 0 148 0 150 0 0 152 0 0 0 0 0 0 156 0 155 155 154 154 0 0 0 0 0 153 0 152 151 150 0 0 0 0 0 0 0 0 0 0 0 135 134 135 0 0 0 0 0 0 0 120 117 136 0 0 155 147 152 0 0 0 153 152 152 0 0 0 150 150 0 150 150 0 150 0 150 150 150 0 150 0 150 151 151 150 151 0 0 0 152 0 0 0 0 152 151 0 152 0 153 0 153 0 0 153 0 0 153 0 0 153 153 153 153 153 153 0 0 0 153 153 0 153 153 154 0 155 0 0 155 0 155 155 155 0 154 154 153 153 153 153 152 152 152 152 0 151 151 0 151 0 0 152 153 155 0 158 159 0 0 159 159 0 0 157 0 0 0 0 152 150 149 148 147 147 147 147 0 146 0 145 0 144 144 145 145 147 0 0 156 0 0 154 159 164 0 0 0 0 0 0 0 0 161 0 158 156 155 153 151 153 0 0 0 166 0 0 170 0 167 160 160 161 162 165 170 175 0 0 0 186 186 185 185 184 184 185 185 0 0 184 0 185 0 185 185 0 186 0 186 186 187 187 187 0 187 0 188 188 0 0 0 188 0 189 0 190 190 190 0 191 192 195 200 0 204 204 205 205 205 206 0 207 207 208 209 210 212 214 0 0 219 220 222 225 0 0 0 0 0 0 215 205 200 198 198 198 198 0 0 198 198 198 198 198 0 198 198 198 0 197 197 197 197 197 0 0 196 197 0 0 0 196 0 0 194 193 0 0 0 0 190 0 0 164 145 157 172 179 0 0 0 185 187 0 0 0 177 173 173 0 0 0 0 137 134 133 130 126 124 124 127 0 0 123 119 0 130 0 0 122 118 119 124 0 0 114 110 111 0 110 109 108 0 0 110 111 0 113 112 0 116 118 0 116 114 115 117 124 0 129 129 131 130 129 129 128 126 0 0 0 123 123 0 0 122 0 0 120 118 117 0 0 0 118 0 0 0 0 125 0 0 125 123 0 0 0 0 0 126 0 125 125 126 126 124 128 132 0 0 142 0 0 151 163 0 0 0 214 214 0 0 214 0 0 214 214 214 214 214 214 214 214 214 214 215 215 214 214 0 214 214 214 0 215 215 215 214 215 215 215 215 215 0 216 216 216 216 216 0 0 218 0 0 0 219 0 220 221 225 229 0 236 0 0 242 0 244 0 246 0 247 247 247 0 248 248 248 248 
204 203 0 205 0 204 0 205 205 205 206 0 207 0 0 0 191 185 184 0 181 0 0 0 0 144 136 0 124 119 119 0 0 0 0 0 0 0 110 0 110 111 0 0 0 113 112 0 0 0 108 0 0 0 115 117 0 0 0 117 118 121 0 130 135 0 0 143 0 0 0 0 156 151 153 0 0 154 149 149 0 0 0 125 129 0 0 0 149 0 0 150 0 147 146 145 0 147 147 145 146 146 0 0 149 0 151 0 0 153 154 154 155 156 0 0 156 155 154 155 0 0 154 154 154 0 0 151 0 0 147 146 144 141 0 137 135 132 129 127 127 0 0 0 0 0 131 128 127 122 113 108 115 0 0 0 147 146 148 150 154 153 152 152 0 0 152 151 0 150 150 150 150 0 149 0 0 0 150 150 150 150 0 0 0 0 150 151 152 0 151 0 151 151 152 0 151 0 0 152 0 0 153 0 0 0 0 153 0 153 153 153 153 153 0 153 152 0 151 152 0 0 0 153 0 154 0 155 155 0 155 155 155 0 155 154 154 154 0 153 0 152 152 0 152 152 0 0 151 151 151 151 0 152 0 155 0 158 0 159 159 158 158 0 158 157 0 157 0 0 150 0 0 0 147 147 147 0 0 146 145 145 0 0 0 145 0 147 0 152 0 0 156 154 0 0 0 0 0 0 0 0 0 164 161 0 158 156 0 0 151 151 0 0 0 166 0 0 170 0 166 161 161 164 169 173 0 0 0 185 185 185 0 0 0 184 184 184 0 0 0 184 184 185 0 0 185 0 186 0 186 0 187 0 0 187 188 0 188 188 188 0 0 0 188 188 0 0 0 190 0 191 191 193 197 0 202 202 202 0 202 203 204 204 204 204 0 206 207 208 209 211 213 0 214 215 217 220 0 0 0 0 0 0 0 209 200 199 199 199 0 198 198 0 0 198 198 198 0 198 0 198 0 0 0 0 0 197 197 0 0 198 197 196 195 195 195 195 0 196 196 0 0 0 0 0 153 163 0 0 0 192 186 185 0 0 181 182 0 0 0 0 164 154 0 0 140 0 134 129 127 0 0 0 0 0 116 0 125 0 0 122 119 118 121 0 0 114 109 109 111 111 109 107 108 108 109 0 0 0 112 113 115 119 0 0 0 0 0 128 0 0 132 132 0 0 0 129 127 127 0 125 123 123 0 0 122 0 0 0 0 0 0 0 117 116 119 0 123 122 0 0 126 124 121 123 0 0 128 0 126 124 125 0 0 0 125 127 131 0 0 137 138 144 150 171 0 0 0 214 214 214 214 214 214 214 0 214 214 214 0 214 0 214 214 0 0 0 0 214 214 0 214 0 0 0 0 0 0 0 215 215 214 215 0 0 215 0 0 216 216 216 217 217 217 0 218 218 219 220 0 0 232 235 0 0 242 0 244 245 246 0 247 247 247 0 248 248 248 248 
202 0 0 0 203 0 0 0 205 0 0 206 0 0 0 0 0 190 185 183 0 181 0 0 0 148 138 0 0 122 0 0 118 117 117 114 111 109 110 110 111 113 0 0 0 0 0 0 0 110 107 109 111 0 0 0 0 0 0 115 116 121 127 132 137 140 141 144 152 0 0 0 154 150 153 0 0 0 152 0 0 0 131 124 131 0 0 0 149 150 0 0 0 150 0 146 146 147 0 147 0 146 147 148 149 149 150 0 152 153 0 155 155 156 0 0 157 0 156 0 156 0 155 154 153 153 0 151 150 149 148 0 0 139 134 131 127 124 122 120 117 115 117 121 127 0 129 123 119 0 111 108 124 0 0 147 143 0 150 150 151 152 0 0 152 0 151 0 0 150 150 150 0 149 149 149 149 0 150 150 150 150 0 150 0 150 150 0 0 0 151 151 0 0 0 0 151 151 0 151 152 0 153 153 153 0 153 153 0 153 0 0 153 153 0 0 152 152 152 152 152 152 152 153 0 154 154 0 155 0 155 155 155 0 0 0 154 0 0 0 152 152 0 0 152 151 0 152 0 151 151 151 0 0 153 0 0 0 0 158 0 0 158 0 157 156 0 0 155 0 151 149 148 148 147 0 147 146 146 146 0 0 0 144 0 145 145 146 149 152 0 0 157 156 0 0 172 0 0 173 173 0 0 165 161 0 159 158 0 0 151 151 0 0 173 165 0 0 170 0 169 164 169 0 0 0 0 0 0 184 184 184 184 184 184 184 0 184 184 184 0 184 184 185 0 0 185 185 186 186 186 187 188 0 0 188 0 0 188 188 188 188 0 0 188 189 190 0 191 191 191 0 192 193 197 0 0 201 201 201 200 201 0 0 201 202 0 203 0 204 0 207 207 208 209 210 210 210 213 217 222 0 0 0 0 0 0 210 203 199 198 198 0 0 0 0 0 0 0 0 198 0 0 198 198 0 198 0 0 198 0 198 0 197 0 196 0 0 0 0 0 0 0 193 0 0 162 158 0 0 0 0 0 0 0 0 185 0 0 0 0 0 163 154 152 151 0 0 137 132 130 128 129 0 0 0 118 0 121 124 0 121 119 118 122 0 0 115 110 109 110 0 0 111 110 0 0 109 113 0 0 115 118 0 0 0 0 0 0 131 0 0 0 0 0 131 0 0 0 124 125 0 0 0 0 0 120 120 120 0 0 119 118 0 0 117 118 0 121 122 123 0 0 124 0 121 123 0 0 0 0 125 124 127 0 0 128 129 0 132 133 133 132 138 151 0 0 0 0 0 0 213 0 214 214 214 214 0 0 214 0 0 214 214 214 0 0 214 0 0 214 0 214 0 0 214 0 215 215 215 215 0 0 214 0 215 215 215 0 0 0 216 216 216 216 0 217 217 217 220 224 228 232 0 238 240 242 0 244 245 246 0 247 247 247 0 248 248 248 248 
0 201 0 201 202 203 0 0 0 0 0 205 0 0 0 0 0 0 192 186 183 181 0 0 0 154 141 132 125 120 120 120 118 0 0 115 112 113 0 111 110 113 0 0 0 114 113 114 0 111 108 109 111 114 0 117 119 0 0 116 116 0 0 0 0 0 145 0 0 0 0 158 152 149 154 0 0 0 0 0 0 137 130 128 135 0 0 147 148 150 151 0 0 0 0 149 0 147 0 0 147 0 147 0 0 0 0 151 152 0 0 155 156 157 0 0 157 157 157 0 156 0 0 0 154 154 0 0 0 149 148 0 0 0 139 135 133 131 131 0 0 122 118 118 124 0 0 124 117 0 113 109 131 0 0 141 143 0 0 0 0 0 151 151 0 151 151 151 151 0 150 0 0 0 0 149 0 0 0 150 150 0 0 0 0 0 0 151 151 0 151 0 151 0 151 151 151 0 0 151 152 0 153 153 153 153 153 0 153 0 152 0 0 0 0 152 152 0 152 152 152 151 0 153 0 0 154 154 154 0 0 0 0 154 154 0 0 0 154 153 152 152 0 152 0 151 0 0 0 0 151 0 151 152 0 155 0 0 0 157 158 0 158 0 157 156 0 0 154 152 0 149 0 0 0 0 147 146 0 0 145 145 0 144 0 145 145 0 0 152 0 0 157 158 0 0 0 0 173 173 172 0 0 0 161 160 0 0 0 154 152 150 156 163 160 167 0 0 172 0 174 175 0 0 0 0 0 0 0 184 184 184 0 183 0 183 0 184 0 184 184 184 0 0 0 0 185 0 186 0 187 0 0 0 0 188 0 188 188 0 0 188 189 189 0 0 190 191 192 0 0 0 193 0 0 0 200 200 200 0 199 199 199 200 200 200 200 201 201 201 202 203 0 205 206 0 207 208 208 210 211 213 217 0 0 0 0 0 0 212 202 199 199 199 199 0 0 0 0 198 0 0 198 198 198 198 0 198 198 198 197 0 0 197 0 0 0 195 195 197 0 0 193 191 0 0 177 156 164 0 0 0 0 0 0 191 192 0 191 0 0 173 167 166 0 0 0 0 138 135 0 126 127 0 127 0 118 0 120 121 0 120 117 117 124 0 0 117 112 110 111 115 0 0 0 110 109 109 114 0 118 118 121 0 0 128 127 128 130 0 0 0 0 132 130 129 129 0 0 0 124 123 0 123 121 0 0 0 118 118 0 0 118 118 0 119 119 119 120 0 121 0 0 123 0 122 122 0 0 127 0 126 126 0 0 128 129 0 0 129 0 0 130 134 147 0 0 0 0 0 0 0 0 214 0 0 214 0 0 214 0 0 214 214 214 214 214 0 214 214 214 0 214 0 0 0 0 215 215 0 0 0 0 214 0 214 215 0 215 215 0 0 0 0 216 216 0 0 217 219 223 0 0 0 0 240 0 243 244 245 246 0 247 247 247 0 248 248 248 248 
199 199 199 200 201 0 202 0 0 0 203 0 204 205 206 0 0 0 0 193 187 183 181 0 0 159 144 135 129 124 123 122 0 0 0 115 0 0 0 113 111 0 0 0 0 112 112 0 0 112 109 0 0 114 0 0 0 0 0 117 117 123 131 0 0 0 0 0 0 0 0 0 152 150 0 0 0 0 0 146 140 133 128 129 138 0 0 148 149 150 151 0 0 0 0 151 149 148 148 0 147 146 147 0 0 0 0 151 0 0 154 155 0 0 0 0 157 0 0 0 156 155 155 0 0 0 0 0 150 150 149 148 0 0 0 0 0 0 0 0 0 0 0 131 132 133 132 126 119 0 121 123 0 0 141 136 141 0 148 150 0 152 151 151 151 0 0 0 0 0 150 149 0 0 0 149 0 149 0 0 150 0 0 150 150 150 0 151 151 0 151 0 0 151 0 0 150 0 0 0 0 0 0 0 0 153 0 0 153 0 152 152 152 152 152 151 0 0 0 152 0 152 0 153 153 0 154 154 0 0 154 154 154 0 154 0 153 0 0 152 151 151 0 0 0 0 0 151 151 0 151 0 150 152 153 155 0 157 157 157 157 0 0 157 0 0 0 155 0 0 149 149 0 147 147 0 0 146 145 145 0 0 144 144 0 144 0 0 147 150 0 0 157 162 0 0 0 173 173 173 0 171 0 0 160 159 159 159 0 155 152 151 152 156 160 171 0 176 172 0 0 0 0 0 0 0 183 183 183 0 0 0 0 183 0 0 0 183 0 184 0 0 185 185 186 186 186 0 187 0 0 188 188 188 0 0 0 188 0 189 189 189 189 0 190 190 0 0 192 0 193 193 195 0 199 0 200 0 199 199 199 199 199 199 199 199 199 199 0 200 199 200 0 0 203 203 204 0 0 0 0 210 209 210 216 222 0 0 0 0 0 212 203 199 199 199 198 0 0 0 198 198 0 0 0 197 197 198 0 0 198 0 196 0 0 0 197 196 0 0 0 0 193 191 0 0 0 175 162 160 171 182 193 0 0 198 0 0 0 0 178 176 0 0 0 0 153 148 143 140 0 130 127 0 0 0 118 0 118 119 0 118 115 116 127 0 0 116 111 109 113 0 0 0 0 112 110 0 0 0 0 0 0 0 0 0 0 128 128 129 129 131 131 129 129 127 128 0 0 126 123 0 0 122 120 119 0 115 115 117 0 0 0 118 0 0 0 0 118 120 121 123 0 123 122 0 122 122 0 0 126 0 0 0 128 128 0 0 131 129 0 131 129 131 138 153 0 0 0 0 0 0 0 0 214 214 0 0 0 214 214 214 214 214 0 214 214 0 0 0 214 0 215 0 0 215 215 215 215 0 214 214 0 215 0 215 0 0 215 215 0 215 215 0 0 216 216 216 216 218 222 227 0 235 0 240 0 0 244 245 246 0 247 247 247 0 248 248 248 248 
197 197 0 0 0 0 0 0 200 0 201 201 202 203 0 206 0 0 0 0 194 0 186 181 0 163 151 141 0 0 0 0 0 0 0 113 113 0 0 113 112 0 0 0 0 111 113 0 0 114 111 0 113 115 117 0 0 0 116 116 117 123 132 0 0 0 0 134 137 0 0 0 153 150 154 0 0 0 153 145 140 136 131 133 0 0 0 0 0 151 0 0 154 154 0 0 151 0 148 0 147 146 147 148 149 149 150 151 0 153 154 0 0 0 0 157 157 157 157 0 0 154 0 0 0 155 153 153 151 151 0 0 0 148 0 145 0 0 0 0 0 0 0 0 0 0 0 0 127 123 127 0 0 0 134 135 0 142 144 149 0 152 151 151 151 150 150 150 150 0 150 149 149 0 0 149 0 149 149 149 0 0 150 0 150 150 0 151 151 151 0 151 0 0 0 151 150 0 151 151 151 152 152 0 152 153 0 0 153 152 0 151 0 151 0 0 151 151 151 0 0 151 0 0 153 0 0 0 0 0 153 0 0 0 153 0 153 153 0 152 151 150 150 151 151 151 151 151 151 0 150 0 0 0 153 0 0 0 156 0 0 0 0 156 0 0 155 154 0 0 149 148 0 147 147 0 0 0 145 0 144 0 144 0 0 145 0 146 147 149 153 0 159 0 0 0 173 172 0 0 0 0 0 0 161 0 0 159 0 0 151 151 154 157 161 0 0 176 172 0 0 0 0 0 0 183 182 182 0 0 183 183 183 183 0 0 0 0 184 0 0 185 0 0 0 186 0 187 0 0 188 188 0 188 188 189 189 188 189 0 189 0 189 190 0 0 191 191 191 192 193 195 197 0 0 200 0 0 199 199 199 199 199 199 0 198 198 0 0 0 0 199 0 200 200 201 0 202 0 205 206 207 0 209 209 210 214 221 0 0 0 0 0 210 202 199 199 199 199 0 0 0 0 199 0 198 197 198 0 0 198 0 0 198 198 198 0 197 0 0 196 0 192 192 0 0 0 0 0 176 178 185 0 0 200 0 0 0 187 181 181 0 0 0 180 0 161 154 0 0 0 134 131 0 126 122 119 0 117 0 0 117 0 117 0 0 126 114 109 113 0 0 121 0 0 113 107 110 113 118 0 0 0 124 125 0 0 0 0 0 130 130 132 131 0 0 0 0 0 0 124 123 0 121 0 0 116 113 114 0 0 116 117 0 0 0 0 119 119 120 121 122 0 0 124 0 123 123 125 0 127 127 0 126 127 0 0 0 130 130 0 0 130 130 133 138 142 149 153 160 172 0 0 0 0 0 0 213 214 214 214 0 0 214 214 214 214 0 0 0 215 0 215 0 214 0 0 215 0 0 0 215 0 215 215 0 215 0 215 215 0 0 215 215 0 0 0 216 216 218 222 0 0 0 0 240 242 0 244 0 246 0 247 247 247 0 248 248 248 248 
0 0 195 0 0 0 199 199 0 0 0 0 199 0 203 204 0 0 0 0 0 0 0 186 0 0 155 143 139 0 127 123 0 118 113 110 111 0 0 112 111 0 0 116 112 111 115 0 0 0 113 0 0 0 117 0 0 0 117 114 117 125 0 0 0 139 127 118 127 0 0 0 153 150 154 0 0 0 153 147 144 141 137 139 0 0 0 144 0 0 0 154 154 0 0 0 0 0 149 0 147 146 0 148 0 0 0 0 0 152 153 155 0 157 157 0 157 157 157 0 0 152 153 153 0 0 0 154 0 0 152 151 150 149 0 146 144 143 142 141 0 141 0 140 141 0 0 0 0 130 133 0 0 136 131 0 0 141 144 150 0 153 151 0 0 0 150 0 150 150 0 0 0 149 149 0 0 0 0 0 0 0 150 150 150 0 0 0 0 151 0 151 151 151 0 151 151 151 151 0 151 0 152 0 152 0 0 0 0 151 0 151 151 0 0 0 0 0 151 0 151 151 152 0 152 153 153 152 153 0 153 153 153 153 153 153 153 153 0 152 151 0 0 0 150 150 150 0 0 150 0 150 150 151 153 0 0 0 155 0 156 155 0 155 154 154 0 0 0 150 149 148 147 147 0 146 0 0 145 144 144 0 144 144 144 0 146 146 0 150 0 155 0 0 0 171 172 173 173 0 0 167 166 0 161 159 158 158 0 0 152 152 155 158 162 0 0 174 173 0 0 183 183 183 0 0 182 182 182 182 182 182 183 0 0 183 183 183 0 185 185 185 186 0 0 187 187 0 0 188 188 0 189 189 189 0 0 190 190 0 0 0 0 190 0 191 191 191 192 194 195 0 0 0 199 0 200 0 199 199 199 199 0 0 0 198 198 198 198 198 198 198 0 198 0 199 199 199 200 202 203 203 205 0 0 0 207 207 213 221 0 0 0 0 0 207 200 199 199 0 198 0 199 199 0 0 0 198 0 198 198 198 0 198 198 197 0 0 196 196 0 0 191 0 0 0 192 0 0 0 0 0 0 0 199 0 0 193 183 188 0 0 0 0 0 0 167 161 0 0 144 137 0 0 124 0 0 0 116 0 119 119 0 118 0 0 0 115 114 0 0 121 123 0 0 114 109 110 0 0 119 122 0 125 124 125 124 124 126 129 132 132 0 0 0 0 131 129 0 0 123 120 0 119 0 0 115 113 112 0 115 115 116 0 118 119 119 119 120 121 0 124 0 0 125 124 124 124 126 0 0 0 125 125 126 0 0 129 131 0 132 131 0 130 0 132 134 140 143 145 149 152 163 0 0 0 0 213 0 0 0 0 213 0 0 0 214 214 214 0 215 215 215 0 214 215 215 214 0 215 215 0 215 215 0 0 215 0 215 215 0 0 0 0 215 215 0 0 216 217 222 0 231 0 0 240 242 0 244 245 246 0 247 247 247 0 248 248 248 248 
191 191 0 194 0 0 0 0 0 0 194 195 0 0 0 0 0 0 203 0 0 0 0 0 0 0 167 154 142 130 124 122 120 0 113 109 109 111 112 111 113 0 115 112 110 111 0 0 0 116 113 0 115 116 118 0 0 0 118 115 119 128 0 0 0 0 126 113 120 0 0 0 153 150 152 0 0 0 154 150 0 0 0 0 0 0 131 136 0 0 0 155 154 0 154 154 0 0 152 0 147 147 0 0 0 149 149 149 0 152 0 0 0 0 157 157 157 157 0 0 153 152 152 0 154 154 0 0 0 0 0 0 151 150 0 0 145 143 142 141 0 0 0 0 0 0 141 138 133 131 0 0 0 129 131 0 141 143 0 0 0 0 151 149 0 0 150 150 150 150 0 149 149 149 0 0 0 0 150 0 150 151 0 0 0 150 150 0 0 150 0 0 150 151 0 151 0 151 151 0 150 151 0 0 150 151 0 0 0 153 152 0 151 0 0 151 0 0 0 0 0 0 151 0 152 0 0 0 153 0 153 0 0 152 0 0 0 0 152 152 0 151 151 0 0 150 150 0 150 150 0 149 150 0 0 0 0 0 155 0 0 0 0 0 0 152 0 152 0 149 148 0 147 0 146 145 0 146 145 144 144 0 143 143 144 0 146 0 147 150 0 154 160 0 0 0 0 0 173 0 0 165 165 0 160 157 0 157 0 0 155 154 156 159 164 0 0 174 175 0 0 182 182 182 182 182 0 0 182 182 182 0 182 0 0 183 0 0 0 186 186 186 187 0 188 0 0 0 187 0 0 189 0 0 190 190 0 0 0 0 191 190 190 190 191 191 192 193 0 0 0 0 0 199 199 0 199 0 199 199 199 0 0 198 198 198 198 0 197 197 197 197 0 197 197 0 198 0 199 200 0 201 201 203 0 0 0 0 207 208 213 0 0 0 0 0 214 203 199 199 199 0 0 0 199 199 0 198 0 198 198 0 0 0 0 198 0 0 0 196 0 194 192 0 0 0 192 193 195 0 197 0 0 0 0 195 194 190 193 0 0 0 201 197 0 181 173 0 159 0 0 141 0 129 124 0 120 0 118 0 119 0 0 116 0 0 0 118 0 0 120 119 0 0 0 114 111 110 113 0 118 0 0 0 0 0 0 128 0 0 0 0 0 133 131 130 129 128 0 0 122 119 119 118 118 0 115 114 113 114 0 0 117 118 118 119 119 0 0 122 0 0 0 0 125 125 0 0 0 0 0 0 125 126 0 0 130 131 0 0 132 131 130 130 0 130 131 136 140 141 143 143 143 153 178 0 0 0 213 0 0 213 213 213 0 214 213 0 214 214 0 0 0 0 0 215 0 0 214 0 215 215 215 0 0 0 0 0 0 215 0 216 0 0 0 0 215 0 216 217 222 0 0 0 0 240 242 0 244 245 246 0 247 247 247 0 0 248 248 248 
187 188 0 0 192 0 0 0 0 190 189 190 0 196 0 0 0 0 201 0 200 199 0 0 0 0 0 0 145 132 127 0 118 115 112 111 111 0 111 110 0 0 0 0 109 110 0 0 0 116 113 0 0 115 0 0 0 0 119 117 121 130 0 0 0 0 0 131 130 142 0 0 154 150 150 154 0 0 155 153 0 0 0 0 0 123 114 128 0 0 0 0 0 154 0 155 0 0 0 0 149 147 146 147 148 0 148 149 150 0 0 0 0 0 157 157 0 0 0 155 154 0 0 154 154 0 155 0 154 153 153 0 152 0 149 147 0 145 143 141 140 138 137 138 0 0 0 0 132 132 0 0 131 127 133 0 143 0 0 150 0 0 0 150 150 0 149 0 150 0 149 149 149 149 0 149 149 0 149 150 0 151 0 151 0 150 150 0 150 150 150 0 150 0 151 151 0 0 0 0 150 150 0 0 150 151 152 0 0 0 152 0 151 151 151 0 151 151 0 0 151 0 151 151 152 0 152 0 0 152 152 0 152 152 152 0 152 0 0 152 0 0 0 150 0 0 149 0 150 149 149 0 0 0 151 152 0 0 0 153 153 153 0 153 0 0 151 150 0 0 148 0 147 0 146 145 146 0 145 144 143 0 0 144 0 146 0 147 148 0 152 153 159 0 0 0 173 0 0 0 166 163 164 0 160 157 0 158 0 158 0 156 156 159 165 0 0 173 175 0 0 181 0 181 0 0 182 0 182 182 0 183 183 184 184 184 0 185 0 0 187 0 0 188 188 0 188 188 0 189 0 0 0 190 0 0 190 191 190 191 191 0 0 191 192 193 194 0 0 0 0 0 198 0 199 199 199 199 199 199 199 0 198 0 198 0 0 0 0 197 197 197 0 197 197 197 197 197 0 198 0 199 200 200 200 200 0 0 0 207 206 207 215 0 0 0 0 0 209 201 199 199 198 0 199 199 0 0 198 0 198 198 0 198 198 198 0 197 196 0 196 0 192 0 0 0 193 195 0 0 199 0 196 193 194 193 190 198 0 0 0 0 0 0 0 184 0 0 164 0 149 0 0 129 125 0 120 0 117 118 0 0 117 116 0 0 122 0 0 120 118 126 0 0 127 114 0 112 0 115 0 0 0 125 0 0 0 0 0 0 0 130 132 0 0 0 0 0 0 0 0 119 117 0 117 116 116 115 0 114 114 0 0 0 0 0 120 0 121 120 0 0 124 124 0 0 0 0 0 126 0 123 124 126 0 0 130 131 0 0 132 131 130 131 132 131 130 134 0 0 0 143 141 144 153 172 0 0 0 0 213 213 0 212 0 213 213 0 0 214 214 214 0 0 0 0 215 0 214 0 0 215 215 215 215 0 0 215 0 215 0 216 0 215 215 215 215 215 216 217 222 0 231 0 0 240 242 0 244 245 0 0 0 247 247 247 0 248 248 248 
184 0 186 0 0 188 188 187 0 186 185 187 190 193 0 0 200 0 200 200 199 199 0 0 0 0 0 0 151 140 0 124 117 113 111 0 0 0 111 110 111 0 0 109 105 107 112 0 0 0 113 112 113 115 0 0 0 0 121 120 0 133 0 0 0 0 0 0 142 146 0 0 0 152 150 152 0 0 155 0 0 0 0 135 126 115 110 126 0 0 0 156 0 0 154 0 156 0 0 152 0 148 146 147 147 148 148 148 149 151 153 155 156 157 0 0 0 157 0 0 0 154 0 0 0 0 155 0 154 154 0 153 153 0 151 149 148 0 0 144 140 138 135 133 134 136 135 134 134 135 0 0 126 129 136 0 0 0 149 150 152 0 0 0 149 0 150 150 0 0 148 149 149 0 149 149 0 0 150 0 0 0 0 150 150 0 150 150 150 0 150 0 150 150 0 151 0 151 150 150 150 150 150 150 0 0 151 0 0 0 152 0 151 151 151 0 0 150 151 151 150 151 151 0 0 151 151 151 151 151 0 0 0 0 152 152 152 152 152 0 151 0 0 150 0 0 149 0 0 149 0 0 149 149 149 150 151 151 151 0 0 151 0 151 151 0 149 0 148 148 0 147 147 0 0 146 0 0 145 144 143 0 144 144 0 0 0 147 149 0 0 153 159 0 0 0 0 0 0 0 165 162 0 0 159 157 0 157 0 0 0 155 0 161 167 0 0 172 0 0 0 0 179 180 0 181 0 0 0 0 0 0 0 184 0 0 185 0 187 0 187 0 188 0 0 0 189 0 0 0 190 190 190 190 191 0 0 191 0 191 191 0 0 193 194 0 0 197 0 0 198 198 198 198 0 199 199 199 199 199 0 0 0 0 198 197 197 197 0 197 0 197 197 0 197 197 197 197 197 196 197 198 0 0 0 197 199 201 0 0 0 205 203 208 216 0 0 0 0 215 204 199 199 0 0 0 0 0 0 0 0 0 198 197 197 0 0 197 196 0 0 0 192 193 193 0 194 195 0 0 199 0 195 194 194 194 199 0 0 208 208 0 0 0 0 188 0 174 167 159 151 0 135 128 126 123 121 0 117 118 0 115 115 116 0 0 121 0 0 119 121 129 0 0 127 117 113 111 111 112 119 0 0 125 0 0 0 0 0 0 0 0 0 0 126 123 121 121 122 0 0 0 115 116 116 0 0 0 115 114 114 115 116 117 0 0 0 121 121 123 0 122 121 122 123 122 125 0 126 123 0 124 124 0 0 128 129 130 0 0 132 0 130 0 0 133 133 133 138 0 0 0 145 143 143 148 167 0 0 0 0 213 213 213 213 0 212 212 0 0 214 214 214 0 214 214 0 0 215 0 215 214 0 215 215 0 0 0 215 0 0 216 0 0 0 0 0 215 215 218 222 0 231 0 0 240 242 0 244 245 0 246 0 247 247 0 0 248 248 248 
0 181 181 183 183 0 183 183 183 183 183 185 187 190 192 196 0 0 200 0 199 199 199 199 0 0 0 0 158 143 133 124 116 112 0 0 0 0 0 110 109 0 110 0 107 108 0 113 0 0 112 111 113 115 118 0 0 0 121 122 0 135 0 0 0 0 150 0 0 148 0 0 0 152 150 149 0 0 154 0 0 0 136 128 122 114 112 130 0 0 0 157 0 0 154 0 0 156 0 0 151 0 0 0 0 0 0 0 150 151 153 0 0 0 0 0 156 0 0 155 0 154 0 0 0 154 154 0 0 154 0 0 154 0 0 152 0 149 0 0 0 0 0 138 136 136 134 136 0 0 0 127 125 0 0 0 0 0 0 150 152 0 0 0 150 149 0 150 0 149 149 0 0 149 0 150 0 150 150 0 150 150 0 149 150 0 150 0 149 0 150 150 150 150 150 150 0 150 0 149 0 0 0 0 0 150 150 151 0 0 0 0 151 151 151 150 150 0 151 151 151 151 151 151 0 0 0 151 151 150 0 0 151 151 0 152 0 152 152 0 151 0 150 150 0 0 149 0 149 148 149 149 148 0 149 0 149 149 149 150 0 0 0 0 0 148 148 0 147 147 147 147 0 146 146 146 0 145 0 144 0 0 144 0 0 146 146 146 149 0 153 155 158 0 0 169 171 0 0 0 165 162 0 0 158 156 0 154 156 0 157 155 0 160 169 0 0 173 175 0 178 177 178 179 179 0 181 181 0 183 183 184 184 184 0 186 186 187 0 0 187 188 188 0 189 189 189 0 190 190 189 0 191 191 191 0 192 192 192 191 191 193 194 195 0 0 197 0 0 0 198 0 198 0 0 0 0 199 0 0 0 198 0 198 0 197 0 197 0 197 197 197 0 196 0 0 0 0 196 0 197 197 197 197 0 0 198 198 199 201 0 0 0 201 202 210 0 0 0 0 0 207 199 198 199 198 0 0 0 198 198 0 198 0 197 198 198 197 197 0 196 195 194 0 194 0 194 193 195 197 196 197 0 195 194 201 0 0 209 209 209 0 0 0 0 188 181 0 0 161 154 0 136 129 0 123 0 121 119 0 0 114 116 118 0 0 0 115 0 119 0 130 0 0 124 112 111 0 0 114 118 0 122 0 0 0 0 0 126 126 0 126 125 125 123 121 0 121 121 0 0 0 116 114 115 116 0 0 0 0 0 115 116 115 117 118 0 0 124 0 0 0 124 122 123 123 123 0 0 0 0 0 126 0 128 127 127 129 131 0 0 0 131 0 0 137 134 134 136 136 139 0 0 0 138 139 147 162 0 0 0 0 0 0 213 0 212 0 212 0 214 0 214 0 214 214 0 214 0 215 214 214 214 215 0 0 0 215 215 0 0 0 0 216 216 216 0 0 216 218 222 0 231 0 0 240 0 0 244 245 0 246 0 247 247 0 248 248 248 248 
177 178 179 0 180 0 180 180 0 181 0 183 185 0 190 194 0 0 0 0 199 199 199 0 0 0 0 0 0 147 135 127 118 113 0 0 113 0 0 0 0 109 108 0 0 0 109 109 0 0 0 0 112 114 117 0 0 0 123 123 128 0 0 0 0 0 0 0 0 149 150 0 0 0 149 147 149 0 0 150 144 136 130 127 122 115 116 0 0 0 0 158 157 156 156 0 0 156 156 0 152 150 149 0 149 0 149 150 151 0 153 154 0 0 155 0 156 0 155 154 0 154 154 154 0 154 154 0 155 154 155 0 0 155 0 154 0 152 0 0 148 0 0 0 0 140 139 139 0 0 130 119 125 0 0 0 0 149 0 0 152 0 0 0 0 149 0 150 0 0 149 0 0 149 0 150 0 0 150 150 149 0 149 149 0 0 149 0 0 0 150 150 150 150 0 150 0 149 0 0 149 149 149 149 149 149 0 150 151 0 152 0 0 0 151 0 150 0 151 151 0 0 0 0 0 0 151 151 0 151 151 151 151 151 0 0 0 0 0 0 151 150 0 0 0 149 0 0 148 148 0 0 0 0 149 0 149 0 149 149 149 0 149 149 148 147 0 0 146 146 0 0 0 146 0 0 0 144 144 144 0 0 144 0 145 0 145 146 149 151 0 155 157 0 0 169 171 172 0 0 167 162 0 0 157 156 0 153 156 0 156 156 0 160 170 0 0 173 0 0 177 177 178 0 0 0 0 182 0 183 0 184 0 0 186 0 187 0 188 188 0 0 189 189 189 0 189 0 0 190 191 0 192 192 192 192 192 193 193 193 0 194 0 0 0 0 0 0 0 198 198 0 198 198 198 198 0 199 0 198 0 198 198 198 0 197 196 0 0 0 0 0 0 196 196 196 196 196 0 0 0 0 196 196 197 197 0 0 198 198 200 0 0 0 203 199 203 214 0 0 0 0 212 201 199 199 198 0 0 198 0 0 0 198 198 0 0 0 0 197 196 0 195 0 0 0 194 193 194 0 197 197 197 197 201 0 0 208 208 0 0 0 207 0 0 186 181 0 0 163 0 0 141 133 0 124 0 0 121 120 117 115 0 122 0 0 113 111 119 0 0 130 0 0 118 109 111 0 0 116 0 120 0 118 118 118 118 121 121 121 122 124 124 0 0 122 0 0 119 118 0 0 115 114 114 115 0 116 117 0 0 0 0 0 114 116 120 0 0 0 125 0 0 126 125 0 0 124 125 124 123 0 0 0 127 0 126 127 130 0 0 131 132 0 0 0 137 136 0 135 134 138 0 0 143 140 146 152 164 0 0 0 0 214 213 0 212 212 212 0 0 213 0 214 214 0 214 214 0 0 214 0 0 215 0 0 0 215 0 0 0 215 0 216 0 0 0 0 216 0 222 0 0 0 0 240 0 243 244 245 0 0 0 247 247 0 0 248 248 248 
174 0 0 0 176 177 177 177 177 178 0 181 183 0 189 193 0 197 0 199 199 199 200 200 201 201 0 0 0 158 140 0 0 0 111 110 0 0 110 0 0 0 107 0 107 106 107 109 112 0 0 112 111 113 115 118 0 0 122 123 129 136 0 0 0 151 0 0 0 0 148 0 0 0 151 148 146 148 0 0 146 140 135 132 127 120 121 0 0 0 0 159 0 157 0 157 157 157 0 0 0 0 0 150 149 148 148 150 152 0 0 153 154 154 155 0 155 155 155 0 154 154 0 0 154 154 155 0 156 0 156 0 0 0 0 155 0 0 0 0 150 0 0 0 0 0 143 143 0 0 125 119 130 0 0 0 0 149 149 0 0 0 154 0 0 150 150 0 0 0 0 0 0 0 0 150 150 150 150 0 149 0 149 149 0 0 149 0 0 0 0 150 150 150 0 0 149 0 0 0 0 148 0 0 148 148 0 149 0 151 151 151 0 151 0 151 151 0 0 0 0 0 151 0 151 151 151 151 0 150 0 0 151 151 0 151 151 151 151 0 150 150 0 148 148 147 148 148 148 0 0 148 148 0 149 0 0 148 148 0 0 0 148 0 147 147 0 0 146 0 146 146 0 146 0 145 144 143 0 144 0 143 144 144 0 145 146 147 0 151 0 155 157 163 0 0 0 172 172 0 0 164 162 0 156 155 0 155 0 0 155 157 0 162 0 0 175 174 0 176 177 0 178 179 180 181 0 183 183 183 0 184 185 0 0 0 187 0 0 188 189 0 0 0 0 190 190 190 190 191 0 0 0 0 193 193 193 0 195 0 0 196 0 0 0 198 0 197 197 197 0 198 198 198 198 198 0 0 0 198 0 0 0 198 0 197 196 195 196 196 196 0 0 0 196 195 196 196 0 0 196 196 196 196 0 196 196 197 0 197 198 198 200 0 0 0 199 199 209 0 0 0 0 0 204 199 198 198 198 198 0 198 0 0 198 0 198 198 0 197 0 0 195 0 0 0 195 0 0 0 0 0 196 200 0 0 208 207 207 208 208 0 0 0 0 186 181 0 0 164 159 0 0 137 128 125 126 0 123 0 119 119 119 0 0 118 110 114 0 0 125 132 0 0 114 110 112 0 116 118 0 120 121 0 116 113 116 0 0 120 121 0 0 0 0 0 122 0 0 117 0 0 114 113 115 0 0 0 116 116 117 0 116 115 114 114 119 0 0 124 124 0 0 0 0 127 125 124 0 0 124 0 0 0 125 125 126 127 129 0 0 130 133 0 0 0 138 137 0 0 136 136 0 143 142 142 147 0 159 164 0 0 0 0 213 0 212 212 0 213 213 213 0 214 214 0 214 214 0 0 214 0 0 0 215 215 215 215 0 0 215 0 0 216 0 215 0 215 216 218 222 0 0 235 0 240 0 243 244 245 246 0 247 247 247 247 0 248 248 248 
174 174 174 174 174 174 175 175 176 178 179 180 182 0 189 193 0 197 198 199 199 200 201 0 202 0 0 0 0 167 147 133 123 114 110 110 0 109 108 107 0 105 105 105 105 106 108 0 0 0 0 111 111 0 114 117 0 0 123 0 0 137 143 0 148 150 0 0 0 146 144 147 0 0 0 150 146 145 148 0 0 0 0 0 141 133 126 135 0 0 0 159 0 0 157 157 0 0 0 157 0 0 152 150 0 0 0 0 0 153 153 154 0 155 0 0 154 0 0 0 154 0 0 0 155 155 156 0 157 157 0 157 0 156 0 0 155 0 154 153 0 152 151 0 149 148 147 0 0 0 121 123 0 0 0 0 0 149 149 0 150 150 0 0 0 152 149 0 0 0 0 0 148 148 148 0 0 0 0 0 148 0 0 0 148 0 149 149 149 149 0 0 0 0 149 149 149 149 149 0 148 148 148 148 0 148 148 148 0 0 150 0 0 151 151 151 151 0 150 150 150 0 0 0 0 0 0 0 150 150 150 0 151 151 151 150 0 0 0 150 0 0 149 0 0 0 148 0 148 148 148 0 0 148 148 0 0 0 0 0 0 148 0 147 0 0 0 146 146 0 146 146 0 0 145 0 144 0 0 144 0 143 144 0 144 145 146 148 0 151 153 155 159 0 0 0 0 172 172 0 0 0 161 0 155 154 154 0 0 155 155 157 159 163 0 0 174 175 0 176 177 178 0 180 181 0 183 0 0 183 0 185 0 186 187 187 187 187 188 189 189 189 0 190 190 0 0 0 191 0 191 192 193 194 0 195 195 0 0 0 197 0 197 0 0 197 0 0 0 197 0 0 0 0 0 198 0 198 0 197 197 0 197 0 0 197 196 196 196 196 196 196 196 0 0 195 0 0 196 196 196 0 0 196 196 196 196 196 0 197 0 196 196 199 0 0 0 197 198 207 0 0 0 0 0 208 199 197 198 198 198 198 0 0 198 0 198 0 197 0 0 196 195 194 194 194 196 0 0 0 198 196 198 0 0 207 207 0 207 206 207 0 0 198 0 185 181 0 0 166 160 0 0 138 129 127 0 0 0 122 120 0 121 0 0 116 112 0 0 122 127 0 0 123 111 111 115 0 121 122 0 0 124 0 119 116 116 117 0 0 121 0 123 122 0 0 122 119 0 114 115 0 115 114 0 0 0 0 114 114 116 0 116 115 114 116 0 0 121 122 0 0 128 128 0 0 127 124 124 124 125 0 0 125 124 0 0 126 128 0 131 130 133 0 137 0 139 0 0 135 0 0 138 137 141 0 0 148 151 156 172 0 0 0 212 212 212 212 0 213 212 213 0 0 214 214 214 214 214 214 0 214 214 0 214 0 215 215 215 215 215 0 0 216 0 215 215 215 216 218 222 227 0 235 0 240 0 243 244 245 246 0 247 247 247 0 0 248 248 248 
0 173 0 0 173 173 174 175 176 0 0 180 182 186 190 0 0 0 199 199 200 201 202 0 204 0 0 0 0 0 149 132 123 115 111 110 107 106 107 105 104 103 103 0 104 106 0 0 0 0 0 111 0 0 114 117 0 120 122 127 0 0 0 147 148 149 0 0 0 0 141 142 0 0 0 0 148 146 147 148 149 0 0 0 0 0 135 128 136 0 0 0 0 0 157 157 0 158 0 0 156 155 153 150 151 0 150 0 0 152 153 0 0 0 0 0 0 155 154 154 154 154 153 154 0 0 156 0 0 0 0 157 157 156 156 0 0 0 0 0 0 0 0 152 0 0 0 0 0 132 120 128 0 0 0 148 0 0 0 149 149 150 150 154 0 0 150 147 147 147 147 0 147 148 148 149 150 0 0 149 149 148 148 0 148 0 148 0 0 0 0 149 0 149 0 149 0 148 148 148 0 0 0 147 0 0 148 148 0 149 0 150 150 150 0 0 151 0 0 150 150 150 150 150 150 150 150 150 0 150 150 0 0 0 0 0 0 0 150 0 149 149 148 0 0 148 148 148 0 148 0 147 147 148 148 148 148 0 148 148 148 147 147 146 146 146 146 0 146 146 0 0 145 144 0 144 0 143 144 0 144 0 144 0 145 145 147 0 150 152 0 155 0 0 0 0 171 172 0 0 0 166 160 157 154 153 154 0 0 154 0 157 159 164 0 0 174 0 0 0 178 179 180 181 0 0 183 0 184 0 0 186 0 187 0 0 188 188 189 0 0 190 190 189 191 0 0 191 192 192 192 193 194 195 0 0 0 197 197 0 197 0 197 197 0 197 0 197 0 0 0 197 197 0 197 0 0 0 197 197 197 196 196 196 197 197 0 0 0 196 0 0 0 0 195 195 0 0 195 195 0 196 196 196 196 196 196 0 197 196 196 0 0 196 198 200 0 199 198 200 206 214 0 0 0 0 212 199 198 198 198 198 0 0 198 198 198 0 197 196 196 196 196 196 196 0 0 0 196 0 196 198 0 0 207 207 207 0 207 0 0 0 0 195 189 185 181 178 0 167 160 0 0 139 131 130 0 0 0 122 122 0 125 0 0 120 0 0 121 124 131 0 0 119 111 115 0 0 0 0 0 0 0 0 121 0 0 119 120 0 0 0 0 120 118 0 0 119 0 114 113 113 0 0 116 0 0 113 113 0 0 116 0 0 116 0 0 118 0 122 0 0 0 129 0 0 0 127 125 123 125 0 0 124 123 125 126 127 129 0 0 131 0 135 136 138 140 0 0 132 131 133 134 0 0 140 143 144 147 0 161 179 0 0 0 0 212 212 0 213 0 0 212 213 0 0 214 0 214 214 214 214 214 214 214 0 0 0 0 0 215 215 0 0 0 215 215 0 215 217 222 227 0 235 0 240 0 243 244 245 246 0 247 247 247 0 248 248 248 248 
173 173 173 173 173 173 173 0 0 177 0 180 183 187 0 0 0 199 200 201 0 202 202 0 0 0 0 0 0 0 0 136 124 116 113 0 109 108 0 106 104 103 104 0 105 106 0 0 110 0 110 109 111 113 0 116 119 121 122 126 133 0 0 0 0 0 148 148 0 143 139 137 143 0 0 0 0 150 149 149 151 0 158 0 0 0 0 134 125 135 0 0 0 0 156 156 0 0 0 0 0 0 0 0 0 0 150 151 151 152 153 0 0 155 0 155 0 0 0 154 0 155 0 0 156 0 157 0 0 0 157 0 0 0 156 156 155 155 0 154 154 0 154 0 153 153 0 0 0 128 120 131 0 0 0 147 147 148 149 150 150 150 150 154 0 0 152 146 145 146 0 147 0 148 0 0 149 0 0 0 0 148 147 0 148 0 0 0 148 149 0 0 149 148 0 0 0 148 0 147 147 0 147 147 0 147 0 148 148 0 149 0 0 149 150 0 0 0 0 0 150 149 149 0 150 150 0 0 150 0 150 150 150 149 150 0 0 150 0 0 149 149 0 148 148 148 0 0 0 0 0 147 0 0 0 0 148 0 148 0 0 147 0 0 146 146 147 0 146 145 145 146 0 144 0 143 142 143 0 0 144 0 0 144 145 0 147 149 151 0 154 154 159 0 0 171 171 172 0 0 0 0 161 157 153 152 154 0 0 155 155 0 160 165 0 0 175 0 177 178 0 0 181 0 0 183 0 184 0 0 186 0 187 0 188 0 0 189 0 0 190 190 0 0 0 192 192 192 193 0 0 0 196 0 0 0 0 197 0 0 198 0 197 197 0 197 0 197 197 0 197 0 0 197 197 197 197 197 0 0 0 0 0 0 0 0 0 0 0 196 195 195 195 195 195 0 195 195 195 0 0 195 195 0 0 0 196 0 0 0 196 0 0 0 197 197 0 0 0 200 199 201 210 0 0 0 0 214 202 198 198 198 198 198 198 198 198 0 197 0 0 0 0 0 0 0 0 196 194 0 196 0 0 0 0 0 0 0 0 0 204 201 0 193 188 184 181 0 0 0 163 0 0 142 133 0 0 0 0 123 0 0 0 0 0 118 0 122 122 128 0 0 126 117 114 0 0 122 124 126 127 129 0 128 124 123 122 0 0 0 123 122 0 120 118 0 0 0 116 114 113 112 0 0 0 0 114 113 115 0 116 115 116 117 118 0 0 118 0 120 123 126 0 128 130 0 0 0 127 126 126 0 0 124 124 125 126 0 0 0 130 131 0 134 135 137 142 146 147 138 133 132 132 136 137 137 0 0 0 0 158 164 189 0 0 0 0 212 0 0 213 0 212 212 0 212 0 0 214 0 214 214 0 0 0 0 214 0 214 0 215 215 215 0 0 0 215 215 214 217 222 227 0 0 0 0 0 243 244 245 246 0 247 247 247 0 248 248 248 248 
174 174 173 173 0 0 173 175 0 177 179 181 185 188 192 0 0 200 0 0 0 0 204 204 205 205 0 203 0 0 0 136 124 118 114 111 0 0 0 0 104 104 0 104 105 0 108 108 109 0 0 108 110 0 114 116 0 0 0 129 136 0 0 0 0 0 148 147 0 142 138 134 138 0 0 0 0 0 151 150 0 0 0 0 0 0 0 0 133 129 142 0 0 0 155 0 157 0 0 157 0 0 0 152 151 151 0 151 151 0 0 153 154 0 154 154 0 154 153 154 0 0 0 156 156 156 157 157 156 157 0 157 157 0 0 156 156 155 154 154 0 0 0 0 154 0 0 0 0 130 125 0 0 0 147 0 0 0 150 0 0 0 152 154 0 0 0 148 145 146 146 0 147 0 0 148 0 149 0 149 149 0 148 0 0 148 0 148 0 0 0 149 0 148 148 148 0 147 147 147 146 147 147 0 0 147 0 147 148 0 148 149 0 0 150 0 0 150 150 0 0 149 149 0 0 149 149 149 149 0 149 0 149 0 0 150 0 0 149 149 0 0 0 147 0 148 0 147 147 146 147 148 0 148 148 0 147 0 147 147 147 147 147 147 0 0 0 0 146 0 0 0 145 144 143 0 143 142 143 144 144 143 143 144 145 146 0 149 0 0 155 156 161 0 0 171 172 0 0 0 0 0 163 156 153 153 155 0 155 155 156 158 161 165 0 0 175 0 0 179 0 181 182 0 183 0 0 184 185 185 186 0 0 188 188 0 189 0 190 190 191 190 0 192 192 192 0 194 0 0 196 0 0 198 0 198 198 198 198 198 0 198 0 0 197 197 0 197 196 196 196 196 0 196 0 0 0 196 196 196 0 0 0 0 0 196 196 196 196 0 0 195 195 0 0 0 195 195 195 196 0 194 195 0 195 195 0 0 197 0 196 196 196 195 0 196 195 196 0 0 199 195 196 206 0 0 0 0 0 203 199 198 197 198 0 0 198 0 197 197 197 0 0 0 196 195 196 195 0 194 199 0 0 205 0 0 205 0 0 0 0 199 195 190 0 184 181 179 176 171 165 0 0 0 134 136 0 0 126 122 0 0 0 0 0 115 116 0 0 0 0 0 121 117 114 117 118 123 127 130 134 0 0 0 130 128 0 121 121 0 0 123 0 0 0 119 0 0 115 114 0 112 112 114 0 0 113 114 0 0 116 0 0 118 0 119 117 117 117 118 0 0 0 0 130 0 132 0 129 0 126 0 0 123 124 0 0 0 128 129 130 132 0 136 0 140 0 0 0 0 0 140 135 135 136 137 142 0 152 154 0 166 175 0 0 212 0 0 212 212 0 0 0 0 0 212 213 0 214 214 214 214 0 0 214 214 0 0 0 0 0 0 215 215 215 215 215 0 215 0 222 0 0 0 237 0 0 243 244 245 246 0 247 247 247 0 0 248 248 248 
180 177 174 174 174 174 174 175 176 178 180 183 0 0 0 0 199 201 202 0 0 0 0 0 0 0 205 0 0 0 164 136 124 118 114 111 112 112 0 0 0 106 104 105 105 107 0 0 107 107 0 107 109 0 112 116 119 123 127 133 0 0 0 0 0 0 0 0 0 142 138 134 135 141 0 0 0 0 152 151 0 154 156 160 0 0 0 0 0 139 142 0 0 152 154 0 0 0 157 156 156 0 154 151 150 151 151 151 151 152 152 152 153 0 0 0 0 154 154 0 0 155 0 155 155 0 0 0 0 0 0 156 0 157 157 0 157 0 0 155 155 155 155 0 154 0 151 0 139 128 127 136 0 0 147 0 0 0 0 0 0 0 0 154 156 0 0 152 147 146 146 146 146 148 148 148 148 148 149 149 148 0 0 148 0 148 148 147 148 0 148 148 148 0 147 0 0 147 0 0 147 147 0 0 147 146 0 146 0 0 148 148 0 149 0 150 0 0 0 149 148 0 149 150 150 0 149 148 0 0 149 0 149 149 149 0 149 0 148 148 148 0 148 148 0 0 0 147 0 147 147 0 0 147 147 147 0 0 147 147 147 147 147 147 0 0 147 0 146 0 0 0 144 144 0 0 143 0 143 0 0 143 143 144 145 146 0 149 0 0 156 0 0 0 0 0 0 173 173 172 0 0 166 157 154 155 0 0 155 155 0 158 162 166 0 174 0 0 179 180 0 181 0 0 183 0 184 185 0 0 186 187 0 188 0 189 189 190 190 0 0 192 0 0 194 195 0 196 0 0 197 0 198 0 0 0 198 0 0 198 0 198 197 197 197 197 197 0 196 196 196 196 196 196 196 196 196 0 196 196 196 196 196 195 195 195 195 195 0 0 0 195 195 195 195 0 0 0 0 196 0 195 0 195 194 194 195 196 196 0 196 195 0 195 0 0 193 192 194 0 0 0 193 194 203 0 0 0 0 0 204 199 198 0 198 198 198 0 0 197 197 0 196 196 0 0 0 195 194 195 0 0 204 205 0 205 203 204 203 201 0 0 193 0 187 0 0 0 0 0 165 160 154 146 136 0 0 0 128 126 0 130 131 0 0 117 116 0 0 0 0 126 119 117 115 116 119 124 133 0 0 0 0 0 0 0 0 0 121 123 0 123 0 0 117 117 117 0 115 114 0 0 113 0 0 113 114 0 0 116 116 116 0 118 0 0 0 116 116 0 121 0 125 128 131 132 0 0 130 128 125 126 0 122 124 0 0 127 126 0 0 131 0 0 0 0 0 149 0 0 0 0 143 141 0 136 140 0 143 0 0 0 167 189 0 0 212 212 212 212 0 212 0 213 213 213 213 214 214 214 0 0 0 214 214 214 0 0 214 214 0 0 214 0 215 215 0 0 214 217 0 0 0 0 237 0 0 0 244 245 246 0 247 247 247 247 0 248 248 248 
0 185 180 177 176 175 175 175 176 178 181 185 0 0 0 198 200 202 0 205 206 0 207 207 207 0 205 0 0 0 0 143 129 0 118 114 114 113 0 0 0 107 105 0 0 0 0 0 106 105 105 107 0 0 114 0 120 124 0 0 0 0 0 0 148 148 0 0 145 0 140 137 134 135 143 0 0 0 0 153 153 153 155 159 162 165 0 0 0 0 148 148 149 150 153 0 0 156 0 156 156 0 154 0 0 151 150 151 0 152 0 153 0 154 0 0 0 0 0 154 154 0 0 154 155 0 156 0 156 156 156 156 0 0 0 0 0 0 0 156 0 155 155 0 154 152 149 143 136 129 132 138 0 0 0 0 147 147 148 149 0 0 0 0 155 0 0 0 151 147 147 148 149 150 0 0 0 0 149 149 149 149 148 148 148 148 0 0 0 148 148 0 147 0 147 147 0 146 0 0 0 0 0 0 146 146 0 146 147 0 148 147 0 0 149 0 0 150 149 0 148 148 0 0 0 0 149 0 0 148 148 0 148 0 0 149 149 0 0 148 148 148 0 0 0 0 147 147 147 147 0 0 147 0 147 147 0 147 146 147 0 0 147 147 0 0 147 0 0 145 144 144 144 144 0 143 143 143 0 143 144 144 144 144 0 0 147 147 150 0 156 0 163 0 0 0 0 0 173 173 0 0 0 161 157 0 0 156 155 0 156 159 163 167 0 174 0 0 179 0 181 182 0 0 183 0 0 185 0 0 186 0 0 188 0 189 0 0 191 0 193 194 0 195 0 0 0 0 0 0 198 198 198 198 0 0 198 198 0 198 198 0 198 0 0 197 0 0 196 196 196 0 195 0 0 195 195 0 195 0 0 195 0 0 194 194 194 0 0 195 195 0 0 195 195 0 0 0 0 0 0 0 0 195 0 0 0 0 0 0 0 0 196 0 194 194 0 193 194 195 0 0 0 195 195 202 214 0 0 0 0 205 198 197 0 0 0 197 197 0 0 196 195 195 0 195 0 195 194 199 0 0 203 203 0 204 0 0 0 199 0 0 190 188 187 0 182 181 0 0 0 163 156 0 137 0 0 135 129 0 0 129 129 0 0 117 117 126 0 0 128 123 121 118 119 121 125 0 0 0 0 0 0 133 0 131 0 0 0 0 124 122 0 120 117 116 115 0 0 0 0 0 0 0 115 115 115 117 0 115 0 116 0 118 118 119 0 0 0 120 119 120 0 0 0 0 0 0 0 0 0 125 0 125 125 0 0 0 126 128 128 129 0 135 135 140 143 143 148 0 0 0 154 147 0 145 0 0 139 145 0 0 167 179 0 0 211 0 212 213 0 213 213 213 213 0 0 214 214 214 0 0 0 214 214 214 214 0 214 214 0 0 0 0 0 0 0 214 214 216 0 226 0 234 237 0 0 0 244 245 246 0 247 247 247 0 0 248 248 248 
0 0 187 182 179 176 175 176 177 179 183 0 190 194 0 199 201 0 205 0 207 0 0 0 0 0 205 0 0 0 0 153 133 0 121 0 0 0 0 114 0 108 105 105 0 106 0 0 105 105 106 0 109 111 114 0 0 0 130 135 0 143 0 147 0 147 147 0 146 0 142 0 138 136 138 144 0 0 0 0 154 154 156 0 0 0 0 0 0 0 0 146 147 149 0 155 0 0 0 156 0 0 0 153 152 151 151 151 152 0 0 0 154 0 154 154 155 0 0 154 0 0 154 154 154 155 155 155 155 155 155 0 155 155 156 157 157 157 0 0 0 0 155 154 154 0 0 0 0 142 0 0 143 143 142 144 147 148 149 148 149 0 153 0 155 0 0 0 0 150 151 0 0 0 0 0 0 0 0 0 150 150 149 148 148 0 148 147 0 147 0 0 147 147 0 147 0 145 145 146 145 146 146 145 146 0 145 145 146 147 0 0 147 148 149 0 150 0 149 148 148 0 0 149 0 0 148 0 148 148 148 148 148 148 0 148 0 0 148 0 148 0 147 147 0 0 0 0 147 147 147 147 147 0 147 0 0 147 146 147 0 0 147 147 0 147 146 0 145 0 144 144 144 0 0 0 143 143 143 144 0 0 145 0 0 147 0 148 150 153 156 0 0 165 167 0 173 0 174 174 174 0 0 167 0 0 158 155 155 156 157 160 164 0 172 175 0 0 0 181 0 0 0 0 183 184 0 184 185 186 187 0 188 188 190 191 192 193 193 0 0 0 196 0 0 198 198 198 198 0 0 198 198 0 0 0 198 0 0 198 198 0 198 0 197 196 0 0 196 196 196 0 0 0 0 195 0 0 0 195 194 0 195 0 0 0 194 0 0 0 195 0 195 0 195 195 195 195 0 195 195 195 195 195 0 0 0 195 0 194 194 0 0 0 0 0 0 193 0 194 195 0 0 0 196 194 200 212 0 0 0 0 205 198 197 198 0 197 197 197 0 196 195 195 195 195 0 195 196 0 0 0 204 203 0 0 0 201 200 0 196 0 191 0 0 0 183 181 0 177 0 0 0 0 138 0 0 135 130 0 0 128 127 0 124 121 122 0 0 130 125 123 122 120 125 0 0 0 0 131 0 131 129 127 130 129 128 0 0 0 0 124 122 120 118 116 114 112 111 112 113 114 114 115 0 116 117 0 0 115 115 0 117 118 118 119 0 0 0 0 0 121 122 0 0 0 0 130 129 128 0 0 0 0 125 0 0 0 128 128 129 129 0 133 133 0 0 141 137 143 156 0 0 0 0 148 0 0 140 141 0 160 165 172 0 0 210 0 212 0 0 214 0 214 214 0 0 214 214 214 214 214 0 214 214 214 214 0 0 0 0 0 0 214 0 0 214 0 215 216 221 0 0 0 237 0 0 243 244 245 246 0 247 247 247 0 248 248 248 248 
0 0 0 0 184 179 177 177 179 181 0 0 0 0 0 200 202 0 0 207 208 0 0 0 208 207 206 205 0 0 0 157 135 0 122 117 0 115 115 0 0 111 105 104 105 105 107 0 107 106 108 0 109 109 113 0 0 126 130 135 0 143 0 0 0 0 147 147 0 0 144 142 0 139 137 139 0 0 0 0 0 155 157 0 0 0 0 0 0 0 150 147 147 150 0 154 0 0 0 156 156 155 0 0 0 153 154 0 151 152 153 0 154 154 154 154 0 0 0 154 154 154 153 154 0 154 0 0 154 154 0 155 155 155 0 156 0 0 156 0 0 156 155 0 154 0 153 0 0 0 0 0 142 142 144 146 148 0 0 0 149 151 0 153 153 155 158 0 0 156 155 0 0 0 153 153 153 0 152 0 0 0 0 0 149 149 148 147 0 0 147 0 0 147 147 147 146 145 145 0 0 145 145 0 0 0 0 0 0 146 0 147 147 148 0 149 149 0 0 0 148 148 148 148 148 148 148 148 148 0 0 0 148 148 148 148 0 0 148 0 0 147 146 146 0 147 147 147 147 0 0 147 147 0 147 148 148 147 0 0 0 0 0 146 0 0 0 145 144 144 144 0 144 143 143 0 0 0 144 0 0 145 0 0 0 146 0 0 150 152 0 0 0 163 165 0 0 0 0 174 175 0 0 0 0 0 157 155 154 156 0 161 165 0 173 176 0 0 0 181 0 181 181 182 0 0 0 184 185 0 0 188 189 190 0 193 194 0 0 0 0 0 197 197 0 198 0 0 198 198 198 198 0 0 199 0 198 0 198 0 197 0 0 197 0 196 0 0 0 0 196 0 0 195 0 195 0 196 0 194 194 0 194 195 195 195 0 194 195 0 194 194 195 0 195 0 194 0 0 194 0 194 194 195 195 195 0 194 193 194 194 194 194 195 0 194 193 193 193 194 0 194 0 0 0 194 192 199 0 0 0 0 0 206 198 198 0 0 0 196 0 0 0 195 0 0 195 194 200 0 0 205 0 203 0 0 202 200 198 197 0 192 0 0 188 186 0 0 181 178 0 0 0 0 139 0 0 137 130 0 0 0 125 0 123 123 125 128 0 126 122 122 124 126 0 0 0 128 121 122 125 126 127 129 0 128 127 127 127 0 0 0 123 0 0 115 114 112 111 112 113 114 0 0 0 116 118 0 0 115 115 0 0 0 0 120 0 0 121 0 0 121 120 124 0 0 0 130 0 128 0 127 125 124 124 125 127 0 128 128 0 133 136 135 134 0 0 136 132 136 140 145 147 147 0 148 148 149 146 145 0 157 0 169 0 0 0 211 212 0 0 214 0 215 215 215 215 214 214 214 214 214 0 214 214 0 0 0 0 0 0 0 214 215 215 0 214 214 215 217 0 0 0 0 237 0 0 243 244 245 0 0 0 247 247 0 248 248 248 248 
0 0 0 195 0 183 180 179 0 183 0 188 0 195 0 200 202 0 0 207 0 0 0 209 208 0 206 206 0 0 0 159 136 128 121 116 114 112 113 0 0 0 0 105 104 105 107 0 0 0 0 0 0 111 112 117 0 0 130 135 0 0 0 0 0 0 148 148 0 147 0 0 143 0 139 136 138 143 0 0 0 0 0 159 160 0 161 0 0 152 149 148 149 0 0 154 155 0 0 0 0 0 0 153 153 0 0 152 151 0 152 0 0 0 0 0 154 154 154 154 154 154 154 154 154 154 154 0 0 153 0 0 0 0 155 0 0 0 156 156 0 0 0 0 154 0 0 0 0 0 0 146 143 146 0 0 0 154 0 153 152 152 0 152 153 154 155 158 0 0 0 155 154 154 153 153 153 0 152 0 0 154 0 0 0 150 149 147 0 0 147 0 147 147 0 0 0 145 145 145 145 0 0 0 145 0 145 145 0 145 146 0 0 147 0 0 149 0 0 149 148 147 147 0 0 0 148 0 0 0 147 147 0 148 0 0 148 148 148 148 0 146 0 0 0 147 147 147 147 0 148 0 147 0 0 0 148 0 0 148 0 147 146 145 145 0 0 145 143 143 0 144 144 0 0 0 0 144 144 0 145 145 145 146 0 146 147 148 150 152 0 0 159 161 165 169 172 174 0 175 0 0 0 0 0 160 155 155 156 157 159 162 0 0 174 177 0 179 180 180 181 181 181 0 183 183 184 185 0 187 0 188 0 0 0 0 0 0 0 0 198 0 197 197 198 198 0 0 0 198 198 198 198 0 0 0 198 198 198 0 197 197 197 197 0 196 0 0 0 0 196 195 0 196 195 196 196 0 0 195 0 0 193 0 0 0 194 194 194 0 194 0 195 0 0 0 194 194 194 194 193 193 0 0 194 194 194 0 0 0 194 0 0 194 193 193 193 193 193 0 0 194 0 0 0 0 194 193 201 212 0 0 0 0 205 199 198 198 0 197 197 0 196 0 0 195 194 197 0 0 203 204 0 203 202 203 0 200 198 196 194 192 191 189 0 186 185 0 182 0 0 0 0 0 142 145 0 137 130 0 0 125 121 0 123 0 126 0 0 123 121 123 126 135 0 0 128 118 116 119 124 0 0 0 0 127 126 0 125 125 0 0 0 0 0 117 114 112 111 0 0 0 0 113 112 114 0 0 117 114 0 117 0 119 0 120 121 0 123 123 0 123 0 121 127 0 0 131 128 127 127 127 0 124 124 125 125 0 0 128 0 0 0 0 0 0 0 134 132 134 137 140 140 141 148 0 150 0 0 150 0 160 0 171 0 0 0 211 212 213 213 0 0 215 0 0 215 214 0 214 0 214 214 214 0 0 214 214 214 214 0 215 215 0 0 0 214 214 214 217 221 226 0 0 237 0 0 243 244 245 0 246 0 247 247 0 0 248 248 248 
0 0 0 199 0 186 182 181 182 0 0 188 191 0 0 199 202 0 0 0 0 0 0 209 208 207 207 0 0 0 0 164 137 126 120 118 116 0 113 0 114 112 109 106 106 106 108 0 0 109 0 0 109 0 0 0 120 125 130 135 0 0 0 0 147 0 148 0 0 0 147 0 145 0 0 137 134 135 141 0 0 0 0 0 0 0 0 0 154 149 148 149 149 151 0 153 154 155 0 0 0 155 0 151 152 0 0 152 151 0 152 152 152 152 154 0 0 0 0 154 154 0 154 154 154 0 0 153 0 0 0 153 0 154 0 155 0 0 0 156 0 0 0 154 153 154 0 0 0 0 0 146 143 149 0 0 0 0 0 155 154 153 0 153 153 153 155 157 0 0 0 156 0 154 0 0 153 0 153 0 0 154 0 0 0 0 150 149 148 0 0 147 146 0 0 145 145 145 145 145 145 145 145 145 145 145 145 145 0 145 0 0 0 147 147 148 148 149 149 0 0 147 147 147 147 0 147 0 0 147 147 147 0 0 148 0 148 148 147 0 147 0 0 146 146 0 147 0 0 148 0 148 0 0 0 149 149 0 148 148 0 0 146 0 144 145 145 0 0 143 0 144 0 144 0 0 143 0 144 144 0 145 144 146 0 147 148 149 151 0 0 155 157 161 0 169 0 0 175 176 177 0 0 0 165 157 155 0 0 158 160 163 0 0 175 0 0 178 0 180 181 0 182 183 0 184 185 0 0 187 0 188 190 0 0 0 0 197 0 0 198 198 198 0 198 198 0 199 0 0 0 198 198 198 0 0 0 0 198 0 0 197 197 197 196 196 196 196 196 196 0 196 196 0 0 0 0 195 195 195 195 0 194 0 194 194 194 194 0 194 0 0 0 194 0 195 0 194 0 0 193 193 0 194 194 193 0 0 0 0 195 0 0 193 193 193 193 0 0 193 192 193 194 195 0 0 0 194 193 202 213 0 0 0 0 205 198 198 0 0 197 0 196 0 195 195 196 0 0 204 202 0 0 0 204 203 0 200 0 195 192 192 0 0 0 187 185 0 0 181 0 0 0 0 144 143 0 136 130 0 126 121 118 120 0 0 125 0 0 123 122 0 130 0 0 134 121 118 118 121 0 0 0 0 0 0 125 124 124 123 0 0 0 122 0 0 0 112 111 112 0 112 109 110 111 116 0 0 115 115 0 117 0 119 121 0 121 0 124 123 0 0 0 123 126 0 0 0 127 125 0 0 0 124 124 0 125 0 0 128 129 134 0 0 0 0 0 0 0 139 136 138 0 147 0 0 154 0 153 152 154 161 0 177 0 0 0 212 212 0 212 0 215 213 0 0 215 214 214 0 0 214 214 0 0 0 214 213 214 0 0 215 0 0 215 215 0 214 215 217 221 226 0 0 0 0 0 243 244 245 0 246 0 247 247 247 0 248 248 248 
0 0 0 203 0 190 186 184 184 184 185 188 0 193 196 199 0 0 0 0 0 0 0 209 0 0 0 207 0 0 0 0 142 126 122 120 118 115 112 112 112 111 109 109 0 109 108 109 109 109 109 0 109 112 115 0 0 125 0 0 0 0 145 146 0 147 147 0 0 148 0 0 0 0 0 0 135 133 134 139 0 0 0 0 0 0 0 156 153 151 0 0 0 151 151 152 153 0 155 155 155 154 153 152 152 152 0 0 152 152 152 152 151 152 0 0 155 0 0 0 154 154 154 154 0 0 0 152 152 151 151 152 0 153 153 154 155 155 154 155 0 0 0 154 153 0 0 0 0 0 0 146 145 0 0 0 0 0 0 0 0 154 154 154 0 0 0 159 0 0 0 155 0 154 154 0 153 153 0 152 153 153 0 0 0 152 151 150 149 148 147 147 146 0 146 0 144 0 145 145 0 0 0 0 0 0 0 0 144 0 145 145 146 0 147 0 0 0 148 148 0 0 147 0 147 0 146 0 147 147 147 147 0 147 147 148 0 0 147 0 0 146 0 145 0 146 0 0 148 148 0 148 0 148 149 0 0 148 148 0 147 146 146 0 145 145 145 0 144 144 144 0 0 144 143 0 143 144 144 144 0 145 0 0 0 148 148 0 0 0 154 154 159 0 0 169 0 0 0 0 177 0 0 0 159 156 154 155 157 159 0 165 0 173 0 0 178 179 180 0 0 182 0 183 0 185 0 0 0 186 187 0 190 193 195 0 0 197 198 198 0 198 0 0 198 0 0 199 199 0 198 198 0 198 0 199 0 198 198 0 197 197 0 0 196 196 196 196 195 196 196 196 196 196 196 196 195 195 0 0 195 195 195 195 195 0 0 0 0 0 0 0 194 194 194 195 0 0 0 194 0 193 193 0 0 0 193 193 194 0 0 195 0 0 192 0 0 0 0 192 191 191 192 193 195 0 0 0 192 193 203 0 222 0 0 0 204 198 197 197 0 0 0 195 195 195 199 0 0 204 203 204 0 0 0 0 0 199 197 195 192 0 0 0 189 0 185 0 0 181 0 0 0 0 145 142 0 141 131 0 122 120 118 121 0 0 124 0 123 123 124 128 135 0 0 127 121 0 120 0 0 126 128 0 127 126 0 0 0 124 0 0 0 0 0 0 0 0 112 112 0 110 109 111 115 0 0 118 113 114 0 0 118 0 0 0 121 0 0 124 124 124 122 123 124 0 0 130 126 125 127 0 0 124 0 0 125 126 127 128 127 129 0 137 140 0 0 0 0 0 0 0 0 0 0 0 0 0 153 0 157 163 0 181 0 0 0 0 212 212 212 0 0 215 215 0 214 0 0 0 214 214 214 0 0 214 0 0 0 0 214 215 0 215 215 215 0 0 215 218 0 226 230 0 0 0 0 243 244 245 0 246 0 247 247 0 0 248 248 248 
0 0 0 206 198 0 0 0 0 185 186 0 190 192 195 0 0 204 0 0 208 0 209 209 209 0 207 207 207 0 0 0 148 130 0 0 0 117 0 114 111 110 111 0 0 0 110 0 111 0 110 110 111 112 114 118 121 126 131 136 0 0 0 146 146 147 148 148 148 148 0 147 145 144 0 140 137 134 132 132 135 142 0 0 0 0 0 0 154 153 0 152 151 151 0 151 0 0 0 0 0 0 0 152 0 151 0 152 152 152 0 152 152 0 0 154 154 0 0 0 154 154 0 154 153 152 152 152 0 0 0 151 151 0 153 0 0 154 0 154 0 0 0 0 152 152 155 157 0 0 149 144 0 0 0 0 0 0 0 0 0 0 0 0 0 0 0 0 0 0 0 155 154 154 153 0 0 153 152 152 152 152 153 0 0 0 0 0 0 149 148 0 147 0 145 0 144 0 0 0 144 144 0 144 144 0 0 144 0 144 144 144 145 146 146 0 147 147 0 148 0 148 147 146 0 0 146 146 0 147 0 147 0 0 147 0 0 148 0 147 0 146 145 145 145 146 147 0 147 148 0 149 0 0 148 149 0 0 0 0 0 145 146 0 146 0 0 144 144 0 143 0 144 0 0 143 144 0 0 0 0 145 0 146 0 0 149 0 151 152 154 0 0 0 0 169 171 0 175 176 0 0 0 164 156 155 154 155 0 159 163 167 0 0 175 0 179 0 0 181 0 182 183 0 0 185 0 186 186 186 0 189 190 0 0 0 0 198 198 0 0 0 0 0 0 0 0 0 0 0 0 198 0 0 0 0 0 0 0 0 197 0 0 0 0 0 0 0 196 0 0 197 0 196 196 196 196 0 196 0 0 195 0 0 0 195 195 195 0 194 194 0 0 0 0 0 195 194 194 193 0 194 0 193 0 0 193 193 193 0 0 194 0 193 192 192 192 0 0 0 0 0 0 191 192 0 0 0 0 190 194 205 0 222 0 0 0 203 197 196 196 196 196 196 196 198 0 0 202 0 0 205 0 0 0 203 199 198 196 0 0 191 190 0 0 0 185 0 182 181 0 0 0 0 147 143 0 0 132 0 120 119 118 122 0 0 123 122 123 125 0 129 0 0 131 122 119 119 0 0 124 0 0 0 126 125 125 124 124 124 124 123 122 0 119 115 114 0 114 111 111 110 112 114 0 0 0 116 0 114 115 0 117 0 122 0 123 122 0 0 125 0 0 123 124 0 0 131 126 126 126 0 0 125 124 123 0 0 126 0 0 126 129 0 135 138 141 0 0 0 0 0 0 152 152 154 0 0 156 0 160 0 166 182 0 0 0 0 0 212 213 0 0 0 0 0 213 0 0 214 214 0 0 0 214 214 0 0 0 0 0 0 215 215 0 215 215 214 0 217 222 0 0 0 237 0 0 243 244 245 0 0 0 247 247 0 248 248 248 248 
0 0 0 207 199 0 189 188 0 186 186 187 0 0 194 0 0 203 0 207 0 0 0 0 209 209 0 0 207 0 0 0 156 134 125 123 0 0 0 0 0 113 113 0 0 0 0 0 0 0 112 111 0 0 0 119 122 127 132 0 0 0 0 146 0 0 0 0 0 0 148 147 146 144 143 141 139 0 134 132 131 132 138 0 0 0 0 0 0 0 0 0 0 0 150 150 151 152 0 0 0 153 0 0 151 151 0 0 0 152 0 153 153 153 0 0 154 0 155 154 0 154 154 154 0 0 152 0 151 0 0 151 150 151 0 153 0 153 0 0 0 0 153 0 152 152 0 0 0 0 146 137 140 0 0 0 0 0 0 0 0 0 0 0 0 152 153 156 0 0 0 156 0 154 154 154 0 153 152 152 0 151 0 0 153 0 152 151 0 0 149 148 147 0 145 144 0 144 144 143 0 144 0 0 144 144 144 144 0 143 143 144 0 0 0 145 0 146 147 0 0 148 147 146 146 146 146 145 0 0 0 146 146 0 147 147 0 0 147 0 146 146 0 145 146 0 147 0 147 0 0 149 0 0 0 0 148 148 147 0 0 146 0 0 146 0 144 144 144 0 143 143 0 0 0 144 0 0 0 144 144 0 145 0 0 0 148 148 149 0 154 0 0 166 0 170 171 0 175 176 0 0 0 159 155 153 154 0 0 161 164 0 0 174 176 0 180 0 0 180 181 0 183 0 0 185 0 186 0 0 188 0 190 0 0 197 0 198 0 0 199 199 199 199 199 0 0 198 0 0 198 198 0 198 0 198 0 198 197 197 197 0 197 0 0 197 197 197 0 0 0 197 0 197 0 0 0 0 196 196 0 195 195 0 0 0 0 195 194 194 194 194 0 195 195 0 194 0 194 194 194 0 0 193 193 0 193 0 192 0 193 192 193 0 0 192 192 192 192 0 0 0 191 189 189 189 191 0 0 193 192 196 205 0 0 0 0 217 201 197 197 197 0 196 196 200 0 201 200 202 204 0 0 0 0 0 199 0 195 194 193 0 0 189 188 187 186 0 182 181 0 0 0 0 151 145 0 0 132 126 120 119 120 0 124 0 122 121 124 0 0 0 0 0 128 122 117 115 0 0 123 122 123 124 126 0 126 125 123 124 0 123 122 121 118 116 115 0 0 0 114 0 0 0 0 0 0 115 114 115 115 0 117 118 121 0 0 123 126 0 0 124 0 124 125 0 0 132 127 125 0 128 0 0 122 122 0 125 125 0 0 128 126 130 131 134 135 132 138 0 0 0 0 0 151 150 156 0 159 161 159 163 169 184 0 0 0 212 212 212 213 0 213 215 0 0 213 213 0 213 214 0 0 214 214 0 0 214 214 0 0 0 214 215 0 0 0 215 0 217 222 0 231 0 237 0 0 243 244 245 246 0 247 247 247 0 0 248 248 248 
0 0 0 206 199 194 190 0 187 186 186 186 188 190 193 0 200 202 0 0 0 207 208 0 209 0 0 209 0 0 0 0 0 139 129 125 122 121 0 0 0 116 116 116 0 0 112 111 112 113 114 0 112 114 0 0 0 0 132 137 141 144 0 146 0 148 148 0 0 0 148 0 0 0 144 0 141 0 0 135 133 131 132 134 140 0 0 0 0 0 0 0 149 0 149 0 150 151 0 0 153 0 0 150 150 150 151 152 0 0 153 0 0 153 153 0 0 0 0 0 0 0 0 0 0 0 152 0 150 0 0 0 150 150 0 0 0 151 0 150 151 0 151 0 150 0 153 0 0 0 142 133 134 0 0 0 150 0 0 0 0 0 0 0 0 148 150 153 0 158 0 155 0 154 0 0 0 153 0 0 0 151 0 152 152 0 152 151 150 0 0 149 0 147 145 144 0 143 143 0 0 143 143 0 0 143 143 144 0 144 0 0 144 0 0 145 145 0 146 0 0 0 0 0 146 0 0 145 0 146 146 0 146 146 147 147 147 0 146 146 146 146 0 145 0 0 147 147 147 0 0 149 149 148 0 148 148 0 147 147 0 145 145 0 145 0 144 0 0 143 0 143 143 143 144 144 144 144 144 143 144 144 145 146 0 0 0 147 148 150 154 0 0 166 0 170 172 0 176 0 0 0 162 156 155 154 155 0 160 163 0 0 0 174 0 0 0 0 180 0 0 0 183 183 184 185 0 0 0 0 188 0 191 193 0 0 198 198 0 199 199 199 199 199 199 0 198 0 0 0 198 198 198 197 197 198 0 197 197 197 0 0 197 0 0 197 0 197 0 197 197 197 0 0 197 197 0 0 196 0 196 195 195 0 0 0 0 195 195 0 0 194 0 0 0 0 194 0 194 194 0 195 0 194 193 193 0 193 192 192 192 192 193 0 0 192 0 192 191 192 192 0 0 188 188 188 189 0 0 0 193 193 197 207 216 0 0 0 215 200 198 0 0 197 199 0 0 199 199 201 0 0 0 0 204 0 199 0 195 193 192 0 191 0 0 0 0 0 0 0 0 0 0 0 158 149 143 142 134 127 121 118 120 0 0 0 121 121 0 0 126 129 0 130 0 120 114 115 0 0 0 0 0 0 0 0 0 0 0 124 0 124 0 0 119 116 116 0 0 117 0 0 0 0 118 118 0 113 113 0 0 0 117 118 0 0 0 126 126 0 0 127 0 125 126 0 0 132 126 124 0 0 0 0 123 122 0 0 125 126 0 0 127 129 0 0 131 130 132 134 138 0 0 0 0 152 0 0 0 0 160 158 173 0 0 0 0 212 0 212 212 0 214 0 0 214 213 213 0 214 0 0 0 215 0 0 0 0 214 0 214 0 0 215 215 0 0 215 214 218 222 0 231 0 0 0 0 243 244 245 246 0 247 247 247 247 0 248 248 248 
0 0 217 205 199 196 192 190 188 186 186 185 187 189 192 0 0 201 0 204 205 0 0 208 0 0 0 209 0 207 0 0 0 144 131 128 125 122 0 0 120 0 0 117 115 0 113 112 114 0 0 0 114 113 114 0 0 0 133 137 0 0 0 0 0 148 0 0 0 0 149 0 0 146 0 0 143 142 0 0 0 135 133 132 134 136 141 143 0 0 0 0 146 147 0 0 0 150 151 0 0 151 0 150 150 150 0 0 152 0 0 153 153 153 153 152 153 153 154 0 0 0 153 153 153 0 152 0 150 0 150 149 0 149 149 0 149 149 148 149 149 0 149 149 149 149 151 0 0 0 0 134 129 132 0 141 0 0 0 138 132 123 119 128 139 0 149 152 0 0 156 155 155 154 0 153 0 153 152 152 0 151 0 152 0 0 0 0 0 150 150 0 0 147 146 145 143 143 143 143 143 143 143 0 143 143 143 0 0 0 0 143 144 143 144 0 144 0 0 146 0 0 0 146 0 145 145 0 0 145 0 145 145 0 0 0 0 146 146 146 146 0 145 146 146 146 0 0 147 0 148 0 0 0 0 148 148 0 0 0 146 145 144 0 144 144 144 0 144 0 0 144 144 144 0 144 0 144 0 144 144 144 145 146 147 0 146 0 0 149 154 0 0 166 0 169 172 0 0 0 0 167 157 154 0 155 156 158 0 165 0 0 172 175 0 0 180 0 180 0 181 0 0 183 0 0 185 186 0 187 187 189 191 0 0 0 198 0 0 199 199 199 199 199 199 0 0 0 199 0 0 0 0 0 0 0 197 197 197 197 0 197 197 197 197 196 0 197 0 0 197 197 197 0 0 197 196 0 196 0 0 196 0 195 195 0 195 195 195 0 195 0 194 195 195 194 194 0 0 194 0 195 0 194 0 194 0 193 193 193 0 193 0 0 0 0 192 0 192 0 191 191 0 0 187 188 188 190 0 0 0 193 193 198 208 218 0 0 0 212 199 197 0 197 0 0 199 198 198 201 0 0 0 0 203 200 197 196 0 194 192 192 191 0 0 187 0 185 0 0 0 0 0 0 0 0 149 142 137 129 124 121 123 0 124 121 122 124 0 124 127 0 0 0 123 116 113 0 0 119 0 0 0 0 0 125 125 0 124 123 0 0 0 122 0 118 116 0 118 0 0 0 0 117 116 0 0 0 114 0 0 118 0 118 122 126 0 129 128 0 0 127 125 125 126 0 0 0 126 125 0 128 0 0 123 122 122 123 0 0 127 0 128 129 0 130 128 128 128 0 132 135 141 0 0 0 0 0 0 0 163 164 177 0 199 0 0 212 0 0 213 0 213 0 0 212 212 212 213 214 214 215 0 215 214 0 215 215 0 214 214 214 0 215 215 215 215 0 214 217 222 0 231 0 0 0 0 243 244 245 246 0 247 247 247 247 0 248 248 248 
0 0 216 207 202 199 0 195 192 189 186 184 186 188 191 0 0 200 201 202 203 0 0 207 208 208 0 208 0 207 0 0 0 149 136 133 0 126 0 0 0 0 0 0 115 115 0 114 0 118 0 0 115 114 114 117 124 0 0 138 0 144 146 147 0 0 0 149 0 0 0 149 148 0 0 146 145 0 0 0 0 0 137 136 136 135 136 137 138 138 137 138 142 0 0 0 149 0 150 150 0 150 0 0 0 0 150 0 0 151 0 152 152 0 0 0 152 152 153 153 154 0 154 0 153 153 0 0 150 0 0 149 0 148 0 0 0 0 147 0 148 0 0 0 0 148 149 0 0 0 0 0 134 130 131 134 136 135 131 127 123 117 112 119 133 144 0 0 0 156 156 0 0 0 0 153 153 0 152 151 151 151 0 152 152 0 152 0 151 149 150 0 149 148 0 146 145 0 143 143 0 0 142 143 143 143 0 0 143 143 0 144 0 0 144 0 0 0 0 144 145 0 146 145 145 0 144 0 0 145 145 0 0 0 146 146 0 0 0 146 145 0 0 0 146 146 146 146 147 147 147 147 148 148 148 0 0 147 147 146 145 0 145 145 145 0 145 0 0 0 0 0 0 0 144 144 0 144 144 0 0 0 145 146 0 146 145 146 147 149 0 0 0 0 167 169 0 0 0 0 0 161 155 154 0 155 156 0 163 166 0 0 173 0 0 0 180 180 180 0 181 182 182 183 0 184 185 0 186 187 188 0 0 0 0 0 0 198 0 0 0 199 199 199 199 199 199 199 0 0 0 198 0 197 0 0 197 197 197 197 197 197 0 0 197 0 0 0 0 196 0 0 196 0 0 0 196 196 196 0 0 0 196 196 196 195 195 0 0 195 195 195 195 0 0 0 194 0 0 0 0 0 194 194 194 0 0 194 0 193 0 0 192 192 192 192 192 0 0 192 0 190 189 188 0 0 0 188 190 0 0 193 191 192 199 210 0 0 0 0 207 198 197 199 0 0 197 197 198 0 0 0 0 0 202 199 197 195 0 0 193 192 0 188 187 0 186 0 183 0 181 0 0 0 0 163 0 0 0 136 131 132 133 131 127 124 124 0 0 123 0 0 0 124 120 117 0 0 113 113 116 116 119 120 122 123 123 122 123 0 0 0 0 0 0 0 0 0 0 0 116 0 116 116 117 0 115 114 113 115 0 118 118 0 121 125 0 0 0 131 0 0 125 123 127 0 0 132 127 123 0 128 0 0 124 123 122 122 124 0 126 0 130 0 0 129 128 127 125 128 130 0 134 137 143 0 0 0 153 158 0 173 0 0 198 0 0 213 212 212 213 0 213 0 213 212 0 213 0 0 214 214 215 215 214 214 0 0 0 214 214 0 0 0 0 214 214 0 215 216 0 0 0 0 237 0 0 243 244 245 246 0 247 247 247 247 0 248 248 248 
0 0 215 207 205 203 202 200 0 194 188 185 185 188 191 0 0 0 0 201 202 0 0 207 207 0 207 0 207 0 0 0 0 154 142 0 0 0 122 121 120 120 119 0 0 0 0 0 0 0 0 0 0 0 116 116 123 0 0 0 0 0 146 147 148 148 148 149 0 149 0 0 0 148 0 0 0 145 144 143 143 0 0 0 0 139 139 139 140 139 138 139 142 145 0 0 148 149 149 0 0 149 149 149 0 149 149 150 0 0 151 151 151 152 152 0 0 153 0 0 154 154 0 0 0 153 0 151 151 0 0 148 147 146 0 0 143 144 145 0 146 0 146 146 147 148 0 0 150 149 0 0 0 0 135 136 136 135 135 0 0 133 129 131 137 146 152 0 0 156 156 0 155 0 154 153 153 0 0 152 0 0 151 0 152 0 152 151 0 150 0 0 149 148 148 0 146 0 143 143 143 143 143 0 143 0 0 143 0 142 143 0 144 143 0 144 0 144 143 143 0 144 0 0 145 0 144 144 144 145 145 145 0 0 146 0 0 0 146 146 0 0 0 0 0 146 146 146 147 0 0 147 0 0 0 147 147 147 0 146 0 0 0 0 0 0 145 0 0 0 143 0 144 144 143 144 0 144 143 144 144 0 146 146 146 146 146 0 0 149 153 0 0 165 166 169 0 0 0 0 164 156 153 154 0 0 158 161 164 0 0 171 174 177 0 0 180 0 0 181 0 0 182 182 0 0 185 185 186 187 188 189 189 191 193 0 0 0 0 198 0 0 0 199 199 199 199 199 0 198 198 197 197 197 0 0 197 197 197 197 196 197 197 197 197 0 196 196 0 196 0 0 196 196 196 197 0 0 196 196 0 0 0 0 0 0 196 196 196 196 0 195 0 0 0 0 194 194 194 194 193 193 194 0 193 194 194 0 0 193 0 0 193 0 192 192 192 0 192 192 0 0 189 188 187 188 0 187 186 189 0 0 190 189 193 201 212 222 0 0 0 203 198 0 0 196 194 195 0 0 199 202 0 0 0 0 0 196 0 0 193 0 0 0 186 0 0 0 181 180 180 0 177 175 0 0 161 0 0 145 0 0 0 0 131 126 124 0 123 123 0 0 124 120 0 0 0 112 112 0 0 114 118 120 0 124 124 124 0 0 124 123 120 119 118 116 0 0 115 114 114 115 116 0 0 116 115 114 115 116 117 0 117 0 124 126 0 0 0 132 0 0 129 126 128 0 0 0 127 122 0 0 0 0 126 123 122 0 0 124 125 127 131 0 0 131 129 0 126 125 127 0 129 134 0 141 142 144 151 160 170 177 0 0 201 0 0 213 212 213 0 0 0 0 213 213 213 0 214 0 0 0 0 215 214 214 215 0 214 0 0 215 0 214 214 214 214 214 215 216 221 0 231 0 0 0 0 243 244 245 246 0 247 247 247 247 0 248 248 248 
0 221 212 209 0 0 0 0 0 0 0 188 186 188 190 0 0 198 199 200 202 204 0 206 0 0 0 0 0 0 0 0 0 160 146 139 134 128 123 122 121 0 0 0 0 114 113 0 0 0 119 0 0 0 119 119 124 131 0 0 0 0 0 0 148 148 148 149 0 0 149 149 0 0 0 148 147 146 0 0 0 0 0 0 0 0 143 0 0 0 0 0 0 145 146 0 148 0 0 149 149 0 148 148 0 149 0 149 149 150 150 150 151 0 152 152 0 153 0 0 0 0 153 153 153 0 153 0 0 0 149 0 145 143 142 142 141 142 143 0 143 144 143 145 146 0 149 0 150 150 0 0 0 0 0 140 139 138 141 145 149 152 152 153 0 0 0 0 0 156 0 0 155 0 154 0 153 152 0 152 0 0 151 0 0 0 0 0 150 149 149 0 0 0 0 0 147 146 0 143 143 143 143 0 143 0 0 142 0 142 0 0 0 0 143 0 144 0 0 143 143 143 0 0 0 0 0 0 0 0 145 145 145 145 145 146 146 0 0 145 146 0 145 0 146 146 0 0 147 0 0 0 147 0 0 146 146 0 0 0 145 145 0 0 145 145 145 0 144 143 143 0 0 0 0 0 0 143 143 0 144 0 0 0 146 146 146 0 147 147 151 0 0 165 167 169 172 0 0 0 158 153 153 153 154 157 0 162 166 0 171 172 0 0 0 0 180 0 181 181 181 0 182 182 0 0 0 186 0 0 188 189 0 190 191 193 0 196 0 0 0 198 199 199 199 199 199 199 0 0 198 197 197 197 0 198 0 0 197 0 197 197 0 197 0 196 0 0 0 0 0 0 0 196 0 0 0 196 196 196 196 196 0 0 196 0 0 0 196 0 0 196 196 196 0 0 195 0 194 194 193 193 194 194 194 194 193 0 0 193 193 0 193 0 192 0 0 192 192 192 0 191 0 0 189 0 187 0 186 187 189 0 0 190 188 194 0 0 0 0 0 0 199 0 0 193 192 192 194 0 198 200 201 200 0 0 0 197 196 194 193 191 190 0 187 186 0 0 182 180 179 0 176 173 0 0 162 158 0 152 0 0 0 0 134 129 126 0 124 124 0 0 120 118 117 0 112 112 0 114 113 117 119 121 124 0 0 0 0 123 122 0 0 0 117 116 115 114 114 115 0 0 0 115 115 115 0 0 0 117 0 0 119 0 0 127 0 0 131 133 0 0 0 127 129 132 0 0 127 121 0 129 0 0 125 122 122 0 0 124 0 0 129 0 133 0 130 128 128 128 0 126 127 0 0 139 139 143 154 0 0 181 187 0 199 0 0 214 0 0 0 0 213 0 0 213 213 0 213 0 0 216 0 215 214 0 0 215 214 214 0 0 0 214 214 0 0 214 215 217 0 0 0 234 0 240 0 243 244 245 246 0 247 247 247 0 0 248 248 248 
0 217 213 0 0 0 0 0 0 0 0 194 189 188 190 193 196 198 0 0 0 0 205 0 0 0 205 0 0 205 0 0 0 164 149 140 134 129 0 0 0 121 119 0 0 113 111 112 0 0 0 120 121 0 122 122 126 132 0 141 144 0 147 148 0 0 0 0 149 149 0 148 148 0 0 0 0 0 145 0 0 0 0 145 0 0 0 0 0 0 0 0 146 0 146 147 147 0 0 0 0 147 147 147 0 0 0 0 148 149 0 0 150 0 0 0 0 0 0 0 153 0 0 0 0 0 153 0 0 150 0 0 144 142 141 140 140 0 142 142 142 143 143 144 145 147 149 0 150 0 0 149 0 0 0 145 146 157 0 0 0 0 0 0 0 0 158 157 0 156 0 155 0 155 154 0 0 153 0 0 151 151 0 0 151 150 0 149 149 149 0 149 149 148 148 148 0 0 0 144 0 0 143 142 0 0 142 141 141 142 142 142 143 142 142 0 143 0 0 143 143 143 143 143 144 0 0 144 144 0 144 0 145 145 0 0 0 0 145 145 145 0 145 0 145 146 0 146 0 147 147 147 0 0 0 146 0 0 145 145 145 145 145 144 0 0 0 0 144 143 143 142 0 0 143 143 0 143 0 144 0 0 145 146 0 0 147 147 147 150 154 0 0 165 167 0 0 0 0 162 155 153 153 0 156 158 161 164 167 0 171 173 0 0 179 0 0 0 181 181 0 182 0 0 184 185 186 187 0 0 0 0 0 0 191 192 193 194 195 0 0 198 0 0 199 199 199 199 0 0 0 197 197 197 0 198 198 198 197 0 198 0 197 197 197 197 0 0 197 197 0 196 0 0 0 197 197 196 0 0 196 0 0 196 0 196 196 0 0 196 0 196 0 196 195 195 0 195 0 194 0 0 0 0 0 0 194 193 193 193 192 0 192 192 192 191 191 0 192 192 0 191 0 0 0 0 187 186 186 187 187 190 0 0 188 189 197 0 0 0 0 0 207 191 0 191 0 191 0 0 0 0 0 199 199 0 0 0 0 0 193 0 189 188 187 186 0 184 0 0 178 0 0 173 0 0 0 158 0 0 0 151 145 0 0 0 129 0 125 124 0 122 119 117 0 115 113 113 114 0 0 0 0 124 126 0 127 125 0 0 122 120 0 119 117 0 113 112 0 0 0 0 114 113 114 115 116 0 117 118 0 118 119 122 0 0 0 131 131 0 0 0 0 129 128 131 0 0 0 122 126 0 0 0 124 0 121 0 0 123 123 126 129 131 131 0 0 0 130 0 128 126 130 0 136 135 144 152 0 0 0 0 0 190 198 0 0 0 0 0 0 212 212 211 212 0 0 0 0 0 0 0 0 0 214 0 0 0 214 214 0 214 214 0 0 0 214 214 215 217 221 226 0 0 0 240 0 243 244 245 246 0 247 247 247 247 0 248 248 248 
0 217 0 0 214 0 212 0 0 0 0 0 194 190 191 0 196 0 0 0 203 0 204 0 0 204 204 204 0 0 0 0 0 167 153 144 137 130 127 0 0 0 119 0 116 113 112 112 115 116 118 0 0 0 0 0 129 132 0 142 0 0 147 0 149 149 149 0 0 149 0 148 148 0 0 0 0 146 146 145 146 0 146 146 146 0 0 147 147 147 0 146 0 0 147 147 148 0 148 147 0 146 147 147 147 0 0 0 148 148 149 0 149 150 0 0 0 0 151 151 152 0 153 0 153 153 0 0 0 149 148 146 0 0 0 140 140 141 141 142 0 143 143 144 0 0 0 0 150 151 0 149 148 0 146 147 157 0 0 0 0 0 0 0 173 164 159 0 157 156 155 155 0 155 0 0 154 153 152 152 0 151 0 151 0 150 0 150 149 149 149 149 0 0 148 148 0 147 146 145 0 0 143 0 0 142 141 0 0 142 142 0 0 0 141 142 0 0 143 0 0 0 142 0 143 0 0 144 143 144 0 0 145 145 0 145 145 0 0 145 144 0 0 145 0 0 146 146 146 146 0 146 145 146 146 0 145 144 144 0 145 0 0 144 144 144 143 0 0 0 143 143 0 142 0 0 143 143 0 144 0 0 144 145 0 0 0 147 148 0 0 0 0 165 167 170 0 0 0 156 153 153 153 155 0 0 163 0 0 0 172 0 0 178 179 0 180 0 0 0 181 182 0 184 0 185 186 0 0 188 188 188 188 190 0 0 191 192 194 196 0 0 199 0 199 199 0 199 0 198 0 0 198 198 198 198 0 0 198 0 0 0 197 197 0 0 196 197 197 0 0 0 0 196 197 197 0 0 0 0 0 0 0 196 0 0 196 196 196 196 0 197 0 0 196 196 0 195 0 0 195 195 0 195 0 194 194 0 193 193 193 0 192 0 0 191 191 0 192 192 0 192 0 0 190 189 188 187 0 0 188 0 190 0 0 187 190 197 0 216 0 0 0 186 0 188 0 0 0 0 0 0 0 0 0 0 0 196 0 0 0 191 188 187 0 0 0 183 182 0 0 0 175 0 0 166 162 158 157 0 0 149 143 0 0 0 130 0 0 0 0 121 118 117 0 0 113 114 114 117 120 122 125 127 129 0 0 126 125 124 0 120 120 119 118 0 111 110 0 113 113 113 114 114 114 0 117 118 0 118 0 120 120 121 124 0 0 0 0 131 132 0 0 0 128 129 0 0 0 124 0 0 0 0 122 119 119 120 121 122 122 125 128 0 0 0 0 0 0 131 129 130 135 141 136 140 0 0 0 0 176 180 184 188 0 0 0 212 0 209 207 0 0 212 212 0 212 212 212 213 213 214 0 0 214 214 215 214 214 214 214 0 0 0 215 214 0 214 214 217 0 0 0 0 0 240 0 243 244 245 246 0 247 247 247 247 0 248 248 248 
0 217 216 0 0 0 0 212 0 210 208 0 199 193 193 195 197 0 0 0 0 0 0 0 0 0 0 202 202 202 0 0 0 170 155 148 141 134 131 127 124 122 119 0 0 114 0 114 0 0 117 0 0 122 0 0 0 135 139 0 0 0 148 0 149 0 148 149 149 149 0 148 148 0 148 148 0 147 0 0 146 146 146 146 147 148 148 148 0 0 0 0 0 147 147 148 0 148 0 147 147 0 0 147 146 0 146 147 0 0 148 0 0 149 150 150 149 150 150 150 151 151 152 152 0 0 152 151 150 149 0 146 144 143 142 0 0 141 141 0 0 0 0 144 145 146 148 0 0 0 150 0 148 0 146 147 161 0 0 0 197 0 0 0 177 166 161 159 157 156 155 155 0 154 0 0 154 0 0 152 152 0 151 150 150 150 0 0 0 149 0 0 0 148 148 148 0 147 0 146 145 144 143 0 142 142 142 142 142 0 142 0 142 141 141 141 142 142 142 0 142 142 142 141 142 0 0 0 0 144 144 144 144 0 0 144 0 145 0 0 144 145 0 0 0 145 145 0 146 146 146 146 146 0 146 0 145 0 144 144 0 0 144 144 0 143 143 143 0 0 143 0 0 142 0 142 142 0 143 0 0 0 144 0 146 147 0 0 148 150 154 159 0 0 166 0 0 0 158 153 152 0 153 156 159 0 0 0 0 171 0 0 0 0 179 0 180 0 181 0 182 0 183 184 0 185 185 187 188 0 0 0 189 189 0 0 0 192 193 195 0 0 198 0 199 199 199 199 199 199 199 199 0 0 0 0 0 0 0 0 199 0 0 198 0 0 0 0 197 196 0 197 197 197 0 197 197 197 197 197 197 197 197 0 196 0 0 0 196 196 0 197 0 0 0 0 0 196 0 196 0 0 195 0 195 194 194 0 193 0 0 0 193 192 0 0 192 0 192 192 0 192 0 191 191 190 189 188 0 0 187 187 0 0 0 188 189 190 197 207 0 0 199 182 0 0 0 0 0 0 0 0 0 0 0 0 0 0 0 0 0 0 189 0 186 0 184 182 181 0 0 0 174 0 0 0 161 158 0 153 0 0 0 140 0 0 131 130 128 0 123 119 117 0 115 114 113 115 118 122 125 128 0 0 0 0 130 127 126 126 0 122 122 0 0 115 111 0 0 112 112 113 0 114 114 116 0 119 0 119 121 0 121 121 125 0 0 0 130 129 130 0 0 0 130 128 0 0 0 125 128 0 0 0 123 0 121 120 0 122 122 125 0 0 0 0 0 0 133 0 130 133 0 0 0 0 153 159 0 0 0 178 182 191 0 0 0 0 207 206 205 0 0 211 0 0 211 209 212 0 0 214 213 212 213 0 0 215 214 213 0 214 215 0 0 214 214 0 215 217 0 0 231 0 0 0 0 243 244 245 0 0 0 247 247 0 0 248 248 248 
216 216 0 216 216 216 0 214 213 212 0 0 0 198 196 197 198 199 200 201 0 0 0 201 0 0 0 201 0 200 0 0 0 174 159 150 146 142 136 130 125 122 120 118 115 115 0 115 114 0 116 118 120 123 125 129 0 0 0 144 146 0 0 149 0 0 149 0 0 149 0 148 148 148 0 147 147 0 147 0 0 146 146 147 148 0 0 149 0 148 0 0 148 0 0 0 0 148 148 0 0 0 0 0 146 0 0 146 0 0 147 147 148 148 0 0 149 0 0 150 0 0 0 151 0 0 0 0 149 0 0 0 144 143 142 142 142 142 0 0 0 144 144 144 144 146 0 149 0 0 150 0 147 146 145 145 161 0 0 0 197 0 0 0 0 170 162 160 0 157 155 0 0 155 154 0 154 153 152 152 0 0 151 0 150 150 150 149 149 0 148 148 148 148 148 148 0 147 147 0 0 0 144 143 0 0 0 142 0 141 141 0 141 141 141 0 0 0 142 0 141 0 0 141 141 142 142 143 0 143 0 143 143 144 144 144 0 0 0 144 144 0 0 144 144 144 145 0 0 0 0 0 0 0 0 145 144 0 144 144 144 0 0 143 0 0 143 142 142 0 142 0 142 142 142 142 142 0 0 143 143 144 143 0 145 146 0 0 149 149 153 0 0 0 167 0 0 162 153 152 152 153 154 0 0 163 0 167 169 171 0 0 0 179 0 0 180 0 181 181 0 183 0 0 185 0 0 187 187 0 0 189 0 189 0 191 0 191 0 194 0 197 198 0 199 199 199 199 199 0 0 199 199 199 0 199 199 199 199 199 199 199 0 0 198 197 198 198 197 197 197 197 197 0 0 197 197 197 197 197 197 197 0 197 197 0 0 196 196 196 196 196 0 196 196 196 0 0 0 196 196 0 195 0 0 195 194 0 194 0 193 0 193 0 0 0 0 192 192 192 192 192 0 0 0 0 0 188 188 187 186 186 187 189 190 191 0 192 192 198 0 0 186 181 0 0 0 167 167 0 164 164 165 0 0 0 0 0 0 0 0 0 0 187 185 0 182 181 180 179 0 176 173 0 167 164 160 0 0 148 148 0 143 139 134 132 131 0 0 0 122 119 118 116 112 116 118 122 0 0 0 0 0 0 0 0 0 0 0 0 0 0 0 0 119 114 111 112 0 113 112 112 113 0 115 0 0 120 121 0 122 0 121 121 0 130 132 0 129 128 130 0 0 0 0 128 0 0 0 126 0 0 0 123 124 0 122 121 122 0 123 125 0 0 130 129 132 0 131 0 133 133 148 0 0 0 149 153 0 0 174 0 0 0 0 203 0 204 203 205 0 0 0 0 0 0 209 211 0 0 0 0 213 213 213 0 0 0 0 0 0 0 215 0 214 214 215 0 216 217 221 0 231 0 237 0 0 243 244 245 0 246 0 247 247 0 0 248 248 248 
215 216 0 0 0 216 216 0 0 0 0 0 0 201 199 0 199 0 200 200 200 200 199 199 199 199 0 199 199 199 199 0 0 0 166 158 0 0 0 135 130 127 0 121 117 116 116 0 113 112 113 117 121 0 127 129 133 0 0 0 0 148 149 0 0 0 150 0 0 0 149 148 147 0 0 146 147 147 146 147 0 147 0 0 0 0 0 0 0 149 148 148 0 149 149 149 0 0 148 0 147 0 147 146 146 146 146 146 146 146 147 147 147 0 147 0 147 148 0 149 0 150 150 150 150 150 0 150 149 148 0 0 0 143 142 0 0 0 0 0 0 0 0 144 144 0 0 0 149 149 0 0 146 145 145 145 161 0 0 0 0 197 0 0 0 174 165 162 0 157 156 0 0 155 0 154 0 153 152 151 0 151 151 151 0 0 150 149 149 0 148 147 148 148 0 148 0 0 147 0 0 0 0 143 142 0 0 142 141 141 0 0 141 0 141 0 141 0 0 141 141 0 0 141 141 0 0 142 0 0 143 0 143 144 0 144 144 144 0 143 144 0 144 144 144 0 0 145 145 145 145 145 145 145 0 0 0 144 0 0 0 143 142 142 143 143 0 0 142 142 142 142 142 142 0 142 142 142 142 0 0 0 144 0 144 145 146 0 0 150 152 0 162 166 0 0 0 154 152 152 153 153 155 157 0 0 0 167 169 173 0 0 0 179 0 180 0 181 181 182 0 183 0 184 185 186 0 187 187 188 0 189 0 190 0 191 191 191 0 193 194 196 0 0 199 199 199 0 199 0 0 199 199 199 0 199 199 199 199 199 199 199 199 199 0 0 0 0 0 0 0 198 0 0 198 0 0 0 197 197 197 197 0 0 197 197 0 196 196 196 0 195 195 0 196 196 196 196 196 0 0 0 0 0 0 195 0 0 0 194 193 0 193 193 193 193 193 0 0 192 192 191 0 191 191 0 190 189 188 187 0 0 186 188 0 0 0 0 191 193 0 0 183 178 0 0 165 154 150 148 146 144 145 148 152 156 161 169 0 0 0 0 0 0 185 0 181 0 179 177 0 0 0 0 166 0 0 0 0 147 147 0 0 138 135 134 0 0 0 0 123 0 120 119 0 0 125 0 0 0 0 0 0 0 0 0 0 0 0 0 0 0 0 0 0 0 113 112 113 0 0 112 0 0 116 0 119 0 0 123 124 0 123 124 0 0 131 0 129 127 0 130 131 0 0 128 127 128 0 128 128 0 0 122 124 0 123 122 0 0 123 0 0 130 0 128 129 130 131 0 134 138 0 0 152 143 147 0 0 166 167 176 0 0 0 198 200 0 0 0 0 206 205 207 207 209 0 212 0 213 213 0 0 213 214 214 0 0 0 214 214 215 0 215 215 215 0 216 0 218 221 0 231 0 0 0 0 243 244 245 0 246 0 247 247 247 0 248 248 248 
214 0 0 216 216 0 0 216 0 215 0 0 207 202 200 200 200 0 0 199 0 0 198 0 197 0 198 0 0 0 0 0 0 184 176 0 0 0 0 140 133 0 0 0 122 119 118 0 0 115 116 120 0 0 0 131 135 0 0 147 0 149 149 0 149 149 0 0 0 150 0 0 148 0 147 146 0 0 0 147 147 147 0 148 148 149 149 0 0 0 149 149 0 149 0 0 0 0 0 146 146 0 0 0 145 0 146 0 0 0 0 0 0 0 0 146 145 147 148 148 149 149 149 148 148 149 0 149 149 148 148 0 144 143 143 0 0 142 141 141 0 0 0 0 0 0 0 0 0 0 147 0 0 0 145 145 161 0 0 0 0 196 0 0 0 0 167 162 0 158 156 156 156 155 0 154 0 153 0 152 152 152 0 151 151 0 150 0 149 0 0 148 0 148 148 148 0 147 146 0 0 146 0 0 143 0 142 0 0 141 141 0 0 0 141 141 141 141 141 141 141 0 0 0 141 141 0 141 141 142 142 0 0 0 0 0 144 144 0 144 144 0 143 144 0 144 144 0 144 144 0 0 144 144 144 144 0 0 143 143 143 143 0 142 0 0 142 142 0 142 142 142 142 141 0 0 141 0 142 0 143 143 0 0 143 144 145 146 0 0 152 156 0 0 0 0 158 152 152 0 0 154 154 158 161 0 0 167 171 0 0 178 179 179 179 180 181 0 0 182 0 0 184 184 185 186 187 187 187 188 0 189 190 0 0 0 0 0 192 192 0 0 197 0 0 199 199 0 0 199 0 0 199 199 0 0 0 199 199 199 199 199 0 0 0 199 199 0 198 0 0 0 0 198 198 0 0 0 197 0 0 0 0 0 0 0 197 0 196 196 0 195 196 0 0 196 196 0 195 195 0 0 195 0 195 195 194 195 0 194 194 0 193 0 193 0 193 193 193 193 0 0 0 0 0 191 0 189 0 187 187 0 186 187 188 0 0 190 187 187 194 0 182 175 0 0 160 150 144 138 137 136 138 141 143 145 149 151 157 165 172 0 0 0 0 0 181 0 177 176 175 0 0 0 166 163 159 155 0 148 0 0 0 0 0 0 133 0 0 127 124 0 0 0 0 0 0 0 0 0 0 0 129 127 126 126 124 121 120 119 120 120 120 120 0 116 114 113 113 114 114 113 0 115 116 118 0 121 0 123 0 0 124 0 0 0 130 0 128 126 0 129 0 130 0 129 126 127 0 128 0 0 0 124 0 0 0 123 0 123 123 127 0 128 0 128 0 130 0 0 137 0 0 0 149 140 144 151 0 0 161 0 180 185 188 0 0 0 201 0 0 0 203 0 0 0 0 0 212 213 0 0 213 213 0 0 0 215 215 0 0 215 215 215 0 216 216 216 217 0 222 0 231 0 0 240 0 243 244 245 0 246 0 247 247 247 0 248 248 248 
214 0 0 216 0 217 217 217 0 216 0 0 207 202 201 201 0 200 199 0 197 0 0 0 0 0 196 0 197 197 0 197 0 190 184 0 0 161 0 142 135 132 0 0 0 124 120 118 0 0 0 122 0 129 0 135 139 0 0 0 149 0 0 150 150 150 0 0 150 0 149 0 148 0 147 0 148 148 0 0 0 147 0 147 148 0 0 149 0 149 0 0 0 0 148 0 148 148 147 0 146 145 0 145 145 145 146 0 146 146 146 146 146 145 0 145 146 0 0 148 0 0 0 148 147 148 149 0 0 0 0 0 145 144 0 0 0 141 139 139 139 141 142 143 144 145 0 0 146 0 0 146 145 145 0 146 162 0 0 197 196 195 195 0 0 0 172 165 162 158 156 0 156 0 155 0 154 153 0 0 0 0 0 0 151 0 0 0 149 148 0 0 0 148 147 0 147 147 0 146 146 146 0 0 144 142 0 141 141 141 140 140 140 140 0 0 141 0 0 0 0 0 141 0 0 141 0 0 0 142 142 0 143 143 144 0 0 143 0 0 0 143 0 0 0 0 143 0 144 0 144 0 0 143 143 143 143 143 0 142 0 0 0 142 0 142 141 0 0 141 0 0 0 0 141 0 141 141 142 142 0 142 143 143 0 144 0 0 147 0 152 155 0 0 0 159 153 152 0 152 154 0 157 0 0 164 166 169 0 0 0 178 0 0 180 0 181 0 182 182 0 0 184 0 185 0 0 187 0 188 189 0 190 0 190 191 0 192 192 0 193 194 196 0 0 0 199 199 0 0 0 0 0 0 0 200 0 200 0 0 0 0 200 200 0 199 0 0 0 0 0 0 0 198 198 198 197 197 197 197 197 197 197 197 0 197 197 0 0 196 196 195 0 0 0 196 196 196 0 195 0 0 195 195 0 0 195 195 195 0 0 194 193 193 193 193 193 193 0 0 193 0 192 191 0 0 0 190 0 0 0 187 186 186 187 189 189 187 185 184 187 0 0 176 0 0 158 151 0 137 135 136 140 143 147 152 154 157 158 157 159 169 0 0 0 0 0 0 176 175 0 172 170 0 0 0 0 154 151 147 0 0 143 140 0 0 134 0 0 0 0 120 0 119 120 0 0 0 122 122 121 120 119 121 124 124 120 117 117 118 0 0 0 0 117 0 0 115 115 0 0 115 0 0 0 119 0 122 0 124 0 0 123 0 0 0 128 0 0 128 0 128 0 129 0 0 125 0 0 127 127 0 126 124 125 0 125 123 0 122 124 0 0 0 126 126 0 129 127 130 144 0 0 0 145 142 140 146 0 0 162 0 175 181 184 187 189 0 200 200 0 200 201 202 0 0 0 212 212 0 0 213 212 0 0 214 214 0 215 215 215 0 0 215 0 0 216 216 0 218 221 0 0 0 0 240 0 243 244 245 0 0 0 247 247 247 0 248 248 248 
212 0 0 217 0 0 218 0 0 217 0 0 207 204 0 0 201 0 0 0 196 194 194 193 193 193 0 195 0 196 197 197 0 0 0 0 0 164 152 144 137 133 133 0 0 0 124 121 120 122 124 126 128 132 0 0 0 0 0 0 149 150 0 150 0 0 150 150 150 0 149 0 0 148 148 0 0 148 148 148 0 0 147 0 148 148 148 148 0 149 0 148 148 147 0 147 0 0 147 0 146 145 144 144 145 0 0 0 0 0 0 145 145 145 145 144 0 0 0 0 148 148 0 148 0 147 0 0 0 0 0 0 0 144 143 0 0 140 139 139 0 141 141 0 0 144 144 143 144 0 0 145 144 145 146 147 161 0 0 0 0 0 0 194 0 0 177 169 164 160 157 0 0 156 0 155 154 153 152 152 152 0 151 0 151 151 0 150 149 0 148 0 148 148 148 147 147 147 0 146 0 0 146 0 144 143 0 142 141 0 0 140 140 0 0 0 140 0 140 140 140 140 141 0 0 141 141 141 0 142 0 0 143 0 143 143 0 143 143 143 143 143 143 143 143 0 143 0 143 0 0 143 0 143 143 0 0 142 142 0 0 142 142 0 0 141 141 141 0 141 141 141 0 141 141 0 0 142 0 141 142 0 143 0 0 143 144 145 146 149 150 155 0 0 0 152 150 151 152 152 154 0 158 160 163 165 167 171 0 0 0 0 179 180 0 0 181 181 0 0 183 183 184 0 185 186 0 187 0 0 0 0 0 0 191 191 0 192 192 192 193 194 0 197 198 0 199 199 199 0 0 199 0 200 200 200 200 0 0 200 200 0 200 200 200 199 199 198 0 0 198 0 198 198 198 0 198 0 197 197 197 197 197 197 197 0 196 0 0 196 0 0 0 197 0 196 196 196 0 195 0 0 195 0 0 0 0 195 195 195 0 0 193 193 193 193 193 193 0 0 192 192 0 191 191 0 0 190 0 0 188 187 186 186 187 0 0 0 185 184 185 0 0 180 0 0 159 153 0 144 140 142 0 151 156 160 164 0 0 161 155 157 0 0 0 0 0 0 175 175 0 172 170 167 165 0 159 155 0 147 146 0 0 142 138 136 0 131 128 0 122 119 0 120 122 0 121 116 115 116 115 118 0 0 0 0 0 0 0 118 117 117 116 115 117 116 0 117 116 0 115 115 0 114 117 0 121 0 124 125 0 0 122 125 0 128 127 0 0 128 0 125 0 128 0 0 124 125 0 125 125 0 125 124 124 0 125 123 122 122 0 0 0 126 124 124 127 0 127 131 0 0 151 147 140 0 140 145 0 157 165 0 174 0 0 0 187 0 0 198 196 199 0 0 207 0 212 212 212 212 212 213 214 0 0 214 213 0 215 215 0 0 0 215 0 0 215 215 216 217 221 226 0 0 0 240 0 243 244 245 0 0 0 247 247 247 0 248 248 248 
211 214 0 0 218 0 0 0 0 0 0 212 208 204 203 0 201 0 0 0 194 0 0 190 190 191 0 194 194 196 0 0 0 0 0 0 0 167 154 146 141 137 134 133 0 0 0 0 126 126 0 0 132 135 138 0 0 0 0 150 150 150 150 0 0 0 0 150 0 149 149 149 0 0 0 148 148 0 148 148 0 147 147 0 0 0 0 148 148 0 148 148 148 0 0 147 147 0 146 146 0 0 144 0 0 0 144 145 145 146 0 0 145 145 145 145 145 145 146 147 147 0 0 0 0 148 148 149 0 0 148 0 146 144 143 0 0 140 139 0 0 0 141 141 142 0 0 0 143 144 144 0 145 0 146 147 160 0 0 0 196 196 0 195 0 0 181 171 165 0 158 157 0 0 0 0 0 153 153 0 152 151 151 0 0 151 0 0 149 0 149 0 0 0 0 148 0 147 147 147 147 0 146 0 145 144 0 0 142 0 0 140 0 140 0 0 0 140 139 139 0 0 0 141 141 0 0 0 141 0 0 142 142 0 0 0 0 142 0 143 0 0 0 142 142 0 143 0 0 143 142 142 143 0 142 0 0 142 142 142 0 142 141 141 140 0 0 141 141 141 0 0 140 141 141 141 0 142 142 142 0 0 0 0 0 142 0 0 146 0 0 155 0 0 153 150 150 151 152 0 155 157 159 161 0 0 0 0 0 0 178 0 179 180 0 181 181 182 0 183 183 183 0 184 0 186 186 186 0 188 188 189 190 0 0 192 192 192 0 192 193 194 195 0 0 0 199 199 0 0 0 0 0 200 200 200 0 200 200 200 200 200 0 0 0 0 199 0 198 198 197 0 0 198 198 0 198 0 197 197 0 0 197 0 196 0 0 197 197 196 0 0 197 197 197 197 0 0 196 196 196 0 0 0 195 195 194 194 0 194 195 0 194 0 193 193 193 193 0 193 192 192 192 0 192 0 190 189 0 189 188 187 186 0 186 0 0 186 185 185 185 185 0 185 0 0 165 158 0 0 0 150 0 0 0 0 0 0 0 0 162 155 159 0 0 0 0 176 174 0 0 172 170 0 165 163 0 0 150 145 143 0 0 0 0 136 0 130 125 0 122 120 0 0 0 0 0 116 0 0 0 0 0 118 116 115 118 119 0 0 119 0 118 118 118 118 0 0 118 117 117 116 0 113 116 119 120 0 0 0 0 0 124 124 0 0 126 127 0 0 0 124 0 127 0 0 125 123 0 123 0 124 0 0 125 0 0 123 0 0 123 122 125 0 123 0 125 0 128 137 0 0 150 0 143 0 141 0 0 152 0 0 172 0 175 177 0 0 0 0 197 0 202 0 0 0 212 0 212 212 212 213 214 216 0 215 215 0 0 215 0 215 215 216 0 216 215 215 0 217 0 0 0 0 0 0 0 243 244 245 0 246 0 247 247 0 0 248 248 248 
209 212 0 0 0 0 0 0 218 0 0 0 208 0 0 201 200 0 196 0 0 189 188 187 187 188 0 0 194 195 0 199 200 0 0 0 0 0 159 150 0 139 136 135 134 132 131 0 0 131 131 131 0 0 0 144 147 0 0 0 151 151 151 151 151 151 0 150 150 150 0 0 149 148 0 0 148 148 148 0 148 147 0 0 147 147 0 147 0 0 0 0 148 148 0 0 146 0 145 145 0 145 144 144 144 144 144 144 144 145 0 145 144 145 0 145 144 144 145 0 0 0 147 147 0 148 148 0 0 148 147 147 146 0 144 143 142 141 140 0 0 0 142 0 141 140 140 140 142 143 144 145 146 146 146 147 157 0 0 0 196 0 0 0 0 0 0 0 167 162 158 157 157 0 156 0 155 154 0 0 152 151 151 151 151 151 0 0 150 0 0 149 148 0 148 0 148 0 147 147 0 0 146 0 0 144 0 143 142 141 140 140 0 139 0 140 140 0 139 139 140 140 140 140 0 140 140 140 0 140 140 0 142 141 142 0 142 141 0 0 0 142 0 142 0 142 142 142 143 143 0 0 0 142 142 0 142 142 0 0 0 0 0 141 140 141 141 0 140 0 0 140 0 0 0 141 141 0 0 0 141 142 142 142 142 0 0 0 145 148 0 0 0 0 149 150 0 151 0 0 156 0 0 162 0 167 171 0 0 178 178 0 0 180 0 181 0 0 0 183 0 184 184 184 185 186 0 186 0 0 188 0 189 190 0 0 0 193 0 193 0 0 0 196 0 0 199 199 199 199 200 200 200 200 200 0 0 0 0 0 200 200 0 0 0 0 199 0 198 198 0 0 0 0 198 198 198 0 198 0 197 0 197 197 197 0 196 197 0 197 197 197 197 0 0 0 197 196 196 0 196 0 195 195 0 195 0 0 0 195 0 195 0 0 0 193 193 0 0 193 193 0 0 0 0 0 0 190 189 188 0 0 187 0 0 186 186 0 0 0 0 186 0 0 182 0 0 163 0 0 0 152 158 0 0 0 0 177 0 173 0 163 158 162 0 0 0 175 174 0 0 171 170 0 0 165 0 0 150 144 140 141 0 0 0 0 0 0 125 124 122 121 119 119 118 113 114 116 0 0 0 0 116 113 112 113 112 115 0 0 0 0 0 0 0 119 0 0 0 0 0 0 0 117 118 0 120 123 0 0 127 0 0 123 0 0 124 124 0 0 125 122 124 125 127 0 125 121 122 123 0 0 0 0 0 124 0 122 0 0 122 121 0 0 122 121 123 126 133 0 0 146 0 147 0 141 137 0 153 156 0 0 163 0 166 166 174 183 188 0 0 197 199 0 208 0 211 0 0 0 0 213 213 0 0 217 215 0 0 215 215 215 0 216 0 216 214 0 215 217 0 0 0 0 237 0 0 243 244 245 0 0 0 247 247 0 0 248 248 248 
209 211 213 0 216 0 0 0 0 0 212 210 208 0 203 200 0 0 194 0 0 185 184 184 0 185 188 191 0 196 0 200 0 0 0 0 184 172 161 153 147 141 0 0 0 135 134 136 137 137 137 137 139 142 144 145 148 0 0 0 152 152 152 0 0 0 150 0 0 150 0 0 148 0 0 0 0 148 0 0 148 0 147 147 146 145 146 146 146 147 0 0 0 0 0 147 0 0 0 0 0 144 0 0 143 0 143 143 144 144 0 144 0 145 0 145 144 143 144 145 146 147 0 0 0 148 148 148 0 148 0 147 0 145 144 0 0 142 142 143 0 0 0 0 0 139 138 139 0 0 0 0 0 0 0 147 156 0 0 0 196 0 195 195 0 0 0 181 171 164 160 157 157 0 156 0 155 0 0 153 152 0 151 0 151 151 151 150 150 0 0 0 148 148 0 0 148 0 0 0 147 0 0 0 145 144 0 143 142 141 140 0 139 138 0 0 0 0 0 0 0 0 0 0 0 139 0 140 0 139 140 0 0 0 141 0 0 141 141 141 0 142 142 141 141 0 0 142 0 0 0 0 0 0 142 0 0 0 141 141 141 0 0 0 0 0 0 140 140 140 140 140 0 140 0 0 141 141 141 141 141 141 0 142 142 142 142 0 144 0 0 0 0 150 150 150 0 152 0 155 156 158 160 162 164 169 0 176 0 178 179 0 180 0 181 0 182 0 183 0 0 184 0 0 185 0 0 187 0 0 0 0 0 190 0 0 193 193 0 194 194 0 196 0 197 0 199 199 199 199 0 0 200 200 200 0 0 201 201 0 0 0 0 0 200 0 199 199 0 199 199 199 199 0 0 198 0 198 0 0 198 197 197 0 197 197 197 197 197 197 197 197 196 0 0 0 197 196 196 0 0 0 195 195 0 195 195 0 0 194 0 0 0 194 0 0 194 0 194 0 0 0 192 192 191 190 0 0 0 189 0 187 0 0 0 185 0 0 181 0 0 185 0 0 185 0 173 166 0 0 153 153 0 0 0 0 0 0 0 0 0 0 0 164 165 0 0 0 0 0 172 0 0 167 0 0 0 0 152 143 139 139 138 138 0 134 132 0 0 0 122 0 119 119 117 116 0 0 115 114 114 113 0 0 115 0 118 116 116 120 0 119 117 118 118 0 0 0 0 0 0 0 0 0 0 0 121 123 0 0 127 0 0 122 123 123 121 123 0 0 0 123 122 125 0 0 0 120 0 0 0 0 121 121 121 121 0 0 0 0 0 122 0 0 122 121 123 127 137 0 145 146 0 148 0 139 139 0 155 163 0 160 160 0 0 162 167 0 181 185 191 0 200 0 206 0 0 0 0 212 0 213 214 0 0 0 215 214 214 0 0 215 0 217 0 216 213 0 215 216 0 0 0 234 237 0 0 243 244 245 0 246 0 247 247 247 0 248 248 248 
209 210 211 213 214 0 0 0 0 212 210 0 207 0 203 200 0 195 192 0 185 182 180 181 182 183 187 190 194 196 0 200 0 0 0 0 184 172 162 0 0 144 0 139 138 137 138 0 0 0 0 0 143 0 0 0 150 151 0 153 0 0 0 0 152 152 0 151 151 150 150 0 149 0 148 148 0 0 0 0 148 0 147 147 0 145 145 145 0 146 146 146 0 0 0 0 0 145 145 145 144 144 0 0 143 0 0 143 0 0 0 144 0 0 0 0 144 142 143 145 146 0 148 148 148 0 0 0 148 148 0 147 0 144 0 142 142 0 143 144 0 0 0 141 140 0 138 139 141 0 0 0 0 0 0 146 159 0 0 0 195 195 195 0 0 194 0 0 176 167 0 159 157 0 0 156 0 154 153 153 0 152 0 151 0 0 0 0 150 150 0 149 0 0 0 148 0 148 148 0 147 146 0 146 145 145 0 0 0 141 139 139 139 139 0 138 139 0 0 139 139 139 0 0 139 139 0 0 0 138 139 0 141 0 0 0 141 0 140 140 141 0 0 0 141 141 141 0 0 0 141 141 140 141 0 141 141 141 141 0 0 0 141 0 0 140 0 140 140 140 140 140 140 140 140 0 0 141 141 141 141 0 0 0 142 0 142 0 144 145 0 0 150 148 149 150 151 152 153 155 157 158 0 0 166 0 0 0 178 0 0 0 180 0 181 0 182 183 183 183 184 184 0 185 185 186 186 187 188 188 0 0 0 0 192 0 193 193 194 0 194 195 0 0 197 0 0 199 199 199 0 200 200 199 0 0 200 201 0 201 200 201 201 0 200 200 0 199 199 0 0 199 199 199 199 0 0 0 0 0 0 0 0 197 197 0 0 0 0 0 197 0 197 197 197 197 0 0 196 196 196 196 0 0 0 195 195 195 194 0 195 0 0 194 193 0 194 0 193 194 0 0 193 192 0 0 190 0 0 188 188 188 188 0 0 185 0 0 176 172 0 0 0 0 189 0 175 169 0 158 150 155 0 0 0 0 0 0 0 179 0 0 0 166 163 162 167 0 0 171 170 0 167 165 0 0 0 0 0 145 139 137 0 134 132 130 130 0 125 122 122 0 121 0 0 0 0 113 112 112 112 112 0 0 0 0 0 0 0 121 121 0 118 115 116 116 116 117 116 117 119 118 0 117 0 0 0 124 0 0 126 125 0 122 121 0 122 123 0 0 0 121 0 124 127 0 0 120 0 118 117 118 118 118 118 0 0 121 120 120 120 120 0 0 124 0 0 0 0 0 141 0 0 147 0 148 146 0 155 0 0 157 158 0 0 163 167 176 0 0 0 0 0 201 203 0 208 0 209 210 0 0 0 0 217 216 215 214 214 214 214 0 216 216 0 215 214 214 216 218 0 226 0 0 237 0 0 243 244 245 0 246 0 247 247 0 0 248 248 248 
208 209 210 0 212 212 213 212 212 211 209 207 207 0 0 0 0 194 190 0 182 180 178 179 181 184 0 0 0 197 199 201 0 0 0 0 183 172 163 156 149 144 141 0 139 139 141 0 0 0 0 0 0 0 0 0 0 0 0 153 0 153 153 153 0 152 0 152 0 151 150 0 0 148 148 147 148 0 148 0 147 0 0 0 146 146 145 145 145 145 0 146 146 145 145 145 145 0 0 0 0 143 0 0 142 141 142 0 0 0 0 144 144 0 0 0 0 144 144 0 147 0 148 148 148 0 147 0 147 0 0 0 0 144 0 0 142 143 0 0 144 143 0 0 0 0 0 0 0 0 0 0 0 143 141 148 0 0 0 195 195 0 194 0 194 0 0 0 0 170 164 160 157 157 156 156 0 0 154 0 0 0 152 151 151 0 151 150 150 0 149 149 0 148 148 0 0 148 148 0 0 145 146 146 0 145 0 144 0 0 140 0 139 139 0 0 139 0 138 0 139 139 139 139 139 138 0 139 138 0 0 0 140 140 0 0 0 140 140 140 140 0 141 141 141 0 140 141 0 0 141 0 0 0 0 141 141 141 0 140 0 140 139 0 140 140 0 140 140 140 140 140 0 0 140 140 0 0 0 141 0 141 141 0 0 142 0 143 143 144 0 148 0 149 0 0 0 152 154 156 0 159 162 165 0 0 176 0 0 179 179 180 180 181 181 0 0 183 0 183 184 0 185 185 0 0 186 0 0 189 189 0 0 192 192 0 0 193 0 0 194 0 195 196 197 198 0 199 199 199 0 200 200 0 0 201 201 0 0 0 201 201 0 201 200 0 200 0 200 200 0 0 0 0 199 199 199 199 199 199 199 199 0 198 197 0 0 198 198 197 0 0 197 196 0 0 0 196 196 196 196 196 0 195 0 0 195 0 195 0 195 0 0 0 193 0 194 0 194 0 194 0 0 0 192 191 191 0 0 0 189 0 188 0 0 186 0 0 0 162 161 180 0 0 0 0 0 172 0 159 153 155 160 169 176 0 0 0 0 0 176 174 0 167 165 163 162 165 0 0 167 0 165 163 163 0 0 0 0 0 145 137 134 133 131 130 131 129 125 122 122 0 0 121 119 117 0 0 115 113 113 113 118 121 0 0 0 0 0 0 0 123 0 120 119 116 116 115 116 0 0 118 116 116 118 0 0 0 0 125 125 0 0 123 122 0 122 122 0 0 121 120 0 0 125 0 0 119 115 115 115 116 0 117 0 0 120 0 120 119 118 120 0 0 126 125 0 129 0 0 141 0 0 147 0 0 145 146 154 0 0 153 156 160 163 166 0 0 0 0 193 195 197 199 200 205 206 206 207 207 211 212 214 0 216 0 215 214 214 214 0 0 216 0 0 215 215 0 0 217 221 0 230 0 237 0 0 243 244 245 0 246 0 247 247 0 248 248 248 248 
208 209 0 0 210 211 211 211 0 0 0 208 0 0 0 202 0 0 190 184 181 178 178 179 181 184 188 192 0 0 199 202 204 0 0 0 181 0 164 156 150 146 144 0 141 0 0 0 0 0 0 0 0 149 150 0 0 0 0 152 152 153 0 153 0 0 0 0 0 151 0 0 149 0 0 0 0 0 147 0 147 0 147 147 0 0 0 145 0 0 146 0 0 0 144 144 0 0 143 0 142 142 142 142 141 140 0 142 142 0 143 143 0 0 0 144 144 144 0 0 0 0 0 0 0 0 147 0 146 146 147 147 0 0 143 0 0 143 144 0 144 0 141 0 134 131 130 130 133 134 136 136 137 139 143 160 0 0 0 196 195 194 194 194 194 194 0 0 0 175 167 161 158 157 0 156 156 0 155 0 154 153 0 0 0 150 0 150 150 0 149 0 0 0 0 0 0 0 148 147 0 146 146 0 145 0 144 0 0 0 0 141 139 138 0 0 0 0 138 138 139 0 139 139 0 0 0 0 0 0 138 139 0 0 0 0 140 139 0 140 140 140 140 0 0 0 0 0 0 140 140 0 0 140 140 0 0 0 0 140 140 140 140 0 0 140 140 140 140 0 0 0 0 0 0 140 140 140 0 141 0 0 141 141 141 0 0 142 143 0 145 146 148 149 150 151 0 0 155 0 0 0 164 166 0 0 177 0 179 179 179 180 0 181 183 0 185 183 0 184 0 0 0 186 0 0 187 0 0 189 190 191 0 0 192 192 0 193 0 194 194 195 195 196 0 0 0 199 199 199 0 200 200 0 0 201 201 0 0 0 0 0 201 201 0 200 200 200 0 0 199 199 0 199 199 199 199 0 199 199 199 199 0 0 0 198 0 0 0 198 197 197 0 196 0 0 196 196 196 196 196 196 196 196 0 0 195 0 195 194 194 195 0 0 0 194 0 193 0 0 193 193 193 0 0 192 191 191 0 0 189 188 188 0 0 186 186 0 0 174 153 174 0 0 0 0 0 0 0 158 155 164 0 0 173 174 177 0 0 0 0 0 0 0 165 0 163 0 0 0 166 165 0 162 161 0 0 160 157 0 0 0 138 133 133 0 0 130 127 0 123 125 0 0 120 116 115 0 0 0 119 120 122 123 125 0 126 124 124 126 126 126 0 0 0 122 0 0 118 118 0 118 0 116 114 120 0 0 126 124 123 0 0 121 0 0 121 121 0 0 119 120 120 0 123 0 0 119 115 0 0 0 0 117 0 116 118 0 0 119 121 123 0 0 126 125 0 125 0 142 146 0 0 154 0 147 136 142 156 0 157 148 0 0 162 165 0 0 179 0 0 196 0 0 0 0 0 0 0 0 0 0 0 0 215 0 215 215 0 214 215 216 216 0 216 215 215 216 0 216 220 0 0 234 237 0 0 0 244 245 0 246 0 247 247 0 248 248 248 248 
208 0 0 210 210 0 211 211 211 211 0 0 0 207 0 0 199 0 191 186 181 179 180 181 184 186 189 193 0 199 201 204 206 0 0 0 181 0 165 0 152 0 0 0 0 141 143 0 0 147 0 149 0 0 151 152 153 0 153 152 152 0 0 153 152 0 0 152 0 150 150 149 149 148 148 148 147 0 0 147 0 0 146 0 0 0 0 145 0 0 0 0 144 144 0 0 143 0 142 142 141 0 142 0 141 141 0 0 142 142 142 142 143 0 142 142 0 0 0 0 0 147 147 146 0 0 146 146 146 146 0 0 0 144 143 142 142 144 145 145 144 0 0 0 130 127 126 128 131 133 134 137 140 144 153 0 0 0 0 0 0 0 0 194 194 194 0 0 0 0 172 165 160 157 157 0 156 155 0 155 154 0 153 152 151 151 0 0 150 150 0 149 149 0 148 148 148 148 0 0 147 0 146 145 145 145 145 144 0 0 0 0 140 139 139 139 0 0 139 0 139 0 139 139 0 138 0 138 138 137 137 138 139 140 140 140 139 139 0 0 0 140 140 0 140 0 0 140 140 140 0 140 140 140 140 0 140 0 0 140 140 140 0 140 140 140 0 0 0 0 139 139 139 140 0 0 140 140 0 140 141 141 141 140 0 141 0 142 142 0 144 146 0 0 0 152 153 0 156 158 160 163 166 170 0 0 178 0 179 179 180 0 181 0 0 0 0 184 184 0 184 0 185 0 0 187 187 0 188 189 0 0 191 192 192 0 193 193 193 0 0 0 195 0 0 198 0 0 199 199 0 0 200 0 0 201 201 201 0 201 0 202 0 201 0 201 0 201 0 0 0 0 0 199 199 199 199 199 199 199 199 199 199 199 0 198 0 0 0 0 197 197 197 197 197 197 0 0 0 0 0 0 0 196 0 0 195 0 195 194 0 0 195 195 0 194 0 193 193 193 193 0 192 0 0 0 192 191 190 0 0 189 188 187 0 186 185 0 0 0 182 0 0 0 0 0 0 161 153 0 0 0 0 0 0 176 172 173 174 0 0 0 0 0 167 161 161 0 165 0 165 0 163 161 160 0 160 159 0 0 0 0 0 0 0 0 136 132 129 0 126 124 0 0 124 120 118 0 0 0 0 0 0 0 0 0 0 0 0 0 0 0 0 0 0 0 0 121 119 118 118 118 0 118 118 121 0 0 126 123 122 122 121 120 120 0 120 0 0 119 0 0 118 0 122 0 0 118 116 116 0 116 116 117 0 117 116 117 0 0 123 0 0 124 124 0 0 127 0 142 148 0 0 157 0 135 131 142 0 0 155 145 0 0 162 162 0 170 178 0 0 0 0 0 201 203 205 0 207 208 0 0 0 0 215 215 216 0 216 215 216 0 0 216 216 0 215 216 0 216 0 0 0 0 0 0 0 243 244 245 0 246 0 247 247 0 248 248 248 248 
208 0 209 210 0 211 211 211 211 0 0 0 0 207 205 0 200 0 194 0 185 181 182 184 187 0 192 0 199 201 0 0 0 0 0 190 181 173 0 158 152 0 146 143 142 141 142 0 0 146 0 0 150 0 152 153 153 0 0 0 152 152 153 0 153 152 0 151 0 0 149 149 149 149 0 148 0 0 147 147 147 0 146 0 0 145 144 144 0 144 145 0 0 143 0 142 141 0 0 0 0 0 0 0 140 0 0 141 141 0 0 142 0 0 141 142 0 0 144 145 146 146 0 0 145 145 0 0 0 0 0 0 0 0 143 0 143 0 0 0 0 143 0 135 130 0 0 0 0 0 0 139 143 150 167 0 0 0 196 0 195 0 194 194 0 0 193 0 0 0 177 167 161 158 157 0 156 155 0 0 0 0 153 0 0 0 151 0 150 150 0 0 149 148 148 148 148 0 0 147 147 0 146 0 145 0 0 145 145 0 144 143 142 0 139 139 0 0 0 139 139 139 139 0 138 138 138 138 0 0 137 138 0 0 0 0 139 139 139 139 0 139 0 0 0 0 140 140 0 140 140 140 0 140 0 140 140 140 140 0 0 0 0 0 0 0 139 139 139 0 139 139 139 139 140 0 139 139 0 140 0 0 0 0 140 0 141 141 142 143 145 0 149 0 0 152 0 155 0 159 161 165 0 0 0 177 0 0 179 180 0 0 181 182 185 0 0 0 184 0 184 185 185 186 186 187 0 0 188 188 190 191 0 192 0 0 193 0 0 0 195 195 196 197 198 198 198 199 199 0 0 0 200 200 0 0 201 0 0 201 202 0 0 202 0 0 201 0 0 201 0 201 0 0 0 199 199 199 199 199 199 199 199 199 0 198 198 0 0 198 198 0 197 197 0 197 197 197 0 0 196 196 195 195 196 0 195 0 0 195 195 195 195 0 194 194 0 193 193 193 193 193 0 192 192 0 0 0 191 191 0 189 0 188 0 186 186 186 186 193 0 0 0 0 191 0 0 164 141 137 141 0 0 0 0 0 173 169 0 0 0 0 0 0 0 0 0 163 163 0 0 0 0 161 161 161 159 159 158 157 0 151 0 146 0 0 138 0 129 128 0 129 0 0 0 0 122 120 122 122 124 0 127 127 127 127 0 0 125 0 0 0 0 0 0 0 0 0 0 118 0 117 0 0 0 122 0 0 0 125 123 0 121 0 119 118 118 118 117 118 0 0 119 0 121 0 120 117 116 116 0 0 115 0 0 118 117 118 0 0 123 0 126 124 122 0 129 129 0 143 147 153 156 0 0 134 137 0 0 0 153 145 155 0 160 159 165 169 0 0 186 190 196 199 200 201 0 0 207 0 207 205 209 0 0 0 216 0 217 216 217 0 216 215 0 216 216 0 216 216 220 226 0 234 237 0 241 0 244 245 0 246 0 247 247 0 248 248 248 248 
208 209 209 0 0 0 0 211 0 0 211 210 0 0 205 203 0 199 0 0 189 186 184 0 190 0 194 0 201 0 0 0 0 0 0 190 0 0 164 157 153 149 146 145 0 0 0 145 146 146 147 149 150 152 0 0 0 0 154 153 153 0 153 153 0 0 0 152 151 150 149 0 0 0 0 148 148 0 147 0 0 0 0 145 144 144 144 144 0 144 0 0 143 141 0 140 140 140 141 0 0 0 0 139 139 0 139 140 140 0 142 142 142 0 0 0 0 0 0 0 0 145 145 144 0 144 144 144 145 146 0 144 143 0 143 143 144 145 0 0 0 0 0 134 131 0 0 0 0 139 137 137 150 0 0 0 0 196 195 195 0 194 0 194 0 193 193 0 0 0 0 173 164 160 157 157 0 0 156 0 0 153 153 0 152 151 151 0 0 150 149 0 149 0 0 0 148 147 147 147 147 0 146 146 146 0 0 0 0 0 144 0 0 0 140 139 0 140 138 139 139 139 0 0 139 138 138 138 0 0 138 0 138 0 139 139 0 138 0 139 0 139 0 140 140 0 139 0 0 0 0 140 140 140 0 140 0 139 0 0 0 139 139 139 0 0 139 0 139 0 139 0 139 0 0 139 139 139 0 139 140 140 0 140 140 140 141 0 143 0 0 0 149 0 152 153 0 156 0 160 163 166 0 0 0 177 178 0 0 0 0 0 181 182 186 0 0 185 185 0 0 0 0 186 186 187 0 188 188 0 0 191 0 192 0 0 193 194 0 194 195 0 196 0 0 0 199 199 0 200 200 0 0 0 201 201 201 201 0 202 0 0 202 202 202 0 0 201 201 0 201 201 0 0 200 0 199 199 199 199 199 199 199 199 0 0 0 0 0 0 198 198 0 198 0 0 197 197 0 196 0 196 0 0 0 0 0 0 0 0 0 195 195 194 194 194 0 0 193 193 0 193 0 192 192 0 0 0 192 0 0 0 189 0 0 186 186 188 195 0 0 0 0 0 187 0 0 0 0 131 123 128 146 0 0 0 0 169 163 165 166 0 169 0 166 166 0 162 161 0 0 162 0 161 0 0 0 0 159 0 156 151 0 0 0 0 0 0 133 131 0 0 132 131 0 0 123 120 0 0 119 124 0 127 124 124 125 125 120 118 117 118 120 121 122 122 121 0 0 117 117 118 0 0 123 124 0 129 0 0 0 0 122 121 119 117 118 0 118 118 118 118 119 119 0 0 0 0 115 115 0 115 114 117 0 119 0 0 121 122 123 0 0 0 121 0 131 137 0 144 0 0 0 0 147 136 0 0 152 0 0 148 154 160 160 161 164 167 0 181 185 0 0 0 0 0 0 206 205 207 0 208 206 207 209 0 0 0 0 216 0 0 215 0 215 216 0 0 215 216 221 0 0 234 0 239 241 0 244 245 0 246 0 247 247 0 248 248 248 248 
210 0 209 210 0 0 210 210 212 212 212 211 210 208 206 0 0 0 199 0 0 190 189 191 193 0 0 200 0 0 0 0 0 0 0 188 179 171 163 0 0 0 149 147 147 0 0 146 147 148 0 149 151 153 154 0 0 0 0 0 0 0 0 0 0 0 0 152 151 150 150 0 149 149 0 148 0 0 147 146 146 145 145 144 143 0 143 0 0 143 143 0 0 141 0 140 0 0 140 140 140 139 138 136 137 0 139 0 139 140 0 0 0 141 141 0 142 0 142 143 143 0 144 144 0 145 0 145 145 0 0 143 143 144 0 145 145 146 0 0 0 0 139 135 134 136 0 141 0 0 140 141 0 0 0 0 0 0 195 195 0 194 0 194 193 193 0 192 0 0 0 0 169 162 158 157 0 156 156 0 155 154 153 0 152 151 151 151 0 0 0 149 0 148 0 0 0 147 147 147 147 0 0 0 146 146 0 145 0 145 144 144 143 0 141 140 0 140 140 0 140 0 0 140 0 139 138 0 137 137 138 0 138 138 138 0 138 0 0 139 139 0 0 139 139 139 139 139 139 139 139 0 0 139 139 139 0 0 139 139 139 138 0 139 139 0 138 139 0 139 139 0 0 139 139 139 139 139 139 0 140 140 140 0 0 0 140 142 0 0 0 148 150 0 153 154 156 158 160 162 165 0 0 0 0 0 178 178 0 179 180 0 181 183 0 0 0 185 185 0 0 186 0 186 186 187 188 188 0 189 0 191 191 192 0 193 0 194 0 0 195 0 0 197 0 199 0 0 0 200 200 0 200 0 201 0 201 201 201 0 0 0 0 202 202 202 202 201 201 0 0 201 201 200 0 0 199 199 199 199 0 0 199 199 199 199 199 199 0 198 198 0 198 198 0 0 0 0 0 196 0 0 196 196 196 0 0 0 196 196 195 0 195 0 194 194 194 0 193 193 0 0 192 192 0 192 0 192 192 0 0 0 0 0 187 186 190 0 0 0 0 197 191 186 183 181 0 0 159 0 135 123 125 138 156 0 0 0 162 160 0 0 163 166 0 0 0 163 161 161 161 160 160 161 0 162 0 162 0 0 156 0 0 147 145 145 0 0 0 0 137 0 135 0 130 0 125 121 118 0 121 119 124 0 0 126 124 0 0 119 0 0 0 119 0 119 116 116 117 117 117 119 122 124 125 129 0 0 0 128 0 0 123 0 0 0 117 0 0 118 119 120 0 118 0 118 0 115 113 114 0 114 114 117 0 119 119 119 0 0 122 0 0 0 121 127 0 0 0 146 0 0 0 0 143 137 0 0 149 0 0 158 160 166 0 169 170 171 174 0 186 0 0 0 200 204 205 0 0 205 0 0 210 209 206 209 211 0 0 218 0 216 214 0 216 216 0 217 214 216 221 226 0 234 237 0 241 0 244 245 0 246 0 247 247 0 0 248 248 248 
0 0 0 210 210 210 211 212 213 214 214 213 212 209 207 205 0 202 0 0 0 195 194 0 0 0 201 0 0 0 212 0 0 0 196 185 177 170 164 0 0 0 150 0 0 148 0 148 0 0 0 151 0 0 0 0 154 153 153 154 153 153 153 0 0 153 0 0 0 0 150 149 148 0 0 148 147 147 147 0 145 144 0 0 0 144 144 0 143 143 142 0 141 140 0 139 138 0 0 139 0 139 0 138 138 0 139 0 139 139 140 140 0 140 0 0 141 0 141 0 142 142 143 0 0 0 0 0 0 0 0 144 144 145 0 0 0 0 0 0 145 0 137 136 0 139 140 0 0 0 143 145 152 0 0 0 0 0 0 0 0 194 194 0 0 0 0 192 0 0 0 0 174 165 159 157 157 156 0 156 155 0 0 153 0 152 0 151 0 150 149 149 0 148 0 148 148 147 147 0 147 146 0 146 0 146 0 145 145 145 0 0 144 0 142 140 141 0 0 0 0 0 141 0 140 0 139 138 0 138 137 0 138 0 138 138 138 0 0 0 138 0 0 0 0 139 139 139 139 0 139 139 139 0 139 0 0 0 138 138 0 0 0 0 138 138 138 138 0 139 0 139 0 138 138 0 0 0 139 0 0 0 139 0 140 0 141 142 143 145 147 149 0 152 0 0 0 0 161 165 0 0 0 176 177 178 0 179 0 0 180 181 182 184 188 0 0 187 0 0 185 186 0 186 0 0 0 0 0 189 190 191 191 192 192 193 0 0 194 0 195 196 197 198 0 199 0 0 200 200 0 0 201 201 201 0 0 0 202 0 0 202 202 202 0 0 0 202 0 201 0 0 201 0 0 0 199 199 199 199 0 199 199 199 199 199 199 199 0 198 198 198 198 0 197 197 197 196 196 196 0 0 196 0 0 0 194 0 0 0 0 0 0 0 194 194 0 0 0 193 193 193 0 192 0 0 0 0 191 0 0 0 189 188 188 192 0 0 0 0 0 192 187 183 181 0 0 171 163 0 0 131 122 132 142 145 154 0 0 158 0 160 160 0 0 0 0 163 161 161 161 0 160 161 162 162 0 0 0 0 157 0 0 148 145 0 0 0 141 0 139 0 0 132 130 0 0 123 119 118 0 121 121 0 0 127 124 0 0 119 115 0 115 116 0 0 116 115 116 117 119 121 127 0 0 0 0 129 128 127 0 0 122 122 0 0 115 116 117 118 0 0 0 119 0 117 0 114 113 114 0 115 0 117 0 119 119 121 0 122 122 0 0 125 123 128 0 0 0 147 0 157 0 0 143 142 0 147 147 0 164 0 0 0 0 0 176 177 0 182 185 191 195 197 201 0 203 205 0 205 208 0 0 0 212 0 210 210 213 216 0 216 215 0 216 218 0 216 216 218 222 226 0 0 237 0 0 0 244 245 0 246 0 247 247 247 0 248 248 248 
211 210 0 0 0 211 212 0 0 0 0 0 0 0 210 207 206 204 202 201 0 0 196 0 199 0 203 207 0 0 0 0 0 0 194 184 0 0 163 157 153 151 150 150 149 149 149 149 0 0 0 0 153 154 0 154 153 153 0 0 0 153 153 153 153 152 152 0 0 0 149 149 0 148 0 0 147 0 0 0 146 0 145 144 144 0 0 0 0 0 142 141 140 139 0 139 0 138 137 138 0 139 0 0 0 0 138 139 0 0 0 138 0 140 0 0 139 140 0 141 0 141 141 0 143 0 143 144 0 0 144 144 0 0 147 0 147 0 0 0 0 0 138 137 0 0 141 142 144 0 0 147 149 154 0 0 191 192 0 0 0 0 194 194 0 193 192 192 0 191 0 0 179 170 162 159 157 157 0 156 155 154 153 153 0 0 151 151 150 150 0 0 149 0 0 148 0 0 147 0 147 146 0 146 0 146 0 144 0 0 145 145 0 0 142 142 0 0 141 0 142 0 0 141 0 0 139 0 0 138 138 0 137 137 0 0 137 138 138 138 137 138 139 0 0 139 0 0 0 138 0 0 137 0 0 139 0 0 138 138 0 138 138 138 0 0 0 138 0 138 0 139 0 0 138 138 138 138 0 0 139 138 0 0 140 140 141 142 144 0 0 0 151 152 154 0 159 161 164 0 0 0 176 176 177 178 0 179 179 180 181 0 0 184 188 0 0 186 185 0 0 186 0 0 187 187 0 187 188 189 190 0 0 0 192 0 193 193 0 194 0 0 0 0 199 0 199 0 0 200 200 0 201 0 0 201 0 202 0 203 0 201 202 0 203 0 203 0 202 202 202 0 201 201 0 199 199 199 0 199 199 199 199 199 199 199 199 0 0 198 197 0 0 0 197 197 197 0 196 196 196 196 196 0 0 0 195 0 0 195 0 0 0 195 194 0 193 193 193 193 193 0 192 192 192 192 0 191 191 191 190 0 189 189 196 0 0 0 0 197 193 189 185 182 180 0 176 173 0 0 0 142 127 135 0 140 137 142 0 0 156 0 158 160 0 0 0 0 162 0 161 160 0 0 0 0 0 0 162 159 157 0 0 149 146 144 0 0 142 139 0 0 0 136 131 0 0 0 122 119 0 0 121 125 0 0 126 125 0 119 113 112 112 112 113 114 115 116 118 122 0 0 0 0 0 0 0 129 0 0 0 125 0 122 0 0 117 117 118 120 0 0 0 118 0 116 114 114 114 0 0 116 0 116 117 119 121 0 122 122 123 0 0 124 126 130 0 0 140 147 0 156 0 0 147 0 0 145 150 0 167 0 0 176 177 0 178 0 0 0 190 191 190 196 0 0 0 205 204 206 207 0 0 0 215 0 0 215 215 215 217 216 216 0 216 0 0 216 0 219 0 0 0 234 237 0 241 0 244 245 0 0 0 247 247 247 0 248 248 248 
0 211 0 211 211 212 213 0 217 0 0 0 217 0 0 0 208 206 0 0 202 200 199 0 0 202 0 0 0 0 212 0 0 0 0 182 176 169 162 156 0 153 0 0 0 150 149 0 150 150 150 151 0 0 0 0 0 0 153 154 154 0 0 153 0 0 152 152 151 150 0 149 148 147 0 0 147 147 147 0 146 0 145 144 143 0 0 143 0 0 142 0 0 140 139 139 0 0 0 0 0 138 0 0 137 137 0 0 0 0 0 138 0 139 139 138 138 138 0 140 0 0 140 0 142 0 143 143 0 143 0 0 144 0 0 0 147 146 0 144 0 141 138 140 0 0 142 142 144 0 0 0 149 150 163 0 0 189 189 190 0 0 0 193 193 0 192 0 0 0 0 0 0 0 166 161 158 157 0 156 155 0 0 153 152 0 0 151 0 150 149 149 149 0 148 148 148 147 147 147 147 147 0 0 146 146 0 145 144 0 0 0 0 144 143 0 0 142 0 141 0 0 0 0 140 140 140 139 139 0 138 0 136 137 137 137 137 0 0 0 138 138 0 0 139 138 0 138 138 138 0 0 138 138 138 0 0 0 0 137 0 137 137 137 137 137 137 137 137 137 138 138 138 138 138 0 0 0 137 0 0 138 139 0 0 140 0 143 145 146 0 0 151 154 156 158 160 163 166 0 0 0 0 177 0 0 179 179 0 0 181 182 182 184 188 0 190 185 185 0 0 185 0 187 187 187 187 188 0 0 0 191 0 0 192 192 192 193 0 194 0 0 198 0 199 0 199 199 0 200 200 0 200 0 201 200 201 0 0 203 0 0 0 203 203 203 203 0 202 0 0 202 201 0 200 199 199 199 0 199 199 199 0 199 199 199 199 0 198 0 198 0 197 197 197 197 197 0 0 196 0 0 0 0 196 196 0 0 195 195 0 0 195 0 0 195 0 194 193 193 193 0 192 192 0 191 0 191 191 0 191 190 193 0 0 0 0 200 197 194 191 0 0 182 180 178 176 0 0 0 0 147 138 142 0 138 134 131 132 147 0 156 0 157 161 0 166 0 163 162 0 160 162 0 163 164 0 0 160 159 0 0 153 149 0 144 146 0 0 137 137 0 0 0 131 130 0 0 0 0 118 0 0 119 126 0 129 126 0 116 113 111 111 110 112 112 113 116 121 0 0 0 0 0 0 0 0 128 126 125 124 124 0 0 122 121 120 0 0 0 0 0 118 115 115 0 115 114 0 115 0 0 0 115 116 0 0 122 122 0 122 0 0 125 0 134 0 0 141 0 0 156 160 0 154 0 147 150 0 0 0 0 0 181 178 180 178 182 188 0 0 0 0 199 200 204 0 207 206 0 208 209 212 214 216 0 0 0 216 218 0 0 218 0 218 0 0 218 0 219 222 0 0 234 237 0 0 0 244 245 0 0 0 247 247 0 0 248 248 248 
211 211 211 211 211 213 0 0 0 0 0 0 219 218 0 0 211 207 0 0 0 202 201 0 202 203 205 0 0 0 212 0 0 0 191 181 0 169 162 158 0 0 153 152 151 151 151 151 0 151 149 151 153 0 155 0 155 0 0 154 154 0 0 153 0 0 152 0 0 0 0 149 0 147 146 146 147 0 0 0 145 144 0 0 143 143 0 142 142 142 141 0 0 140 139 138 138 0 0 137 0 0 137 136 136 136 136 136 137 0 138 0 137 0 0 0 138 138 139 0 140 140 0 0 141 0 0 0 142 142 0 143 143 0 146 0 0 145 144 144 0 0 138 0 0 0 0 143 144 145 0 147 148 150 157 0 0 186 186 187 188 0 0 0 0 0 192 0 190 0 190 0 0 0 172 163 159 157 157 0 156 0 155 153 152 0 152 151 151 0 150 0 149 148 148 0 148 0 147 147 147 147 0 0 145 0 0 0 0 0 0 144 144 0 0 0 142 0 142 0 0 141 141 140 140 0 0 0 138 138 0 0 137 0 0 0 0 137 137 0 138 138 0 0 0 137 137 0 0 138 0 137 0 137 0 0 137 137 137 137 0 0 136 0 137 137 137 137 0 137 137 0 0 0 0 0 137 0 138 138 138 138 138 0 139 140 0 0 146 0 0 0 0 0 0 159 162 166 0 0 0 0 177 177 0 179 0 0 179 0 181 0 183 185 0 0 190 185 185 0 185 185 0 187 0 0 0 0 189 0 190 190 191 191 0 192 0 0 194 0 196 197 198 0 0 199 199 199 200 200 0 0 201 201 201 200 0 0 202 0 203 0 0 203 0 0 0 203 202 202 0 0 202 0 200 0 0 200 0 199 199 0 0 199 199 199 0 0 198 0 0 198 197 0 0 197 197 197 0 0 0 0 0 0 196 196 196 0 0 0 0 0 195 0 195 0 0 0 194 0 0 0 0 192 0 191 191 0 0 190 191 195 0 0 0 0 198 195 0 192 190 187 185 183 0 181 0 0 0 0 0 0 0 0 146 134 132 133 133 138 0 0 154 155 158 0 0 166 165 0 162 162 0 163 163 0 0 162 160 159 158 0 152 150 0 0 147 0 0 140 136 138 0 0 0 128 127 125 0 0 120 121 0 120 121 0 0 0 0 115 111 110 111 0 112 0 0 120 125 131 135 0 0 136 132 129 129 0 0 125 123 124 123 124 0 0 121 121 121 119 119 118 116 114 114 0 0 115 115 115 115 117 0 116 0 0 120 0 122 123 122 0 0 125 0 136 0 0 144 0 153 0 0 0 0 146 148 153 0 165 0 0 0 0 181 181 0 0 189 191 194 0 0 0 203 206 207 208 0 0 207 209 0 212 216 0 0 0 217 219 0 0 0 217 218 0 0 216 216 219 222 0 0 234 237 0 241 0 244 245 0 246 0 247 247 0 0 248 248 248 
0 0 0 211 212 214 0 0 0 220 220 220 0 0 0 0 213 209 0 0 0 203 203 0 203 203 205 207 209 212 212 212 0 0 189 181 175 169 163 158 155 154 153 152 152 0 152 152 0 152 0 0 153 154 155 155 155 155 0 0 154 0 153 0 152 0 0 0 151 150 148 149 0 148 147 147 0 147 0 0 146 145 0 0 143 0 142 0 0 0 141 0 0 0 0 0 137 137 136 135 136 136 135 0 0 135 135 135 136 0 137 0 136 0 136 137 0 0 139 139 139 140 0 0 0 140 140 141 141 0 0 142 142 144 0 0 0 143 142 0 0 140 137 140 0 0 0 0 144 144 0 146 147 149 158 0 0 0 185 185 186 186 187 0 0 0 0 0 191 0 190 0 0 0 0 167 161 158 0 157 156 0 155 0 0 0 151 0 0 0 0 0 149 148 148 0 148 0 147 147 0 0 146 146 145 145 0 145 0 144 144 143 143 144 0 0 143 142 142 142 0 141 0 140 140 139 0 139 138 137 0 137 0 136 136 136 136 0 136 0 0 138 0 138 0 0 137 0 0 137 0 136 137 137 137 137 137 0 136 0 136 136 136 0 0 0 137 137 137 137 137 0 137 137 137 137 137 137 0 0 138 138 138 0 138 140 0 0 147 0 150 0 0 157 159 161 164 0 0 0 176 0 177 177 178 179 0 0 179 181 0 0 184 185 0 0 0 186 185 185 185 185 0 0 0 188 188 188 188 0 0 190 0 191 0 0 193 0 194 195 196 197 198 199 0 199 200 0 0 0 201 0 201 201 0 0 0 201 202 0 203 203 202 203 0 0 0 0 0 0 203 202 202 0 0 201 201 0 0 0 199 0 0 0 199 0 0 198 0 0 0 198 198 198 198 0 0 197 197 196 0 0 196 0 0 196 196 196 196 196 196 0 0 195 195 0 195 194 194 0 194 0 193 192 0 0 191 190 192 193 198 0 0 0 199 196 192 191 191 0 0 187 186 0 0 0 0 177 167 163 156 156 162 0 0 152 147 0 0 149 0 0 0 155 156 163 0 0 0 0 0 0 0 0 163 163 0 161 0 159 158 0 0 0 149 148 0 0 0 140 137 136 0 136 0 128 125 0 123 121 120 0 0 121 121 0 0 0 0 115 112 111 111 0 113 114 118 0 0 0 0 0 0 0 131 129 128 0 0 125 124 124 124 123 0 0 121 121 0 0 118 0 0 114 114 0 115 0 0 115 114 0 0 0 0 0 120 0 124 0 124 124 125 128 0 133 0 0 144 145 149 0 0 0 153 144 149 154 0 165 0 0 0 0 0 182 0 0 190 189 193 199 0 0 0 0 207 0 0 0 209 207 0 214 215 0 216 216 216 0 0 219 220 220 220 0 0 215 216 0 222 226 0 0 237 0 241 0 244 245 0 246 0 247 247 247 0 248 248 248 
210 210 0 210 212 0 0 0 0 0 220 220 220 220 0 0 0 211 0 207 0 204 0 0 204 203 204 210 220 0 0 0 208 0 188 180 175 0 164 160 156 154 0 0 0 0 152 0 0 153 0 154 154 0 155 155 155 0 154 154 0 0 153 152 152 152 152 151 150 0 149 0 0 0 148 0 147 147 147 0 0 146 145 144 143 143 142 141 141 0 140 140 139 139 138 137 136 0 136 0 0 135 135 0 0 134 134 134 135 0 136 0 135 0 135 136 0 0 0 0 139 0 0 0 0 0 0 140 140 141 141 141 142 0 0 0 0 142 141 0 0 139 137 0 143 145 0 0 0 145 0 146 0 148 160 0 0 186 185 184 0 184 184 185 186 0 0 0 0 0 190 0 189 0 0 0 165 160 158 0 157 0 156 155 154 153 152 152 0 151 150 150 0 0 149 0 0 0 147 0 0 146 0 146 0 145 144 144 144 144 0 0 143 143 0 143 143 0 0 142 141 141 0 140 0 0 139 138 0 0 137 0 136 136 0 136 136 136 136 0 137 137 0 137 137 0 0 0 136 137 137 0 0 0 0 136 0 136 0 0 136 136 0 136 136 0 0 0 0 136 0 136 136 0 0 136 0 137 137 0 138 0 138 138 139 142 0 0 148 0 151 154 155 0 161 163 0 0 0 176 176 177 0 177 0 179 0 180 0 181 0 183 184 185 0 0 189 186 0 185 0 0 186 187 0 188 0 0 189 189 0 0 191 0 192 192 193 0 194 0 196 197 0 199 0 0 0 0 201 0 201 201 201 0 0 202 202 0 0 0 203 0 203 203 0 203 203 0 0 0 0 203 0 202 0 0 201 0 200 200 0 199 0 0 199 0 198 0 0 199 0 0 198 198 0 0 0 0 197 197 197 0 196 0 0 0 196 196 196 196 196 196 0 194 195 0 0 194 0 194 194 193 193 0 192 191 191 193 198 0 0 0 0 198 194 191 189 189 189 0 188 187 0 186 187 188 0 182 173 0 0 164 0 0 0 0 0 0 0 0 0 0 0 0 0 0 0 165 165 0 0 162 162 162 162 163 0 162 160 159 0 0 153 151 149 147 147 146 0 0 0 133 0 132 0 129 125 0 122 120 0 0 0 122 122 0 0 0 0 116 112 111 110 112 115 0 0 0 0 0 0 131 130 130 0 0 0 0 0 127 126 0 0 122 0 0 0 120 120 0 0 115 0 113 114 0 0 115 115 115 117 0 0 0 0 0 0 0 0 0 0 124 124 0 130 130 0 0 0 139 0 152 0 155 0 147 149 156 0 167 173 0 0 176 176 0 0 0 188 0 0 199 0 0 0 209 207 210 0 211 208 208 0 0 0 0 0 0 214 212 216 216 0 0 0 0 217 214 216 0 222 225 0 0 0 0 0 0 244 245 0 246 0 247 247 0 0 248 248 248 
0 208 209 209 210 0 0 219 219 0 0 0 0 220 0 0 0 212 208 207 206 205 205 205 0 204 208 0 0 0 0 225 208 195 185 180 0 170 164 0 0 0 154 152 152 151 151 0 153 153 0 154 0 0 155 0 0 154 153 153 153 153 0 0 152 0 0 0 150 149 0 148 0 0 148 0 147 0 0 0 0 0 0 0 0 0 0 142 141 140 139 139 0 138 137 0 136 136 0 135 135 135 135 134 134 134 133 0 134 0 135 135 135 135 0 136 0 137 137 0 138 0 0 137 137 0 139 139 140 0 141 141 0 143 144 0 144 0 143 0 0 139 137 0 0 144 145 0 0 147 145 147 0 151 164 0 0 0 0 185 184 0 183 183 183 183 184 0 0 0 0 189 0 0 0 0 172 163 159 158 0 0 0 0 0 0 0 152 0 151 150 0 149 149 0 149 0 148 147 146 0 0 146 146 0 0 0 0 144 0 143 143 143 143 143 143 143 143 0 142 0 141 0 0 140 0 0 137 137 0 136 0 136 136 0 135 0 0 0 136 0 137 137 137 0 0 136 136 136 0 137 0 136 136 0 0 0 0 136 0 136 136 136 136 0 0 136 136 0 136 0 135 135 0 0 136 136 136 0 0 0 0 137 138 139 0 0 147 149 151 0 0 158 0 163 0 0 0 0 176 0 177 0 178 178 179 180 0 0 181 182 0 184 187 0 0 188 186 0 186 186 0 186 187 0 0 188 0 0 0 189 0 191 0 192 192 193 0 195 0 197 0 0 199 0 0 200 0 201 201 201 0 200 201 202 202 0 0 203 203 203 203 0 0 0 203 203 0 203 0 203 0 0 0 202 201 200 0 0 200 200 200 200 0 199 0 0 0 199 199 0 198 198 0 0 0 198 197 197 0 0 197 197 197 197 0 0 196 196 0 196 196 0 194 0 195 194 194 0 0 0 193 193 193 192 193 199 0 0 0 0 201 197 193 189 187 186 0 0 0 187 186 186 186 188 192 0 0 182 0 0 173 0 0 0 0 0 0 0 0 162 159 161 161 161 162 165 165 165 164 0 160 161 162 0 0 0 161 160 0 157 0 154 152 0 148 0 0 0 0 135 133 132 131 130 0 0 0 0 120 119 0 0 122 122 126 0 0 121 0 112 0 112 0 0 0 0 0 127 0 129 130 0 0 128 125 127 0 0 0 128 0 0 124 125 125 123 0 119 117 117 114 113 113 0 0 0 115 115 116 119 0 0 122 0 121 121 0 124 124 0 0 128 0 129 129 0 0 138 137 0 149 0 0 149 146 0 158 0 0 0 0 0 171 171 174 181 183 186 0 0 199 201 0 0 209 209 0 0 0 0 0 0 0 0 0 213 212 212 213 0 216 0 0 0 219 215 214 216 0 222 225 229 233 0 0 0 243 244 245 0 246 0 247 247 247 0 248 248 248 
0 208 0 209 211 0 0 0 218 219 219 219 0 0 0 0 0 211 208 207 0 206 205 0 0 204 216 0 0 0 0 0 0 209 189 178 175 0 166 162 160 158 0 153 151 151 151 0 153 154 154 0 0 155 155 0 154 0 153 153 153 0 0 152 0 151 151 0 150 149 148 0 148 147 0 0 0 146 146 0 146 145 145 0 144 0 143 0 0 0 0 139 138 137 0 0 0 0 0 134 0 0 0 134 0 0 0 133 133 134 0 0 134 0 0 135 135 135 0 0 136 136 0 0 137 0 0 139 139 141 141 141 141 142 0 0 0 0 0 0 141 139 137 0 141 0 144 146 0 0 0 0 149 153 169 0 0 0 187 186 184 183 183 183 182 181 181 183 184 0 0 0 0 188 0 0 0 167 161 158 158 157 0 0 154 154 0 153 0 151 0 150 149 148 149 148 148 148 0 0 147 0 0 0 146 145 145 0 0 143 142 143 0 0 143 0 0 0 0 142 141 141 0 0 140 0 138 0 136 136 136 0 136 136 0 0 0 135 135 136 0 0 137 0 136 136 135 0 136 0 0 0 0 136 136 136 136 0 135 135 135 0 0 135 135 0 0 136 136 136 0 135 0 0 136 136 0 136 136 137 0 137 137 138 140 143 146 148 0 152 0 158 0 162 167 0 0 0 175 176 0 0 178 178 178 0 0 0 181 181 0 0 184 187 0 0 188 186 0 186 186 186 0 0 187 0 187 0 190 0 189 0 191 191 192 0 192 194 0 196 197 0 199 200 200 201 200 200 201 0 0 201 201 0 202 202 0 0 203 203 203 0 0 0 203 0 0 203 203 0 203 203 0 202 202 0 201 201 0 0 201 0 200 200 199 199 199 199 199 0 0 0 198 0 0 198 198 197 0 198 198 0 0 197 197 0 196 196 196 0 196 0 0 195 195 195 195 0 194 193 194 0 0 192 195 0 0 0 0 0 0 196 192 188 0 183 182 183 184 0 0 187 188 190 193 0 0 0 189 185 0 177 174 0 0 0 0 166 163 165 0 0 169 0 0 166 166 166 165 0 0 160 161 163 0 0 0 161 0 0 156 0 0 0 0 147 0 0 0 0 135 0 130 129 129 0 0 122 120 119 117 118 0 0 122 126 0 0 122 0 112 0 112 0 115 114 117 119 123 128 0 0 0 0 126 125 124 126 0 0 0 0 0 125 0 0 124 0 0 119 117 116 114 113 0 116 113 114 116 118 0 0 121 0 120 118 119 0 0 123 0 0 128 0 0 133 0 0 139 0 0 141 0 142 143 0 0 0 158 161 0 0 0 167 0 174 0 180 184 186 0 0 198 203 0 0 0 210 0 0 0 0 210 211 0 212 208 212 214 0 216 216 0 0 0 218 214 0 216 0 221 225 0 233 236 0 0 243 244 245 0 246 0 247 247 247 0 248 248 248 
0 0 208 209 211 214 0 0 218 0 0 219 219 219 0 0 0 209 0 207 0 0 0 0 0 203 0 0 0 0 0 0 0 0 0 190 176 172 166 163 161 0 0 0 151 150 151 153 0 155 155 156 156 0 155 155 154 0 153 0 0 152 152 0 0 150 0 150 0 0 148 148 148 147 147 0 0 146 146 0 145 144 144 144 144 0 0 0 141 0 0 139 137 137 136 135 135 134 133 134 134 134 134 0 0 0 134 0 0 0 134 0 134 0 134 134 133 133 133 134 134 0 134 136 136 136 0 0 0 0 0 0 141 141 0 142 141 141 142 0 140 139 0 139 140 0 143 0 0 147 0 148 148 157 0 0 0 189 0 0 186 184 184 0 183 181 181 181 181 182 0 0 0 0 0 0 0 0 165 159 158 0 157 156 155 154 154 0 0 0 151 0 0 0 149 0 0 148 148 0 147 146 146 0 146 145 0 145 144 0 0 143 143 143 143 0 142 142 142 141 141 0 0 0 139 0 136 136 136 0 0 0 0 0 135 135 0 135 0 0 0 0 0 0 135 0 0 135 0 136 136 0 136 0 135 0 135 0 135 0 0 135 0 135 134 135 135 0 136 136 0 135 135 135 135 0 0 135 0 136 0 0 137 139 0 144 0 150 0 154 157 160 163 166 0 0 0 0 176 0 0 177 0 0 0 0 180 0 181 181 0 183 184 187 0 0 187 185 186 186 186 0 0 186 187 0 187 0 0 0 0 190 190 0 0 0 193 194 0 197 198 0 0 0 201 0 0 201 0 0 0 201 0 202 0 202 202 0 203 203 203 0 203 203 0 0 0 203 0 0 203 0 0 202 202 202 0 0 0 0 201 0 0 0 0 199 199 199 0 0 198 198 198 0 0 0 0 198 198 198 0 0 197 197 197 0 196 196 196 196 196 196 195 195 195 0 0 195 194 194 194 194 194 195 0 0 0 0 0 200 195 190 187 184 0 180 179 179 181 0 0 189 0 0 198 0 0 0 193 188 0 182 171 169 166 166 166 169 170 0 174 0 0 0 0 0 0 0 166 165 163 162 0 0 163 163 0 0 158 157 155 152 153 0 0 0 143 140 0 0 134 0 129 128 127 0 0 122 0 117 0 117 120 0 123 126 0 0 0 116 112 111 110 113 113 113 116 122 126 0 0 128 0 126 0 0 0 125 126 127 127 0 0 0 0 0 0 0 122 0 0 118 115 113 0 0 114 114 117 0 0 122 121 0 120 119 0 120 0 123 125 0 127 0 132 134 0 136 137 0 136 135 0 136 141 0 0 0 154 157 0 158 160 162 0 173 176 0 183 187 193 0 199 201 0 205 205 207 209 0 0 208 205 208 0 214 214 0 217 0 217 217 220 0 222 218 215 214 215 0 221 225 0 0 0 239 0 0 0 245 0 246 0 247 247 247 0 248 248 248 
207 207 207 208 210 212 0 217 0 218 0 219 219 219 0 0 212 208 0 207 0 0 0 0 0 190 0 0 0 0 242 242 0 0 0 0 198 177 166 164 162 0 157 153 150 150 152 0 0 156 0 156 0 156 0 0 155 0 153 153 152 152 0 151 0 150 0 0 149 148 148 148 0 0 146 146 145 146 146 146 145 0 144 144 144 0 0 0 142 141 140 139 138 0 0 0 0 134 0 134 133 133 0 134 0 0 134 134 0 0 133 133 133 0 133 133 133 133 0 0 133 134 0 0 0 135 137 0 0 0 0 0 0 0 140 0 0 140 141 141 140 139 0 138 138 140 142 144 145 146 0 148 152 166 0 0 0 189 0 0 187 0 0 185 184 0 0 0 181 181 181 181 0 0 0 0 0 0 0 163 158 158 0 0 0 0 154 0 153 151 151 0 150 0 149 149 0 0 0 147 147 0 0 0 0 146 0 0 144 0 144 0 143 142 142 0 142 142 0 0 140 0 139 139 0 138 136 136 136 0 135 135 135 0 135 134 135 135 135 135 135 0 135 135 135 0 135 135 0 0 135 0 135 134 135 135 134 134 134 0 0 134 0 0 0 0 134 135 0 0 0 135 0 0 135 0 0 135 135 135 136 137 137 140 0 146 149 0 154 156 0 162 166 0 0 0 175 0 175 0 0 178 0 0 179 180 0 0 181 182 0 0 184 185 0 0 186 0 0 0 0 0 186 186 0 0 0 188 189 189 189 190 190 0 0 193 193 194 196 0 0 199 200 200 0 0 0 0 202 202 201 0 202 202 0 202 0 202 0 0 0 203 0 0 203 0 0 0 0 203 202 203 203 0 0 202 202 202 202 202 0 202 0 0 0 199 199 199 0 198 0 198 198 198 0 198 198 0 198 0 198 197 197 197 0 197 196 196 0 0 0 196 0 0 0 0 0 0 0 0 194 194 194 0 0 0 0 0 200 195 190 185 182 180 179 177 177 177 179 182 0 0 0 0 0 0 0 0 197 192 0 0 182 174 171 171 174 176 0 0 0 180 0 0 0 0 0 0 0 0 0 162 0 0 162 161 160 158 157 0 0 0 0 0 147 0 141 137 0 0 133 131 129 127 125 125 0 122 119 117 117 0 119 121 0 126 0 0 0 116 0 0 112 0 0 0 0 0 0 0 127 126 0 124 125 125 124 124 0 0 124 126 0 0 124 0 123 0 122 0 0 0 0 116 0 0 115 116 120 0 0 123 0 0 121 119 0 120 0 123 122 0 0 0 130 132 0 136 133 133 130 130 134 0 142 0 0 0 153 0 154 153 154 160 165 0 0 0 183 0 0 195 0 198 199 0 203 0 0 207 204 205 206 212 0 0 0 0 219 0 220 220 222 0 225 0 216 214 215 0 220 225 0 0 237 239 241 242 0 0 0 0 0 247 247 0 0 248 248 248 
0 0 207 208 209 210 213 0 0 0 0 0 0 0 0 0 211 209 207 207 0 206 0 0 188 176 198 0 0 0 0 0 0 0 0 0 0 0 181 165 162 0 0 153 152 153 154 155 0 157 0 157 0 157 156 156 0 155 0 152 0 0 151 150 0 149 149 149 0 147 0 0 0 0 0 146 145 0 0 146 0 0 144 144 144 0 143 0 142 0 0 0 0 137 0 137 136 135 0 0 0 134 0 133 133 133 0 0 0 133 132 0 0 133 133 133 133 0 0 0 0 133 134 135 0 135 136 138 0 0 141 140 140 140 140 0 0 0 0 0 0 138 138 0 137 138 141 143 0 145 146 151 162 0 0 0 0 190 0 189 188 187 186 186 0 0 0 182 182 181 180 179 180 181 0 0 0 0 0 171 161 159 158 157 156 0 155 154 0 152 0 151 150 150 149 148 0 0 147 147 147 147 0 0 146 146 146 0 144 144 0 0 143 142 142 0 0 0 0 0 140 138 137 138 0 0 137 0 136 135 135 135 0 134 0 0 0 135 0 134 134 0 135 135 135 0 135 0 0 135 0 135 135 0 0 0 0 0 0 134 134 0 134 134 0 0 135 0 0 135 134 134 0 134 135 135 135 0 134 135 0 0 138 140 144 0 150 0 156 158 162 166 0 0 0 0 176 0 176 0 177 178 0 179 179 180 0 181 181 182 0 0 183 184 0 0 185 184 185 0 187 0 0 187 0 188 0 187 189 0 0 0 191 0 0 192 0 195 196 0 0 0 200 0 0 0 0 0 0 0 202 202 0 0 0 0 0 202 202 203 203 203 0 0 0 0 0 203 203 203 0 203 0 203 203 0 202 202 0 0 202 0 201 200 0 199 199 199 0 197 198 198 0 198 0 0 198 198 198 0 0 0 196 197 0 197 0 196 196 196 0 0 196 0 195 195 195 194 194 0 0 194 0 0 0 0 0 200 196 191 187 183 180 177 176 177 0 176 176 179 184 0 0 0 0 0 0 204 202 199 199 0 0 0 0 0 0 0 0 0 0 183 0 0 0 0 0 0 0 165 0 161 161 0 160 0 0 156 0 0 0 152 150 0 145 142 139 137 0 0 132 130 0 0 122 122 0 0 119 117 115 0 119 121 0 0 0 0 119 0 113 112 112 0 0 0 0 0 126 0 0 0 0 125 0 124 123 122 124 0 123 125 0 123 120 121 121 121 0 0 0 118 115 0 117 0 115 117 122 0 0 123 118 121 0 122 123 122 0 0 123 0 127 0 131 131 0 134 131 131 129 131 135 0 145 151 0 0 156 153 151 150 151 158 163 0 0 0 180 186 190 193 0 196 195 197 199 0 0 204 205 0 212 216 0 0 0 0 221 0 220 222 225 0 0 0 0 215 216 218 221 225 230 0 0 0 241 0 0 244 0 246 0 247 247 247 0 248 248 248 
0 206 207 0 208 0 211 0 0 0 0 0 0 0 215 212 210 208 0 207 0 0 0 0 181 167 174 0 0 0 0 241 0 240 240 0 0 0 0 190 167 158 157 156 0 0 0 0 0 157 0 0 0 157 0 0 0 0 0 153 152 0 151 150 149 149 0 148 0 148 0 147 146 0 0 0 0 0 0 146 145 145 145 0 0 0 142 0 0 141 141 0 0 137 0 0 0 0 0 135 0 134 0 133 132 132 133 133 0 133 0 132 132 0 133 133 133 133 0 0 133 133 0 0 135 0 0 138 0 0 140 140 139 139 0 141 0 0 0 140 139 137 0 0 137 138 0 0 0 145 147 159 0 0 0 0 191 0 190 0 0 188 0 187 0 186 185 0 0 182 181 180 179 178 180 181 0 0 0 0 169 160 159 157 156 156 155 0 154 0 152 151 151 0 0 149 149 0 147 0 0 147 147 0 146 0 146 0 0 144 143 143 143 0 142 142 0 141 141 141 140 0 137 137 0 0 0 0 0 0 0 135 134 133 134 0 0 0 0 134 134 134 0 0 135 0 135 135 135 135 0 135 0 134 134 0 134 133 133 133 134 134 0 133 0 0 0 135 134 134 134 134 134 134 0 135 135 0 134 0 136 138 140 143 147 0 153 155 158 162 166 0 0 0 176 0 0 0 0 177 0 178 0 179 179 180 0 181 181 182 0 0 183 183 184 184 184 185 0 0 187 187 187 187 0 188 188 188 0 0 191 0 192 0 0 193 0 0 0 198 199 0 200 200 200 200 0 0 201 201 0 0 0 203 203 203 0 0 203 203 203 203 203 203 203 203 0 0 0 203 202 203 0 203 0 0 0 202 0 201 201 0 0 200 0 199 0 0 0 198 198 198 0 0 0 0 198 0 197 197 197 197 197 196 197 197 0 0 0 0 196 196 0 195 194 195 0 0 194 194 0 194 0 0 197 0 0 197 193 190 187 184 181 179 177 177 176 175 175 177 181 187 0 0 0 0 0 207 0 0 0 0 0 0 0 0 0 0 0 0 0 0 183 181 180 178 175 0 167 164 162 162 0 0 159 0 0 155 155 0 153 151 150 148 0 140 136 135 0 132 129 0 0 125 120 120 0 119 0 117 114 118 0 122 123 125 0 121 118 115 113 111 110 112 114 119 0 0 0 122 0 0 0 0 0 124 123 122 124 0 124 0 0 123 119 119 119 119 120 0 117 116 115 0 0 0 116 118 0 0 0 124 119 120 123 0 0 0 0 124 124 0 128 0 131 130 0 133 131 0 0 0 0 0 0 149 0 0 155 152 0 148 151 0 162 169 172 175 179 188 0 0 0 196 195 194 197 0 0 203 0 0 0 0 0 222 222 0 222 220 217 0 0 0 0 0 220 216 216 218 220 225 230 234 0 0 0 0 0 0 0 246 0 247 247 247 0 248 248 248 
0 206 207 0 208 0 210 211 212 213 214 0 0 214 212 0 0 207 207 206 0 0 0 189 176 165 159 179 0 0 0 0 0 0 0 239 0 0 0 0 0 174 160 158 158 158 0 0 157 157 158 158 157 157 0 155 155 155 154 152 0 0 0 0 149 149 0 0 0 148 0 146 146 146 146 146 0 0 0 0 145 0 0 0 145 0 142 0 0 0 141 140 0 138 0 0 136 135 135 134 0 134 0 0 133 0 0 0 0 0 132 132 132 0 133 133 0 132 132 132 0 132 133 0 134 0 0 0 0 0 0 0 0 139 0 140 141 0 142 141 139 137 0 135 136 137 0 141 141 143 154 0 0 0 0 0 191 191 0 190 189 0 188 188 0 0 0 184 184 183 0 181 180 179 178 177 0 0 0 0 0 166 160 158 157 0 156 0 154 153 152 0 0 151 0 149 0 0 148 147 0 0 146 0 0 0 145 0 144 0 0 143 143 0 0 142 141 141 141 0 0 139 138 136 0 136 0 134 134 0 0 0 134 0 134 134 134 0 134 134 134 134 134 0 134 0 0 0 0 135 135 0 0 133 0 0 133 133 133 0 0 0 0 133 134 134 0 134 0 0 134 0 134 0 0 0 0 0 135 0 137 139 142 0 0 0 155 158 161 0 0 0 0 0 176 176 176 176 0 177 177 0 0 179 0 0 0 181 181 182 0 183 183 0 0 184 0 185 186 0 187 187 187 187 187 188 0 0 189 190 190 0 192 192 0 0 194 195 0 0 199 200 200 200 0 201 201 0 202 202 0 0 0 0 0 203 203 203 0 0 0 0 203 0 203 203 0 203 0 203 203 203 0 202 202 202 202 0 201 200 0 199 199 0 199 198 0 0 198 0 0 198 0 0 0 0 198 0 0 0 197 0 0 197 197 197 197 0 196 0 0 195 195 194 0 195 195 0 194 0 193 193 0 191 188 0 0 0 0 194 0 0 0 0 0 0 0 176 0 0 0 184 0 199 0 0 208 0 0 0 0 0 0 0 0 0 0 193 191 0 0 0 0 182 0 177 173 169 166 164 162 0 0 0 158 157 0 0 154 153 151 151 151 0 144 139 134 132 0 0 127 126 0 0 121 120 0 118 118 0 116 119 0 0 123 0 0 0 0 115 0 114 0 0 0 0 0 0 119 117 118 119 119 121 0 0 123 123 0 0 0 0 0 0 121 119 119 119 118 118 116 115 114 0 116 0 117 118 0 0 0 125 121 121 123 0 0 123 0 123 122 0 0 0 131 131 0 0 133 132 0 136 139 0 0 148 0 0 154 151 0 151 155 159 164 0 176 0 183 0 0 199 197 196 0 196 197 201 202 199 197 200 209 0 0 0 0 0 0 219 216 0 228 0 0 0 0 216 216 0 222 225 0 0 0 0 0 243 244 245 0 246 0 247 247 247 0 248 248 248 
0 0 207 207 208 0 0 0 210 210 211 212 212 0 210 209 208 207 0 206 0 0 0 183 172 163 155 155 186 0 0 0 0 239 239 0 238 0 0 0 0 0 188 167 160 158 0 158 157 158 0 0 158 158 0 156 155 0 0 0 151 151 150 150 0 149 149 0 148 148 0 0 146 146 146 146 0 146 146 146 145 0 145 145 0 0 143 142 141 0 0 0 0 137 137 0 0 135 0 0 0 134 0 0 133 0 132 132 132 132 132 0 133 0 133 133 0 132 131 131 132 132 0 133 133 0 135 136 137 138 0 0 140 139 139 0 141 142 0 0 140 138 0 135 134 135 138 0 142 146 164 0 0 0 0 192 0 0 191 0 190 0 189 0 0 0 0 186 0 0 0 0 0 0 179 177 177 178 0 0 0 0 165 160 158 157 157 156 155 154 153 152 152 0 0 150 0 149 148 147 147 146 146 146 146 146 145 0 145 0 144 143 0 0 0 141 0 141 141 141 0 0 0 137 135 135 0 134 134 0 134 0 134 0 0 0 133 133 0 0 0 0 0 0 134 134 134 134 134 0 0 134 0 133 0 0 133 0 133 133 0 0 133 0 134 134 0 134 0 0 133 0 134 134 0 134 134 134 135 136 137 141 0 0 152 0 158 0 165 0 0 0 0 175 0 0 0 175 0 0 177 178 0 179 179 180 0 181 0 0 0 182 0 183 184 0 185 185 186 186 187 0 0 0 187 188 0 0 189 189 0 0 192 192 192 193 0 196 0 0 200 0 0 0 201 0 0 202 0 0 202 202 202 202 0 0 0 0 203 0 0 0 204 0 204 0 0 203 203 203 0 0 202 202 0 0 0 201 0 200 0 199 199 199 0 0 198 198 198 198 0 198 198 198 198 198 198 0 0 197 197 0 198 0 0 0 197 0 0 196 0 196 0 195 0 195 195 195 195 0 194 193 0 185 180 181 185 0 0 0 0 0 0 0 0 0 0 176 174 174 0 181 0 0 0 0 0 0 0 0 0 0 0 0 200 0 0 192 0 189 188 0 0 0 0 0 0 0 0 163 0 161 160 0 157 157 0 0 153 152 151 152 0 0 144 137 133 130 0 0 124 0 0 0 0 122 120 117 116 0 119 0 0 0 122 0 0 116 0 0 115 0 0 0 115 116 115 115 116 116 115 0 0 0 0 0 0 122 123 0 123 123 0 0 0 0 0 0 0 0 0 115 114 0 116 0 117 119 0 130 0 125 125 0 0 122 123 124 0 0 122 0 127 127 0 0 0 0 131 132 0 137 137 0 144 146 0 0 152 149 152 154 158 163 0 0 0 0 186 0 0 0 199 194 193 0 0 0 203 0 199 199 207 0 0 217 0 0 0 218 216 222 227 0 229 0 221 216 217 0 222 0 0 0 237 0 0 243 244 245 0 0 0 247 247 247 0 248 248 248 
207 207 207 207 0 208 208 208 209 209 209 209 210 0 208 207 207 207 0 0 0 0 0 180 169 160 153 148 156 0 0 0 0 0 238 0 237 237 237 0 0 0 0 0 178 161 158 158 158 0 159 159 0 0 0 0 0 154 0 0 150 150 0 150 149 0 0 148 148 0 147 0 0 0 0 146 145 144 0 146 0 0 0 145 144 0 143 142 0 0 0 0 0 0 137 136 135 135 134 133 134 134 0 133 133 133 0 132 0 0 0 0 133 0 0 133 132 132 132 132 0 0 134 134 0 134 0 135 136 136 137 0 0 0 138 139 0 0 0 0 0 139 0 137 136 136 137 139 141 153 0 0 0 0 193 0 192 191 191 0 191 0 190 0 189 188 187 0 0 186 185 184 0 0 0 179 177 176 176 0 0 0 0 164 159 158 0 0 0 0 0 153 0 152 0 149 0 0 148 0 147 146 0 146 146 0 0 145 145 0 144 0 143 142 141 141 141 141 141 141 0 0 0 0 135 135 0 134 134 134 134 0 133 133 133 0 0 133 0 133 133 133 0 134 0 134 0 134 134 134 0 133 0 133 0 0 133 132 133 0 133 133 0 134 0 134 0 133 133 133 0 133 0 0 0 133 133 134 135 136 140 0 0 0 0 0 0 0 0 0 0 0 0 0 0 0 0 0 0 0 0 0 0 0 0 0 180 0 181 181 182 182 0 183 184 0 185 0 0 0 187 0 0 188 188 188 188 0 189 190 0 0 192 0 0 193 195 0 0 0 200 0 200 200 0 201 0 0 202 202 202 202 0 203 203 0 201 201 202 0 203 0 204 0 204 204 204 0 203 203 203 0 202 202 201 201 201 201 0 200 0 199 0 198 0 0 198 0 198 198 198 0 197 197 0 0 0 0 197 197 197 0 198 198 0 0 197 197 197 197 0 196 0 195 195 195 0 0 0 0 0 194 0 182 174 173 177 184 0 0 0 0 0 0 183 181 0 0 171 170 171 178 0 0 0 0 0 0 0 0 0 207 0 200 0 195 0 190 189 0 0 185 183 0 0 175 0 167 164 161 161 0 158 158 157 157 156 155 154 153 0 0 0 0 143 137 133 129 125 123 120 119 0 0 0 0 0 118 116 0 121 0 0 0 0 118 113 113 0 0 113 0 114 114 113 114 116 0 116 115 112 112 0 119 0 0 120 120 0 0 123 124 124 123 0 122 120 0 0 118 0 114 114 0 116 0 117 120 0 128 0 127 0 0 122 120 0 0 125 0 124 125 126 127 0 132 135 0 132 131 0 137 139 0 143 147 0 0 152 150 151 159 164 0 0 0 180 181 185 194 201 0 0 199 198 0 0 205 207 0 0 203 207 0 216 216 0 0 0 216 216 222 0 0 227 0 221 218 218 220 222 227 0 234 237 239 0 0 244 245 0 246 0 247 247 247 0 248 248 248 
207 207 207 207 0 0 0 0 0 208 0 0 0 208 207 207 207 0 206 0 0 0 0 177 166 158 151 145 142 155 0 0 0 0 237 0 236 236 236 236 0 0 0 0 0 186 163 157 158 0 159 0 0 158 157 0 154 153 153 152 151 0 150 0 149 149 0 148 0 147 146 145 146 146 145 0 0 0 0 146 0 0 145 0 0 143 0 142 0 0 141 140 0 139 0 0 135 0 0 134 134 134 133 133 133 133 0 0 0 0 133 133 133 133 133 133 0 0 0 0 0 0 0 0 0 134 134 0 0 137 138 0 0 0 139 138 0 140 140 0 0 138 138 138 0 0 136 138 142 159 0 0 0 0 193 0 192 191 0 191 191 0 0 190 189 0 188 187 187 0 0 185 183 0 0 0 0 178 176 175 177 0 0 0 163 159 157 157 156 155 154 0 0 152 151 150 150 0 148 0 147 147 147 0 0 146 146 0 0 0 144 0 0 143 142 141 141 0 0 141 0 139 139 0 136 0 134 133 0 134 0 133 133 133 0 133 133 0 0 133 133 133 133 0 0 133 0 0 0 0 0 132 0 0 133 133 0 0 133 0 133 133 0 134 0 133 133 0 133 133 0 0 132 0 0 132 0 134 136 139 143 0 0 0 0 0 0 0 0 0 0 0 0 0 0 0 0 0 0 0 0 0 0 0 0 0 0 0 0 0 0 0 0 0 0 184 0 185 186 186 0 187 0 0 188 188 188 188 0 0 0 191 192 0 0 193 195 0 0 199 0 0 0 200 0 200 0 0 201 0 0 201 202 0 0 201 200 0 0 0 202 0 204 0 0 0 0 204 0 0 203 0 0 202 202 201 201 0 200 200 199 199 0 198 0 0 0 198 0 0 197 0 0 0 0 197 0 197 196 197 0 198 198 198 0 197 0 0 0 0 197 0 196 195 195 195 195 195 195 0 195 194 0 182 171 166 170 0 0 0 0 0 0 0 184 181 0 173 167 164 164 174 0 0 0 208 0 0 0 0 207 205 0 0 195 192 190 0 187 0 184 183 0 179 177 173 0 167 163 160 0 0 158 0 0 0 0 154 0 0 0 153 0 0 0 139 0 129 122 121 119 116 117 119 0 0 122 119 119 0 0 0 120 120 0 115 113 114 0 0 112 111 113 0 115 114 0 0 117 115 0 115 116 117 118 119 119 122 0 0 0 0 0 121 0 121 0 0 0 0 0 0 0 116 116 117 118 123 0 128 0 126 0 0 120 121 0 0 124 125 125 123 125 128 0 133 133 0 135 134 135 0 0 0 141 147 152 0 150 149 154 0 0 0 0 0 181 181 185 193 199 0 0 0 0 0 0 207 0 0 208 207 209 0 0 216 216 0 0 216 217 0 0 0 226 0 0 221 220 0 0 227 0 234 0 0 241 0 0 245 0 246 0 247 247 247 0 248 248 248 
207 207 207 207 207 208 209 0 209 208 0 0 208 207 207 0 0 0 206 0 0 0 182 0 163 155 148 144 141 141 158 0 0 0 0 0 235 235 235 235 235 235 0 0 0 0 192 165 157 158 0 0 0 158 0 0 155 0 154 0 0 151 0 150 149 149 0 148 147 0 146 0 0 145 145 145 0 0 145 0 0 0 144 144 143 0 142 0 141 141 141 140 0 137 137 137 136 0 0 0 0 0 0 0 0 133 133 133 0 132 0 0 133 0 133 133 133 132 0 132 133 0 134 134 134 134 134 0 0 0 0 0 0 0 0 0 139 139 139 139 0 138 137 0 0 0 138 138 143 160 0 0 194 0 0 0 192 192 0 191 191 0 191 190 0 0 0 188 0 187 0 186 185 184 183 182 181 0 178 176 175 176 0 0 0 163 159 158 0 0 0 154 0 0 152 151 150 150 149 148 0 148 0 147 0 0 146 146 146 0 144 144 0 0 0 0 141 141 0 141 0 0 139 0 137 135 134 134 0 134 0 0 0 133 0 132 133 133 0 133 0 0 132 0 133 133 133 0 0 133 132 131 131 132 0 0 132 132 0 0 133 133 0 0 0 0 133 0 0 132 0 132 132 0 131 131 133 134 137 0 0 0 0 0 0 149 149 149 149 150 150 150 150 150 150 151 152 152 155 157 160 162 163 164 0 0 0 0 0 0 0 0 0 0 0 0 0 185 0 186 186 186 187 0 188 188 0 0 189 189 190 190 0 0 0 0 0 0 0 197 0 0 0 0 0 199 199 199 0 200 0 200 0 0 0 0 200 200 0 201 201 202 203 0 205 0 0 0 204 204 203 203 203 0 0 0 201 0 200 0 0 199 0 0 0 198 198 198 0 197 197 197 0 0 197 197 197 197 0 0 197 0 0 198 197 0 0 0 197 197 197 197 0 195 195 195 195 195 195 195 195 0 0 0 171 163 162 165 0 0 0 0 0 0 0 0 0 171 165 160 160 171 0 0 0 0 0 0 0 208 0 202 199 0 0 189 0 186 184 0 0 181 0 177 0 0 0 0 162 0 158 157 156 0 156 155 0 153 153 0 0 151 0 0 143 0 0 0 123 121 120 118 117 117 0 125 121 121 0 0 0 119 117 0 0 113 113 112 0 0 114 110 112 0 0 117 117 0 0 117 114 0 116 117 117 118 120 0 0 0 0 0 0 120 120 0 0 0 117 116 0 116 116 0 117 117 120 0 124 126 0 0 0 122 121 121 123 0 126 0 0 123 125 128 0 0 136 0 137 134 136 139 0 144 141 146 0 152 154 156 160 170 0 0 0 0 183 0 189 193 0 0 0 0 203 203 205 210 0 0 0 210 211 0 0 0 217 0 218 218 220 0 0 0 225 0 0 222 0 220 0 0 0 0 237 0 240 242 0 245 0 246 0 247 247 0 0 248 248 248 
207 207 207 0 207 207 0 0 209 208 208 207 207 207 0 206 0 206 0 0 0 187 176 0 160 152 146 143 140 138 138 165 0 0 0 0 235 235 235 0 234 234 0 0 0 0 0 0 173 159 157 158 0 0 0 157 156 0 154 0 0 152 0 150 0 0 149 0 0 0 146 146 0 145 0 145 145 145 145 0 145 144 144 143 0 142 0 141 141 0 141 0 140 0 138 0 0 135 133 133 133 0 0 0 0 133 133 133 0 132 0 132 0 133 0 0 0 132 132 132 0 133 0 133 133 134 0 0 134 0 0 137 136 136 137 0 0 0 0 138 138 0 137 137 139 0 140 139 141 158 0 0 193 194 0 193 192 0 192 0 191 0 191 191 0 189 0 188 187 0 0 187 0 0 184 183 0 0 0 178 176 174 174 0 0 0 162 159 157 0 155 154 153 0 153 152 0 0 150 149 0 148 0 147 147 0 146 146 0 0 145 0 144 143 142 142 141 141 141 141 140 0 139 0 0 136 0 134 0 0 133 133 133 133 133 133 133 133 0 132 133 133 132 132 132 0 0 132 0 0 0 0 132 132 132 132 0 131 132 0 132 133 0 133 133 0 132 0 132 131 0 132 131 131 131 133 136 0 0 0 142 143 143 142 142 142 142 142 142 145 147 148 147 146 146 146 145 146 147 147 150 152 153 153 154 156 159 162 164 166 167 0 0 0 0 0 0 0 0 185 0 186 186 187 0 188 188 0 188 189 189 190 191 192 0 194 194 195 195 0 0 196 197 197 197 0 198 198 0 0 0 199 199 199 199 199 199 199 199 200 0 201 203 204 0 0 205 205 205 0 204 0 0 0 0 202 201 0 199 199 0 199 198 198 198 197 197 0 197 197 197 197 197 0 197 0 0 197 0 197 196 197 0 198 198 0 198 197 197 197 0 0 0 196 196 0 195 0 195 195 195 0 0 0 180 163 157 152 149 153 161 0 0 0 0 0 0 0 0 158 156 169 0 0 0 0 0 0 207 0 0 199 195 193 0 187 185 183 182 0 0 179 0 175 0 0 0 163 160 158 0 0 154 0 153 0 0 0 151 151 0 150 0 0 143 139 0 0 127 123 122 121 120 122 126 128 0 0 0 125 123 120 0 116 115 113 112 115 0 0 0 115 116 0 119 117 119 120 0 0 115 114 0 0 0 0 0 0 121 121 121 0 0 118 118 0 0 116 115 115 115 115 116 0 117 0 121 0 121 0 0 0 121 119 121 121 123 0 0 0 0 0 126 0 131 0 0 0 0 136 0 0 0 0 140 0 0 0 0 0 0 0 0 0 182 0 0 186 0 0 0 193 0 0 0 0 208 0 0 0 0 212 212 0 0 0 219 0 218 219 221 0 0 0 229 228 0 222 220 219 222 224 229 0 0 0 0 242 0 245 0 246 0 247 247 0 0 248 248 248 
207 207 207 207 207 207 0 0 0 208 208 0 0 207 0 0 0 0 0 0 0 183 0 164 157 150 145 142 139 136 133 141 178 0 0 0 0 235 235 0 234 234 234 234 234 0 0 0 0 186 165 157 158 158 0 0 0 0 155 154 153 152 151 150 150 0 0 148 147 146 146 146 0 0 0 0 145 0 0 0 144 144 0 143 142 141 0 0 0 0 0 0 0 0 138 0 0 0 0 133 133 133 133 0 0 0 0 0 0 0 132 132 0 133 134 0 0 133 132 0 132 133 133 133 133 0 0 134 134 135 0 136 135 135 135 137 137 137 0 0 0 0 0 137 138 0 0 140 140 151 0 0 0 0 0 193 193 0 192 0 192 0 0 0 191 0 0 189 188 188 188 0 187 186 185 184 183 181 0 0 178 0 174 174 0 0 167 163 159 158 156 155 0 0 0 153 0 0 150 0 149 0 148 0 0 0 146 146 0 146 0 0 144 0 143 142 142 0 141 141 0 140 139 139 138 136 0 134 133 133 133 133 0 133 133 0 133 133 133 133 0 133 0 132 132 132 0 132 132 132 0 0 132 0 0 131 0 0 132 132 132 0 0 0 132 131 131 132 132 131 131 132 133 135 0 0 0 0 0 0 141 142 142 142 142 142 0 142 142 144 0 0 0 0 0 146 145 145 146 146 147 147 148 148 149 149 151 154 156 157 158 160 162 165 167 0 0 0 0 0 0 0 0 0 0 187 188 0 188 0 0 0 190 0 193 0 193 0 194 0 0 195 0 196 196 0 197 197 197 197 197 198 198 0 198 198 0 199 199 200 0 201 0 204 204 205 0 205 0 0 205 205 205 0 0 202 0 0 0 199 199 199 0 0 198 0 197 0 0 0 0 197 196 197 0 197 197 196 197 197 0 0 198 198 0 0 198 197 197 196 197 0 0 0 0 0 0 195 0 0 0 0 194 0 0 176 159 146 136 135 139 151 165 0 0 0 0 0 0 154 153 166 0 0 0 0 0 0 0 0 201 0 193 191 0 0 182 181 0 0 0 176 0 173 0 167 0 161 158 0 0 152 151 0 150 150 150 0 148 149 0 0 0 0 0 138 0 0 129 0 127 127 129 0 0 0 0 0 0 0 0 0 116 115 114 113 113 0 118 119 0 0 0 0 0 122 122 0 0 0 0 117 115 116 0 117 118 119 118 118 119 0 0 116 116 0 0 115 115 0 114 115 0 116 0 0 120 0 119 122 0 0 118 120 0 0 0 0 128 127 128 128 125 126 129 135 0 139 0 138 0 0 0 0 141 0 0 155 0 160 0 0 175 0 185 185 183 184 0 0 193 188 192 0 0 0 208 211 212 209 0 212 216 0 220 0 217 219 0 219 220 0 227 0 0 0 0 223 0 220 223 225 227 232 0 0 0 242 0 245 0 246 0 247 247 247 0 248 248 248 
207 207 0 207 207 207 208 210 0 209 208 0 207 207 207 207 207 0 0 0 188 0 0 159 153 149 145 0 139 0 133 132 147 0 0 0 0 0 0 0 234 234 0 0 233 0 0 0 0 0 0 173 159 157 158 0 156 156 0 0 0 0 151 151 150 0 148 147 147 146 146 146 146 146 145 145 145 0 146 145 144 143 0 143 142 0 141 0 0 0 142 0 141 0 0 0 135 134 0 133 0 0 132 0 131 0 0 0 132 0 0 132 0 0 0 0 134 0 0 133 0 0 0 132 133 0 134 0 0 136 0 136 135 0 0 136 136 136 136 137 0 138 0 138 0 0 0 0 141 143 163 0 0 0 193 0 193 0 0 0 0 192 192 0 0 191 190 190 189 189 188 188 0 186 185 0 184 183 182 181 0 0 0 174 172 172 0 0 164 160 158 156 0 155 154 153 153 0 150 150 150 149 0 148 148 0 0 147 0 146 145 144 144 0 0 143 0 142 0 141 0 140 0 139 0 137 135 134 0 133 133 133 0 133 0 0 133 133 133 133 0 133 0 0 0 0 0 0 0 131 0 132 132 0 131 131 0 0 0 132 132 132 0 132 0 131 131 132 133 134 135 0 0 0 0 0 0 0 0 0 142 142 0 0 0 143 0 143 0 0 145 0 0 0 0 146 146 146 0 0 146 146 146 146 147 147 148 150 152 153 153 153 155 156 159 162 164 0 0 0 0 0 0 0 0 0 0 188 0 189 189 0 190 0 0 193 193 193 194 194 0 194 0 0 196 0 196 196 0 197 197 0 0 198 198 198 0 199 199 0 0 202 0 0 204 0 0 205 205 0 0 0 205 0 204 0 0 199 199 0 199 199 199 0 0 0 198 0 197 0 0 0 197 197 197 197 197 0 197 197 197 0 0 198 0 198 198 0 197 197 197 197 196 196 196 195 0 0 196 196 196 195 194 0 0 0 0 162 147 141 142 146 151 163 0 0 0 162 156 150 151 165 0 0 0 0 203 0 202 0 0 0 192 189 0 184 181 179 0 0 0 175 0 171 167 164 162 0 156 152 151 150 148 0 147 147 147 0 147 147 147 145 145 0 143 138 134 132 0 0 0 132 0 0 0 0 128 125 0 0 120 0 0 115 115 115 116 0 118 119 0 0 118 118 0 0 0 123 0 0 0 121 116 115 0 118 118 0 117 117 118 119 0 117 116 0 0 114 0 0 113 0 0 116 0 117 118 0 118 0 0 0 0 0 0 0 125 127 0 0 0 0 0 128 128 0 0 134 0 0 137 140 0 143 147 0 0 151 155 160 0 169 170 0 0 0 0 184 0 0 188 186 184 189 198 0 0 0 0 208 208 212 0 0 220 220 220 219 0 0 218 222 227 0 0 0 0 224 222 222 0 0 0 232 235 238 0 0 0 245 0 246 0 247 247 0 0 248 248 248 
0 0 0 207 208 209 209 211 0 0 209 208 207 0 207 0 0 0 0 0 182 0 162 153 150 148 0 0 0 0 131 128 130 153 0 0 0 0 0 234 234 0 0 233 233 0 233 0 0 0 0 0 181 161 156 157 156 0 0 155 154 0 0 0 0 0 148 148 148 0 147 147 0 0 145 144 145 0 0 0 0 0 0 0 0 141 141 141 141 0 0 0 0 139 137 136 135 134 133 0 0 132 0 131 130 130 131 131 0 131 0 132 132 132 133 0 133 0 0 133 0 0 133 133 0 0 133 135 0 0 0 136 135 135 0 0 0 135 134 136 0 137 0 138 138 139 140 0 0 141 148 0 0 0 194 0 193 193 193 0 192 192 192 192 0 191 0 0 0 0 0 188 0 186 185 0 185 184 0 182 181 0 0 176 173 172 0 0 0 163 161 158 157 156 154 0 0 152 151 150 0 0 0 148 148 148 0 147 0 0 0 145 144 144 144 143 0 0 142 141 141 0 140 0 139 137 136 0 133 0 133 0 0 133 133 133 133 133 133 0 132 132 133 133 133 0 0 132 0 131 131 0 0 131 131 131 131 131 131 0 0 131 131 131 132 133 135 0 0 0 0 0 0 0 141 0 0 141 141 142 0 142 142 143 143 0 0 144 0 0 145 146 146 0 0 0 0 0 0 0 146 146 146 145 0 0 146 148 0 0 152 152 153 153 153 155 156 159 162 165 0 0 0 0 0 0 0 0 0 189 189 0 0 0 0 0 0 193 0 194 194 194 195 195 196 0 196 196 0 0 197 197 0 197 0 198 0 0 199 0 200 0 0 0 204 204 204 204 204 205 205 205 0 204 0 203 202 201 200 0 0 0 199 199 199 0 198 0 197 0 197 197 0 0 197 0 0 0 197 197 197 197 197 197 198 0 198 0 0 198 0 0 197 196 196 195 0 196 196 196 0 196 0 195 195 0 0 0 0 151 151 0 154 158 0 163 0 0 152 148 150 166 0 0 0 199 199 0 0 0 0 0 189 187 0 182 0 177 176 175 174 173 172 0 0 165 161 159 155 152 149 148 147 0 145 145 0 145 146 0 0 144 142 0 0 0 134 131 0 129 0 0 0 0 128 123 120 119 118 116 116 117 118 118 118 118 118 0 119 120 0 0 0 120 119 122 0 0 124 0 0 0 121 117 0 0 119 117 117 117 118 0 0 0 0 0 114 114 0 113 0 114 114 0 0 116 116 0 119 0 120 121 0 0 0 124 124 127 129 0 0 127 0 0 128 133 0 133 134 135 136 140 0 144 0 0 145 147 0 0 0 166 172 0 0 0 184 182 185 0 0 0 181 183 194 0 0 0 0 203 207 0 0 0 0 0 0 220 0 219 216 222 0 0 0 0 225 0 224 224 224 226 0 0 236 238 240 242 0 245 0 246 0 247 247 247 0 248 248 248 
205 205 206 208 0 212 0 213 0 212 0 0 0 207 207 0 0 0 0 186 176 165 157 152 150 0 0 0 136 131 128 127 127 132 164 0 0 0 0 0 0 0 233 0 232 232 232 232 232 0 0 0 0 191 165 156 156 0 0 0 0 0 153 152 151 150 149 0 0 0 0 0 0 147 0 146 145 145 145 144 0 143 142 0 141 141 141 0 141 0 141 0 140 0 137 136 134 0 133 132 132 0 131 130 130 129 130 130 130 0 131 131 132 0 133 133 132 0 0 133 132 0 133 0 0 0 133 134 0 0 0 0 135 135 0 135 135 135 0 0 137 136 138 0 138 0 0 140 0 0 143 155 0 0 0 194 0 193 193 0 192 192 192 0 192 0 191 191 0 190 0 188 0 0 187 0 0 0 0 0 182 181 0 0 176 174 172 171 0 0 0 162 159 157 0 155 154 153 152 151 0 0 150 0 0 148 0 147 147 147 0 0 145 0 144 144 0 143 142 142 141 0 141 0 0 0 0 135 0 134 133 133 133 133 133 133 133 0 132 0 0 0 0 0 0 0 132 131 0 130 130 0 0 0 0 0 130 0 0 131 131 132 131 133 135 137 0 0 0 141 0 141 141 141 141 141 142 142 142 0 143 143 143 143 0 0 144 144 144 145 0 0 146 146 146 146 0 146 146 146 146 0 0 146 146 0 147 149 0 0 151 151 152 152 152 153 153 153 155 157 161 164 167 0 174 0 0 0 0 0 0 0 191 0 192 0 192 193 0 0 194 0 194 0 195 0 195 196 0 0 196 197 197 197 0 198 198 0 199 199 200 201 0 203 0 0 0 204 0 0 0 0 204 203 0 0 0 0 0 200 0 0 199 0 0 0 198 0 198 0 197 197 197 197 197 0 198 197 197 0 197 197 0 0 198 198 0 0 0 0 0 198 0 197 0 0 195 196 0 0 197 0 0 0 195 0 0 0 0 170 162 0 0 161 161 159 0 0 148 146 153 169 0 0 0 196 0 197 197 0 0 0 0 185 183 0 0 0 174 173 172 171 0 0 0 0 0 0 156 0 149 0 0 0 142 0 0 144 145 0 0 0 141 142 0 0 0 131 0 0 0 0 0 122 117 117 118 116 116 117 0 118 0 0 122 122 0 0 0 122 122 123 0 0 122 119 123 0 0 125 0 0 0 120 119 0 0 118 118 118 118 0 0 117 0 0 113 0 113 113 114 114 0 0 0 114 115 117 0 0 119 120 120 120 121 0 0 0 127 129 0 0 129 0 130 134 0 136 133 134 137 0 0 143 0 0 141 142 143 150 0 161 0 0 0 0 180 180 0 0 183 0 182 182 0 0 0 0 202 204 0 0 216 0 0 0 0 0 0 222 220 224 0 0 227 224 223 0 0 0 0 227 231 0 237 238 240 242 0 0 0 246 0 247 247 247 0 248 248 248 
204 204 207 0 0 0 0 0 0 213 212 0 209 208 207 0 0 0 0 0 170 159 155 0 0 0 140 135 132 0 127 0 126 126 136 172 0 0 0 0 0 232 232 232 232 0 0 0 232 232 0 0 0 0 0 174 158 154 155 155 0 0 153 151 151 150 150 0 149 148 147 147 147 147 0 0 0 0 0 143 0 141 141 141 141 0 141 0 0 0 0 139 139 0 0 0 134 133 0 132 132 0 131 0 130 129 0 130 130 130 131 0 132 0 0 0 133 133 0 0 132 0 133 133 133 0 0 134 134 135 0 135 134 134 0 135 0 135 0 0 137 0 0 0 138 138 138 139 141 0 143 144 166 0 0 0 0 0 0 193 0 0 0 0 192 0 0 191 191 0 190 189 0 0 0 187 0 0 185 0 183 182 181 0 0 0 174 172 170 0 167 0 0 160 158 156 155 154 0 0 151 151 150 0 149 149 148 148 147 0 147 146 146 0 145 144 0 144 0 0 0 142 0 140 140 0 137 135 0 0 133 133 0 133 133 133 133 0 131 131 0 0 0 0 132 0 131 130 130 130 0 130 130 130 0 0 0 130 130 131 132 135 137 138 0 0 0 0 0 0 0 142 142 142 142 0 0 143 0 0 0 0 0 0 144 144 144 144 144 145 0 145 145 0 146 146 145 146 145 0 0 0 147 147 146 146 148 149 0 0 0 151 0 152 152 152 152 152 153 153 154 157 159 163 166 0 173 177 0 183 0 0 0 191 192 0 0 0 193 0 194 194 0 0 0 195 0 0 0 0 0 0 0 197 0 197 0 198 0 199 199 200 0 0 0 203 0 0 0 204 0 0 0 203 203 203 0 0 0 199 199 199 0 198 198 0 198 0 0 0 0 0 197 0 0 198 198 198 0 197 0 0 0 0 197 0 0 198 0 0 198 198 0 0 0 0 197 197 197 0 197 0 0 195 196 196 195 0 0 178 170 167 0 166 162 157 151 148 146 151 161 172 0 0 0 193 194 195 0 0 0 187 0 0 181 0 176 173 172 171 0 170 169 167 166 0 0 0 0 152 0 0 143 140 141 0 0 144 0 0 0 144 141 141 0 138 134 130 125 121 121 120 116 112 115 0 0 116 116 0 0 119 120 0 0 0 0 121 0 0 120 124 125 0 0 0 119 0 0 126 126 126 0 0 120 0 0 120 119 0 0 117 116 0 0 114 114 0 113 0 0 0 0 0 0 115 115 117 0 0 118 119 119 120 124 0 126 0 128 0 0 0 130 0 0 0 0 0 0 135 0 138 142 0 0 135 136 0 138 142 147 153 162 0 0 176 177 178 0 177 0 0 0 0 0 0 200 201 204 0 0 0 0 212 214 0 0 0 0 0 220 225 0 0 0 222 222 0 0 224 225 228 231 0 0 239 240 242 0 244 0 246 0 247 247 247 0 248 248 248 
203 204 209 0 0 0 0 0 216 215 213 212 211 209 208 0 0 0 183 173 165 159 0 0 144 139 135 131 130 129 128 127 126 126 126 140 0 0 0 0 0 0 0 0 0 0 231 0 231 231 0 231 0 0 0 0 181 160 154 154 0 0 0 0 0 150 150 0 0 149 148 0 0 147 147 0 146 0 144 0 0 141 0 141 0 0 141 140 0 0 0 139 138 0 137 0 0 0 0 132 132 0 0 0 0 0 0 0 0 0 0 0 0 132 0 0 0 0 133 0 132 132 0 133 133 0 0 133 133 134 0 133 0 134 134 134 0 136 0 0 0 0 0 0 0 137 137 0 140 0 142 142 153 0 0 0 194 194 0 0 0 192 192 0 192 192 0 0 0 191 0 0 189 188 188 187 187 0 186 185 0 0 182 181 180 0 176 173 0 0 167 0 0 0 163 158 157 156 154 153 0 152 151 151 0 0 149 0 0 0 148 0 147 146 0 144 144 0 0 0 143 142 0 141 0 0 0 137 136 135 133 133 133 0 0 133 133 0 0 132 132 132 132 0 131 131 0 130 130 130 0 0 0 0 130 131 130 130 132 135 138 0 0 0 0 0 0 0 0 143 143 143 143 143 143 143 0 0 144 144 144 144 144 144 144 0 145 145 145 145 0 0 145 146 0 146 146 0 146 0 147 147 0 0 147 0 0 149 0 0 152 151 151 152 0 152 152 152 0 0 153 154 154 157 160 163 167 171 173 176 180 0 0 0 0 0 191 192 193 0 0 193 193 0 0 194 195 195 196 0 0 0 196 196 197 0 0 197 198 0 199 199 200 0 202 0 201 202 0 203 0 0 0 202 202 0 0 201 199 0 199 0 198 0 198 198 198 197 0 197 0 0 197 0 198 198 0 198 0 198 0 197 0 0 197 198 0 0 198 198 198 198 0 197 0 198 0 0 0 0 197 196 196 0 0 0 196 0 0 180 175 172 0 0 0 166 158 155 157 0 0 172 181 0 190 0 0 0 0 0 0 185 183 181 0 0 174 0 170 0 0 0 0 166 164 162 160 0 0 149 0 0 140 139 0 142 142 143 144 0 0 143 141 0 0 0 134 129 123 116 115 116 114 115 0 0 116 116 116 0 120 0 123 0 129 0 123 122 124 0 127 0 0 125 0 0 121 121 124 0 125 124 0 0 122 120 121 0 121 0 0 118 115 115 114 0 0 114 114 114 114 0 0 0 115 0 0 116 118 117 118 118 120 0 0 125 123 126 0 129 131 0 131 131 0 0 134 134 135 136 0 136 0 0 135 130 0 0 137 140 0 148 153 157 166 170 177 0 172 171 178 0 177 181 184 191 0 0 0 0 0 0 0 207 210 0 218 220 222 0 220 0 0 0 0 223 0 0 223 222 225 0 231 0 238 239 0 0 0 0 0 246 0 247 247 0 0 248 248 248 
200 0 0 0 0 0 217 217 0 0 0 0 213 0 0 0 0 0 177 167 0 0 0 0 138 134 0 0 0 128 127 0 127 0 126 127 146 0 0 0 0 0 0 231 0 0 231 231 231 0 0 230 230 0 0 0 0 0 165 154 153 152 0 0 0 0 151 0 0 0 0 0 148 0 0 0 145 0 143 0 140 139 0 0 0 141 141 0 0 140 140 139 0 0 136 135 134 133 0 0 132 0 0 131 130 129 128 0 0 128 129 0 131 0 132 0 132 132 0 0 132 131 132 0 0 0 133 133 133 133 0 133 133 0 0 133 0 0 0 135 136 0 137 138 0 138 138 0 139 0 141 142 149 0 0 0 194 0 0 193 193 193 192 0 0 192 192 0 191 191 191 191 0 189 188 188 0 0 0 186 185 0 0 0 181 0 0 0 174 0 170 166 167 0 0 166 161 159 157 0 154 153 0 0 0 151 150 150 0 149 148 0 148 0 0 145 145 0 144 144 143 142 142 142 0 141 0 0 0 0 0 134 0 133 133 133 0 133 0 0 132 132 132 0 131 130 130 130 130 0 129 129 129 129 131 131 133 136 0 0 0 0 0 0 0 144 144 144 0 0 0 0 0 0 0 144 144 0 144 0 145 0 144 145 0 0 146 146 0 0 0 146 0 147 0 0 0 0 146 147 147 147 148 148 148 148 149 151 154 153 153 152 151 152 153 153 152 152 152 152 153 153 154 154 156 159 165 0 176 174 173 176 180 0 0 0 0 0 0 193 0 0 193 194 194 194 0 195 0 196 196 196 196 196 0 197 197 197 0 198 0 199 200 0 200 0 200 200 201 201 0 0 0 201 0 0 0 200 0 0 199 0 198 0 198 198 0 0 197 0 197 197 0 0 0 198 0 0 198 198 198 197 0 0 0 198 198 198 197 197 0 0 0 197 0 198 0 198 198 198 0 196 0 0 197 0 199 0 0 181 0 0 0 176 0 0 0 0 0 0 0 173 0 0 188 0 0 0 189 186 184 182 0 179 0 0 172 170 167 0 0 167 0 0 0 161 0 155 0 146 145 144 141 140 0 141 0 0 141 0 0 0 143 142 0 0 0 130 0 119 115 115 115 116 0 117 116 116 117 119 122 0 128 0 0 128 123 123 123 0 0 0 0 125 0 0 0 124 124 122 0 0 0 0 0 122 122 0 0 120 120 0 0 115 115 0 114 114 0 114 113 0 114 114 114 114 0 0 0 118 118 118 121 0 0 0 123 0 0 129 131 0 0 130 130 131 0 133 0 137 139 0 0 0 135 130 0 135 136 139 142 145 150 154 160 170 0 0 172 173 0 0 176 177 181 0 0 0 0 0 0 208 0 212 212 0 214 217 0 219 219 222 0 0 0 222 225 0 222 0 0 229 232 0 238 0 0 242 0 245 0 246 0 247 247 247 0 0 248 248 
200 0 0 0 215 0 216 217 218 0 0 0 215 212 0 0 0 184 172 0 156 149 144 138 132 130 128 126 126 127 0 0 0 127 126 126 129 152 0 0 0 0 229 230 0 231 231 0 0 230 229 229 229 0 229 0 0 0 0 173 156 151 151 0 0 0 151 0 150 149 148 148 0 147 0 145 0 0 142 141 139 138 139 140 0 141 0 0 140 0 0 0 137 0 135 0 0 133 0 0 132 131 131 0 0 0 128 128 128 128 129 0 0 0 132 132 132 132 132 0 132 0 131 131 0 0 0 0 0 133 0 133 133 133 0 0 133 134 134 135 135 136 137 137 138 0 0 0 138 0 0 142 147 0 0 0 0 194 193 193 0 0 193 0 0 192 0 0 191 191 191 0 0 189 0 188 0 188 0 0 186 185 0 0 0 181 0 0 0 174 0 169 166 170 0 0 0 165 160 157 155 154 153 152 0 152 0 151 151 150 149 0 149 148 147 147 147 0 145 144 144 143 143 0 142 141 140 0 137 135 0 135 0 134 0 133 133 132 133 133 132 132 0 131 131 0 129 0 130 0 129 129 129 129 133 135 0 0 0 0 0 0 144 143 0 0 0 143 144 0 144 144 144 144 0 0 0 0 145 0 146 0 0 146 0 147 147 147 0 0 0 147 0 148 148 0 148 0 147 147 0 0 148 0 148 149 151 157 160 160 160 158 157 156 155 155 156 154 154 154 154 155 155 155 157 160 169 0 0 0 175 171 173 176 181 0 0 0 0 193 193 0 0 194 0 0 195 0 0 196 196 0 0 0 0 197 197 0 0 198 0 199 200 200 199 200 0 199 0 200 199 200 0 200 200 200 200 199 199 199 0 0 198 0 0 198 198 0 0 197 197 197 197 197 0 198 198 198 198 0 0 0 198 197 0 198 0 198 197 197 198 198 197 197 0 198 0 0 198 198 0 197 0 196 0 0 0 0 0 183 182 181 179 178 178 0 0 0 0 0 176 175 180 0 0 0 186 0 0 182 181 180 179 0 175 173 171 0 166 166 0 166 164 0 163 0 156 0 0 144 143 0 0 0 141 141 0 141 138 139 0 0 145 142 140 139 0 132 0 0 121 121 0 0 0 116 115 118 120 119 0 128 131 0 0 0 123 0 124 0 0 0 0 127 127 0 127 0 0 122 121 124 0 124 0 0 0 0 121 0 0 0 0 0 0 0 115 0 114 114 0 114 113 0 113 114 115 117 0 0 0 0 120 0 0 123 121 0 0 0 130 0 132 130 130 0 131 133 0 0 0 0 139 0 137 131 0 131 0 138 139 143 149 152 158 0 0 0 175 0 0 0 177 0 177 177 181 190 193 196 199 201 0 0 214 0 214 218 0 220 221 222 0 0 223 223 0 0 222 225 0 230 233 0 237 0 240 242 0 245 0 246 0 247 247 247 247 0 248 248 
199 0 0 0 214 0 216 217 218 0 0 0 0 0 0 0 188 176 167 0 0 0 137 132 128 128 127 126 127 128 0 130 128 0 0 0 125 132 161 0 0 0 0 229 0 0 0 230 230 229 229 229 229 0 0 0 0 0 0 0 181 158 151 150 150 0 150 150 149 149 0 148 0 147 145 143 141 141 0 0 140 0 139 139 140 0 0 0 139 138 138 0 136 135 134 133 0 133 132 132 0 0 0 0 0 128 128 0 0 0 0 129 130 0 0 131 0 0 132 132 0 131 131 0 132 132 132 0 132 132 0 133 0 0 133 0 132 133 134 0 135 135 0 0 0 138 0 138 138 138 0 140 147 0 0 0 195 0 194 194 194 193 193 0 0 192 192 192 192 0 0 0 0 190 0 189 188 188 0 187 0 0 185 0 183 0 181 180 0 176 174 0 170 170 170 171 0 0 0 163 158 157 154 154 154 153 0 0 0 0 0 0 150 0 148 0 0 148 0 147 146 145 144 143 0 0 140 0 137 134 0 0 0 135 0 134 133 133 133 0 133 132 132 131 131 0 129 0 129 130 130 130 131 134 0 0 0 0 0 0 144 144 143 143 143 0 143 0 144 144 0 144 144 145 145 145 145 145 146 0 0 146 0 147 0 0 0 148 148 148 148 0 0 148 0 0 148 0 148 147 0 0 0 149 150 152 158 0 0 0 0 0 0 0 0 0 0 0 0 0 0 0 0 0 0 0 0 0 0 0 0 179 174 172 174 178 182 0 0 0 0 193 0 0 0 195 195 0 0 0 0 196 196 196 0 0 197 0 0 197 0 199 0 0 200 0 0 199 199 0 199 0 199 0 0 199 199 199 199 0 198 198 198 197 198 198 0 197 0 197 196 0 197 197 0 0 198 0 198 0 198 0 198 198 198 198 0 0 0 0 198 0 198 198 0 198 198 0 0 198 0 197 197 0 0 0 0 0 0 0 0 183 180 178 179 0 0 0 0 0 0 178 180 0 0 185 0 0 0 181 0 178 0 0 173 171 0 0 166 165 0 0 163 163 0 0 156 0 149 145 0 0 142 0 0 0 141 0 139 137 0 0 146 0 141 0 0 135 131 0 0 0 0 0 118 116 120 0 0 125 0 131 0 0 132 0 125 125 125 126 0 0 129 0 0 0 125 0 0 0 122 123 0 125 125 0 0 0 117 119 0 0 0 0 0 116 115 0 0 0 114 0 113 113 0 0 0 0 0 116 117 118 121 0 0 121 121 0 0 130 131 133 0 131 128 0 132 134 136 137 138 0 139 0 0 136 132 129 133 0 0 144 0 152 158 0 0 0 174 0 0 0 178 0 176 178 0 0 189 195 0 0 0 0 212 0 217 0 0 0 0 0 0 223 222 0 0 0 225 0 228 0 233 0 236 238 0 0 0 245 0 246 0 247 247 247 0 0 248 248 
198 0 0 0 213 214 0 217 0 0 220 0 0 0 0 0 179 0 0 151 144 138 132 129 128 127 128 128 130 0 132 0 0 128 127 0 124 125 135 0 0 0 0 0 229 229 229 0 0 0 229 0 0 228 228 228 228 0 0 0 0 0 163 151 150 150 150 0 149 0 0 148 0 0 0 0 141 139 139 0 140 0 140 0 0 140 0 139 138 137 137 137 136 135 0 133 0 0 0 0 130 0 0 0 0 128 128 0 0 128 127 128 0 0 130 0 131 0 132 0 0 131 0 132 0 132 132 0 0 132 0 0 133 133 132 132 0 0 133 134 135 136 137 0 0 138 138 0 137 137 0 139 150 0 0 0 0 0 194 0 0 194 0 193 192 192 192 0 0 192 192 0 191 0 0 0 0 188 188 187 186 0 185 185 0 183 0 181 0 0 176 174 0 170 169 167 167 0 0 0 0 164 159 158 156 154 154 0 0 153 0 152 151 0 150 0 0 0 0 0 0 146 145 144 0 142 0 0 138 135 135 0 0 0 135 0 0 134 0 0 0 0 0 0 131 0 130 0 129 130 132 134 137 0 0 0 0 0 144 144 143 143 0 0 143 0 143 0 144 144 144 0 0 0 0 0 145 146 0 147 0 0 147 147 0 148 0 148 0 0 0 0 148 148 148 0 0 0 0 149 0 148 149 150 154 159 0 0 0 0 0 0 0 0 0 0 0 0 0 0 0 0 0 0 0 0 0 181 184 0 0 0 0 0 174 172 174 179 183 0 0 0 0 194 194 195 0 195 195 195 195 195 196 196 196 0 197 0 197 0 198 199 200 0 200 199 199 199 199 199 199 199 199 199 199 0 0 0 0 0 198 197 0 0 0 0 0 0 197 0 0 0 197 197 197 197 198 0 0 198 0 0 0 0 0 0 0 198 0 198 198 0 0 0 0 0 0 199 0 0 198 0 197 197 0 182 169 169 175 0 0 0 0 182 181 181 181 0 0 183 0 0 179 181 0 183 182 182 181 180 0 177 0 173 171 170 0 166 0 0 0 0 162 0 0 158 155 0 0 145 142 141 140 141 0 0 140 140 0 137 142 0 0 0 141 0 0 0 0 0 0 0 0 122 118 119 0 0 124 130 0 137 0 137 131 0 126 0 0 125 124 0 0 128 0 0 124 123 0 0 0 123 0 125 0 125 124 121 119 118 118 0 0 117 116 0 115 0 114 0 114 0 112 0 0 113 115 0 116 116 117 118 122 0 124 121 122 125 0 0 132 0 0 131 128 130 0 0 136 0 0 0 139 0 0 0 131 129 132 137 0 143 0 0 159 0 0 0 173 173 178 0 180 179 178 176 180 182 187 0 0 0 0 206 208 0 0 0 0 0 217 0 0 0 222 222 0 223 0 0 227 0 232 233 236 0 0 0 244 245 0 246 0 247 247 247 0 0 248 248 
196 0 0 0 212 213 215 217 0 0 220 0 0 0 0 181 171 162 153 144 137 131 129 128 128 130 130 131 0 0 0 0 0 0 0 0 0 122 123 142 0 0 0 0 228 0 229 0 0 0 229 0 228 228 228 0 0 227 227 0 0 0 0 173 154 150 149 0 0 149 148 148 147 146 0 0 141 0 139 139 139 0 0 140 140 139 139 139 0 138 0 137 0 0 133 132 132 132 0 131 129 128 127 127 0 127 127 0 127 127 0 127 128 128 128 0 0 0 0 0 131 131 0 0 0 0 0 131 131 131 0 132 0 0 132 131 0 0 0 0 0 0 0 0 0 137 0 0 0 136 138 141 157 0 0 0 0 194 194 0 194 194 0 0 0 0 0 0 0 192 192 0 191 190 190 190 189 189 0 0 187 0 186 0 185 184 0 0 0 0 178 176 0 0 170 167 0 166 166 0 0 0 0 164 161 158 155 154 154 153 0 0 152 151 151 0 0 150 0 0 0 0 0 0 0 142 0 0 0 0 0 135 134 134 0 0 0 0 0 0 0 133 0 132 0 0 131 131 131 134 0 0 0 0 0 0 145 144 144 144 0 143 0 144 144 144 144 144 144 145 145 0 145 146 146 0 0 146 0 147 0 147 0 147 147 148 0 148 0 149 148 148 148 148 148 149 149 149 149 0 150 150 151 155 0 0 0 0 167 167 166 166 165 164 0 164 0 165 0 0 166 167 169 0 172 0 175 177 0 181 0 0 0 0 0 178 173 172 175 181 0 0 0 0 0 194 0 0 195 195 0 0 196 0 0 196 197 0 197 0 198 0 199 0 0 199 199 199 0 0 0 0 199 199 0 199 198 198 0 0 197 197 0 0 197 0 0 197 0 196 0 197 197 197 0 197 0 198 0 0 198 0 199 199 199 199 0 0 198 198 198 0 198 0 199 199 0 199 0 0 0 0 198 0 0 0 161 155 155 159 167 0 0 0 0 184 182 0 183 0 0 0 181 180 181 0 181 180 179 178 0 0 0 171 0 0 167 166 165 164 163 163 162 160 159 0 154 151 148 145 142 141 140 139 0 0 139 139 0 140 141 0 0 0 140 137 139 137 135 130 128 128 124 121 120 123 0 124 126 0 139 0 0 138 132 0 126 0 0 0 123 0 127 127 127 0 0 122 122 123 0 124 124 124 0 0 0 121 0 0 0 114 115 115 0 0 0 113 114 0 0 0 113 0 0 113 115 0 0 116 118 0 0 0 0 123 122 124 128 0 133 0 0 131 130 129 131 135 137 0 138 139 140 0 0 0 132 131 132 136 0 145 0 0 161 166 0 0 0 174 176 0 0 0 179 176 177 180 189 0 195 193 197 200 207 0 0 0 218 0 216 0 0 0 0 219 0 222 221 0 229 230 231 232 236 0 241 0 0 245 0 246 0 247 247 247 247 0 248 248 
193 0 0 0 0 212 0 0 0 0 0 0 0 0 185 174 164 155 145 138 133 130 130 131 132 134 0 0 0 0 0 129 128 126 125 122 122 121 120 125 152 0 0 0 0 0 229 229 229 0 229 229 0 228 228 228 227 227 227 227 0 0 0 0 184 161 151 150 150 149 0 0 147 0 144 142 140 139 138 138 139 0 0 140 0 0 0 139 0 0 0 0 136 134 133 0 0 132 131 0 0 128 0 127 127 127 126 127 0 127 0 127 127 128 128 129 130 130 0 0 0 131 0 131 131 131 0 0 131 131 131 0 132 132 0 131 132 0 133 133 134 135 0 0 137 136 0 136 135 136 138 147 0 0 0 0 0 0 194 194 194 194 194 194 0 193 0 192 192 0 192 192 192 0 190 0 190 0 189 188 0 187 0 186 0 0 183 182 181 0 0 0 175 0 0 170 0 166 165 164 165 0 0 0 0 0 162 160 157 155 154 154 153 152 0 151 0 150 0 0 0 147 0 146 144 143 0 139 135 134 0 0 134 134 134 134 134 0 133 0 132 0 0 0 0 131 132 133 0 0 0 0 0 0 146 145 144 144 144 144 0 144 144 0 145 145 145 145 0 0 0 146 146 0 146 146 0 0 147 147 0 148 0 0 148 148 0 149 149 0 0 149 0 0 0 0 149 149 149 149 151 154 156 0 0 0 165 0 0 0 165 164 163 163 0 0 0 163 163 164 164 164 166 167 167 169 0 0 0 175 177 179 182 0 0 0 0 174 171 172 177 182 0 0 0 0 194 195 0 195 0 0 196 196 196 196 0 0 197 197 198 0 0 199 199 199 199 199 0 198 198 0 199 199 199 0 198 198 198 198 0 0 197 197 197 0 197 196 0 0 0 0 0 197 197 197 0 197 197 0 197 0 0 0 199 199 199 0 0 0 0 0 198 0 0 199 199 199 0 198 0 0 0 0 0 0 159 150 148 149 152 158 169 0 0 0 0 183 182 183 0 0 0 0 180 180 0 179 0 0 175 0 172 0 0 167 166 0 0 0 163 0 0 0 157 0 152 150 147 144 142 142 141 139 0 0 137 135 0 0 142 141 0 138 136 0 0 0 0 0 130 0 0 0 124 125 0 125 129 0 0 0 0 0 132 128 125 0 129 0 123 124 0 0 126 127 0 124 122 121 123 0 0 0 0 0 0 0 117 0 0 115 0 114 113 113 113 0 0 0 113 0 113 112 113 114 0 0 117 117 119 0 0 122 0 0 125 0 0 0 133 0 0 132 0 130 131 0 0 138 136 140 142 0 143 0 136 134 0 136 0 147 156 0 164 163 0 0 0 175 174 179 0 180 180 0 0 184 0 0 192 194 196 198 207 0 216 216 0 0 215 0 220 222 221 216 0 0 218 0 0 0 229 0 0 0 241 242 0 245 0 246 0 247 247 247 0 0 248 248 
189 0 0 0 0 212 214 0 0 0 0 0 0 189 178 167 157 149 141 136 134 134 135 0 0 0 0 0 134 130 128 127 126 0 0 123 121 121 121 122 130 164 0 0 0 0 0 229 229 229 0 229 229 229 0 0 228 0 227 0 0 0 0 0 0 0 167 153 150 150 149 148 147 0 144 0 141 139 139 0 0 140 140 140 0 140 139 139 138 0 136 136 0 0 0 133 0 0 0 130 0 129 128 0 127 0 0 127 0 126 127 0 0 128 0 0 129 0 128 129 0 130 130 130 130 0 0 0 0 131 131 0 0 131 0 131 131 0 132 132 133 0 135 0 0 135 135 135 135 136 143 160 0 0 0 0 194 0 193 0 0 194 194 194 0 0 192 192 0 0 0 0 0 0 191 0 190 0 0 189 0 0 0 186 0 185 184 0 182 181 0 0 176 175 0 171 167 165 165 164 165 0 0 0 0 0 0 0 0 0 160 158 156 155 153 150 150 0 0 0 0 0 0 0 0 0 141 138 136 135 0 0 135 0 0 0 133 0 132 131 0 130 130 129 131 131 134 138 0 0 0 0 0 146 0 145 0 0 144 144 0 144 145 0 0 0 0 0 146 146 0 147 147 0 147 147 0 148 148 148 148 0 0 0 0 149 149 149 0 149 0 0 149 149 0 149 149 150 150 151 155 0 0 0 0 0 163 164 0 165 164 0 163 163 163 163 0 162 162 162 0 163 164 165 0 165 165 166 167 170 172 174 176 180 0 0 0 0 178 170 170 174 0 0 0 0 0 0 0 195 195 195 0 196 0 0 196 196 196 197 0 0 0 198 0 0 199 199 0 198 198 0 0 0 199 0 198 0 0 197 198 0 0 0 0 197 0 0 0 0 0 196 196 0 0 0 0 0 197 197 197 0 198 0 199 199 199 199 199 199 199 0 0 198 0 198 0 199 0 199 199 199 199 0 0 181 161 153 146 143 144 147 151 157 166 0 0 0 0 181 182 182 0 181 180 178 0 0 0 175 174 172 170 0 166 166 0 164 163 163 0 161 160 0 157 154 151 150 0 0 0 143 0 0 0 0 137 136 139 0 143 142 0 136 132 133 0 0 0 0 0 0 0 0 0 126 128 129 135 0 0 143 0 136 131 128 123 0 0 0 124 121 124 0 0 0 0 0 0 0 122 0 122 0 0 122 0 119 116 115 114 0 0 114 113 0 0 115 115 0 113 113 112 112 0 0 0 0 118 0 0 0 0 120 0 0 0 127 128 0 135 0 0 136 0 132 0 0 0 138 138 0 0 0 144 0 139 133 0 137 0 0 155 0 163 163 167 0 0 175 173 177 0 182 181 181 183 184 0 188 188 0 0 199 207 0 213 212 0 0 212 0 0 0 0 217 0 0 221 223 0 228 228 232 236 0 241 0 0 245 0 246 0 247 247 247 0 248 248 248 
184 191 0 0 0 0 0 0 0 0 0 0 0 180 171 161 153 146 142 141 0 0 0 0 0 0 0 0 130 0 127 0 125 124 0 123 122 121 120 120 120 137 0 0 0 0 0 0 0 229 229 229 0 0 229 0 0 0 227 226 226 225 0 0 0 0 0 175 155 150 150 0 147 0 0 143 0 140 140 0 140 140 0 0 0 0 140 0 138 0 137 0 0 135 134 0 133 132 132 131 130 0 0 0 126 127 0 127 126 126 0 0 0 0 128 0 128 128 0 0 129 0 0 0 0 129 130 130 0 0 131 131 0 130 130 130 0 0 131 0 132 133 133 134 0 0 0 135 135 143 159 0 0 0 193 193 193 193 192 192 0 194 0 0 193 0 193 192 0 193 0 0 192 192 191 0 190 189 0 0 0 188 187 187 186 185 0 184 0 182 181 0 178 176 0 0 169 166 165 165 165 165 169 0 0 0 172 170 167 0 0 0 0 0 0 0 0 0 0 142 140 140 143 0 0 0 0 0 0 136 135 135 0 0 134 0 0 132 131 130 129 129 129 129 132 0 0 0 0 0 145 0 0 145 145 144 0 144 0 145 145 0 145 146 0 146 146 0 0 147 147 0 0 148 147 0 148 0 149 0 0 0 149 148 149 149 0 149 149 149 0 0 149 149 149 149 150 151 153 156 0 0 0 162 0 0 162 163 0 164 163 163 163 0 162 0 161 161 161 0 0 162 0 163 0 0 164 164 164 165 166 0 0 0 177 0 0 0 0 0 172 170 173 177 0 0 0 0 194 194 0 195 0 196 0 0 196 196 0 197 197 197 197 196 198 0 199 199 0 198 0 198 198 0 0 0 198 197 0 0 0 198 198 0 197 0 196 196 0 0 196 0 197 197 197 0 197 0 197 196 197 0 198 0 0 0 0 0 0 0 0 0 0 198 0 0 0 199 199 199 0 199 0 0 0 0 167 154 151 147 145 146 148 150 149 152 161 0 0 0 0 181 181 0 0 177 176 0 0 0 173 0 0 167 165 164 0 163 163 0 161 160 160 0 157 0 0 0 0 146 144 0 144 0 0 142 137 140 0 0 0 0 0 137 134 131 133 0 133 0 131 128 128 128 0 127 129 0 0 0 144 0 0 131 130 0 125 125 0 0 0 123 121 0 0 0 127 0 0 123 120 0 120 0 0 119 0 0 116 114 114 114 0 0 0 114 0 115 0 0 0 0 112 113 114 0 0 0 118 118 0 121 121 121 120 124 0 128 129 131 0 0 0 0 0 131 127 132 0 0 139 0 0 0 146 0 0 132 133 138 143 0 153 158 0 0 164 169 172 174 176 179 0 0 0 184 0 185 186 186 184 189 0 0 0 0 0 212 0 212 211 0 0 0 0 220 220 0 222 222 0 227 229 0 236 0 0 0 0 245 0 246 0 247 247 247 0 0 248 248 
183 0 0 0 0 0 0 0 0 0 186 181 176 0 0 157 0 0 0 0 0 0 0 0 131 130 129 129 128 0 0 0 0 0 0 0 122 121 120 119 119 124 148 0 0 0 0 0 228 0 0 0 229 229 229 0 0 0 227 226 225 225 0 0 0 0 0 0 181 158 149 148 0 0 144 143 142 0 141 0 141 0 140 140 140 140 0 0 0 138 137 136 135 0 0 0 0 0 0 0 0 129 0 0 127 0 127 0 127 127 127 126 127 0 127 127 127 0 128 128 128 0 129 0 129 129 0 129 130 0 130 0 0 0 0 129 129 130 130 131 0 132 132 133 134 135 136 138 145 162 0 0 0 0 194 193 193 0 193 193 194 0 194 193 193 193 193 0 193 193 0 192 192 0 192 191 190 190 0 189 188 188 0 0 0 186 0 185 0 0 182 181 0 178 0 0 0 167 166 165 0 164 164 165 0 0 0 0 171 169 165 164 165 161 0 152 145 142 140 138 138 139 146 0 0 137 137 0 139 135 134 135 0 135 133 0 132 131 0 0 128 128 129 133 0 0 0 0 0 145 145 145 0 145 145 145 145 145 0 0 145 0 146 146 0 0 146 147 0 147 147 148 0 0 0 148 0 149 150 0 150 0 0 150 150 0 149 149 149 0 150 150 150 0 150 150 153 0 0 0 0 0 160 160 0 0 0 162 0 0 0 0 162 0 162 161 161 161 161 161 161 161 0 161 0 0 163 0 0 164 164 164 166 0 0 172 173 0 0 0 0 175 170 170 175 0 0 0 0 0 0 195 0 195 196 0 0 0 0 197 0 0 0 197 0 0 0 0 0 0 0 198 198 198 0 0 0 0 0 0 0 197 0 0 196 0 196 0 196 196 196 0 0 0 196 197 197 197 0 197 197 0 198 0 0 198 198 198 0 0 198 0 198 198 198 198 198 0 0 0 0 199 199 199 0 0 182 166 164 161 155 154 155 153 149 144 144 150 0 0 0 0 0 0 179 176 174 0 0 173 172 0 0 166 165 163 163 162 0 0 162 0 160 159 157 0 0 151 0 146 143 0 0 0 0 0 142 143 0 0 0 0 0 138 134 133 132 0 133 132 130 127 127 127 126 129 137 0 0 143 0 0 131 125 0 0 126 122 125 0 0 0 120 122 0 0 0 0 0 123 119 118 119 120 0 118 118 0 115 114 114 0 115 0 0 114 114 0 115 0 0 112 112 113 0 0 116 116 0 118 120 121 122 0 121 122 0 0 0 130 132 0 0 138 0 0 124 130 0 135 138 142 147 0 146 0 0 133 133 138 145 0 0 154 160 0 162 167 169 173 0 0 181 181 183 0 0 0 0 0 187 186 191 203 0 0 0 216 0 210 210 0 214 215 0 221 219 0 220 220 0 0 229 0 0 239 0 242 0 245 0 246 0 0 247 247 247 0 0 248 
0 182 181 178 175 171 169 166 162 160 159 158 157 0 0 0 0 0 0 140 137 134 132 129 128 127 125 125 125 0 0 122 122 122 0 122 0 0 0 0 118 119 127 160 0 0 0 0 0 228 228 228 0 0 228 0 228 0 227 0 0 225 224 224 224 0 0 0 0 0 160 148 146 145 144 0 142 142 0 0 142 0 140 140 140 140 140 0 0 0 0 0 135 134 0 133 133 133 0 132 131 130 128 127 127 0 128 128 0 0 127 127 0 127 127 127 127 0 0 127 127 127 0 128 128 0 0 0 129 0 129 0 128 129 129 128 129 129 0 131 0 132 133 133 133 136 141 155 0 0 0 0 0 0 0 0 0 0 194 194 0 0 194 0 0 0 193 193 193 193 0 0 0 0 192 0 0 190 189 189 189 188 188 188 0 0 186 0 185 184 0 0 181 179 177 176 0 0 0 165 0 164 164 163 162 164 0 0 0 0 0 171 170 165 158 149 145 143 141 138 139 0 0 0 138 133 134 139 0 0 138 137 0 135 133 132 131 0 0 128 129 130 135 0 0 0 0 145 0 0 0 146 146 146 0 0 146 146 146 0 147 147 0 0 147 147 147 0 0 0 148 148 0 149 149 149 149 150 151 0 151 0 0 151 0 0 149 150 150 150 150 150 151 152 154 0 0 0 0 0 160 160 0 0 160 0 160 0 161 161 0 0 0 0 161 0 0 0 0 160 0 0 0 160 0 161 161 0 162 0 0 162 163 164 166 0 169 170 175 0 0 0 0 167 167 173 179 0 0 0 0 0 195 0 0 196 0 196 0 197 197 0 197 0 197 198 198 198 198 198 198 0 197 0 0 197 197 197 197 197 197 197 0 197 196 0 196 0 0 0 0 196 0 196 0 0 197 197 0 0 197 197 0 0 198 0 198 198 0 0 0 0 198 198 0 198 198 0 199 199 199 199 199 0 199 0 0 0 0 0 177 173 172 165 158 150 142 139 143 156 0 0 0 0 0 176 174 172 173 172 170 0 167 0 0 0 163 0 163 0 0 0 161 0 0 156 153 0 149 145 144 143 144 0 147 0 0 146 0 146 0 0 0 0 136 134 133 0 0 133 130 128 129 129 132 0 0 0 142 139 0 133 125 123 0 0 0 122 120 0 0 0 0 121 122 0 0 0 124 0 0 0 119 119 0 118 116 116 115 114 0 0 0 114 113 113 114 0 115 0 0 0 0 0 114 115 0 117 118 119 121 123 124 0 0 123 126 0 130 0 131 135 0 0 137 0 127 129 0 136 138 144 0 0 142 0 0 136 132 136 0 0 0 156 0 0 164 0 175 172 175 0 181 0 0 0 184 184 0 0 186 185 186 199 0 0 0 216 0 212 213 0 213 213 0 0 217 0 219 220 0 226 229 0 0 239 0 242 0 245 0 246 246 0 247 247 247 247 0 248 
0 177 0 166 160 155 151 148 146 145 144 142 141 139 139 141 0 0 138 136 0 130 128 127 126 0 124 122 122 122 122 0 0 121 0 121 120 119 119 118 118 119 120 134 0 0 0 0 0 0 0 0 0 0 0 0 0 227 0 226 0 0 224 0 0 0 0 0 0 0 0 165 149 144 143 143 0 142 0 0 142 0 141 141 140 0 140 0 138 137 136 0 134 134 133 133 133 0 0 0 0 0 129 128 128 0 0 128 0 128 0 0 0 127 0 0 127 127 127 0 126 126 0 127 127 128 128 128 128 0 128 127 127 128 0 0 129 129 131 131 132 132 135 139 144 154 167 0 0 0 0 0 0 197 196 0 195 194 0 0 0 194 194 194 194 0 193 193 193 193 0 0 0 192 192 0 191 190 0 0 0 189 188 0 0 187 0 0 0 0 184 183 0 0 179 0 176 0 0 166 165 0 164 163 162 161 160 165 0 0 0 0 0 0 0 0 162 158 154 147 145 0 0 145 141 138 136 139 0 0 0 141 138 136 133 132 131 130 130 128 132 137 0 0 0 0 145 0 146 146 0 0 0 0 146 0 0 0 147 0 148 0 0 148 148 148 148 0 148 0 149 149 0 149 149 150 0 0 0 152 0 152 0 0 152 0 151 151 0 152 151 152 154 0 0 0 0 160 0 160 160 0 159 159 159 159 159 0 159 0 0 157 158 159 0 0 159 159 0 0 158 158 158 158 159 0 0 0 0 161 0 0 0 163 163 163 0 167 169 173 0 0 0 0 170 169 172 178 184 0 0 0 194 194 0 195 195 0 196 0 197 197 197 197 0 0 198 0 197 0 0 0 197 0 197 197 0 197 197 0 197 197 0 0 0 0 196 0 196 196 0 196 196 196 0 197 0 197 197 0 197 197 197 0 0 0 197 198 0 198 198 0 198 198 198 0 198 0 199 199 199 199 0 0 198 200 0 0 0 0 0 0 0 0 0 0 159 149 141 139 148 0 0 0 176 0 0 173 0 172 170 0 166 165 164 0 162 162 0 164 0 163 0 161 159 157 0 0 0 146 144 143 144 0 147 0 0 0 0 0 145 142 141 0 0 134 0 0 0 0 0 0 0 0 0 0 0 0 135 135 0 129 124 127 0 0 0 0 116 117 0 0 0 121 122 123 122 121 120 0 0 0 0 0 0 118 0 0 114 114 0 0 114 113 113 114 115 0 0 114 112 112 113 114 0 115 116 0 0 0 0 0 0 0 0 125 126 0 130 0 0 134 135 0 0 0 131 129 0 0 140 146 0 0 138 136 0 0 133 134 0 0 155 0 0 163 167 0 0 0 177 179 180 182 183 0 184 182 185 185 184 187 190 0 0 219 0 216 214 216 0 216 0 216 0 0 219 0 219 0 222 225 229 0 237 239 0 242 0 0 0 246 246 0 247 247 247 0 0 248 
0 0 0 0 0 0 144 141 138 137 136 134 132 132 131 131 134 0 0 132 129 127 126 125 124 124 0 0 120 120 120 121 121 120 121 0 0 0 118 0 0 118 118 123 144 0 0 0 0 0 0 0 0 0 0 0 0 226 0 225 225 0 223 0 223 222 222 0 0 0 0 0 171 150 144 143 0 142 142 0 0 142 0 0 0 0 0 0 0 137 136 0 135 0 134 133 133 0 132 131 131 0 130 0 0 0 127 127 127 128 128 128 0 127 0 126 0 0 0 126 126 125 126 126 127 0 0 127 127 0 128 0 128 129 129 131 132 132 134 138 144 152 160 0 0 0 0 0 0 0 0 198 0 197 0 0 0 0 195 195 0 194 0 194 0 194 0 0 193 193 193 192 192 0 0 192 0 0 0 191 0 0 189 188 188 0 187 0 186 185 184 0 182 0 0 0 177 0 0 0 166 165 0 0 0 161 160 160 0 0 0 177 177 0 0 0 0 0 0 0 160 0 0 0 0 0 148 147 149 0 148 147 144 140 138 136 137 142 0 0 0 0 0 144 145 0 146 0 146 146 146 0 146 146 146 0 0 147 0 0 0 148 148 148 0 0 149 149 149 149 0 150 150 150 150 0 0 153 0 0 0 153 0 153 153 0 153 153 153 155 0 0 0 0 0 160 160 0 159 159 0 0 0 158 0 0 157 0 157 0 156 156 0 0 0 157 157 157 157 157 157 157 157 157 0 158 0 158 159 0 159 160 161 0 0 161 162 0 0 169 172 0 0 0 0 169 167 171 177 0 0 0 0 0 0 0 195 195 195 196 0 0 196 0 197 0 0 0 197 0 197 0 0 197 197 0 0 0 0 0 197 197 197 197 0 196 196 196 0 196 0 0 0 0 0 0 0 196 197 0 197 197 197 197 198 0 197 0 0 197 197 198 198 0 0 0 0 0 199 199 0 0 0 198 199 205 0 209 204 204 0 0 0 0 0 0 0 0 0 148 143 146 156 0 0 0 0 0 0 0 0 169 166 165 164 162 161 163 0 0 165 164 0 0 160 0 0 0 0 147 143 142 144 0 0 0 147 148 0 0 0 142 0 137 0 134 0 135 0 0 0 0 0 0 0 0 0 132 130 0 0 126 124 0 0 131 0 0 114 112 117 0 0 122 0 122 120 0 117 118 0 0 0 118 118 0 117 115 114 0 0 114 113 113 0 114 0 0 115 114 113 114 115 0 0 115 116 0 0 0 124 126 0 125 0 125 125 0 0 0 132 0 136 0 0 0 0 131 132 134 139 147 0 0 137 132 0 0 132 134 141 0 151 0 160 161 167 175 0 0 0 182 183 0 185 186 187 189 0 0 0 0 199 0 0 222 0 0 213 0 0 217 0 217 0 0 0 0 220 0 220 224 0 0 0 239 0 242 0 0 245 246 0 0 247 247 0 0 0 248 
0 0 154 147 142 139 137 134 133 132 130 129 128 129 0 127 127 0 0 0 127 126 0 124 124 0 0 0 121 119 120 120 121 0 0 0 0 0 118 0 0 0 118 118 125 154 0 0 0 0 225 226 226 225 226 226 225 225 225 225 0 224 224 0 222 222 222 222 222 0 0 0 0 0 153 143 143 142 142 142 142 142 0 0 142 0 0 0 0 0 0 135 135 0 0 133 0 133 132 132 131 131 130 0 129 128 127 126 127 128 0 128 127 127 126 126 0 126 0 0 0 126 126 126 127 128 128 127 127 128 128 129 131 132 134 140 147 155 163 0 0 0 0 0 0 0 0 0 0 198 198 198 0 197 196 0 0 196 195 195 195 0 0 0 0 194 194 0 194 0 0 0 192 0 0 0 192 192 0 191 0 190 0 189 188 0 187 0 0 185 184 0 183 182 181 0 178 176 175 0 170 165 164 163 0 162 161 161 164 0 0 0 176 176 177 0 0 0 0 0 0 0 165 161 0 0 0 0 155 152 151 0 0 0 0 0 0 0 0 0 0 144 145 0 146 146 0 0 146 146 146 0 0 147 0 0 0 0 148 148 0 0 0 0 149 149 0 150 0 150 0 151 0 0 152 0 154 0 0 0 154 154 0 154 154 155 155 157 158 0 0 0 160 0 0 160 0 0 159 0 0 0 0 156 0 0 154 154 0 154 153 0 0 154 154 154 0 0 155 155 0 0 0 0 0 155 0 0 0 0 158 158 159 0 0 161 160 162 0 165 166 166 0 0 0 171 166 166 170 175 181 0 0 0 195 0 195 195 0 0 195 196 196 196 196 0 197 0 196 0 197 0 0 196 0 0 197 197 197 197 197 197 196 197 0 196 0 196 196 196 196 196 196 196 0 196 0 0 197 197 197 197 197 0 0 0 0 197 0 197 0 0 0 0 198 197 198 0 0 0 0 198 0 199 203 0 0 0 201 205 207 202 195 196 0 0 0 0 0 0 0 157 151 153 0 0 0 0 0 173 172 0 167 0 0 0 162 0 0 0 0 165 164 0 161 0 156 152 150 0 0 142 143 145 146 0 149 0 0 0 143 0 0 136 0 133 0 0 133 132 131 0 0 0 134 131 128 126 0 0 123 121 124 0 0 131 0 121 114 111 112 117 0 0 0 0 0 117 115 115 115 115 116 116 0 0 116 115 0 0 114 0 112 113 0 114 0 0 0 115 115 0 0 0 116 115 116 118 119 121 0 0 0 127 127 126 125 0 126 127 130 0 135 0 0 0 0 133 133 134 141 0 0 0 133 129 0 0 131 134 136 142 147 0 159 163 0 174 179 181 0 184 184 0 0 0 0 0 0 0 0 202 206 0 0 0 0 0 214 0 0 216 0 218 218 0 219 0 0 0 220 0 0 0 0 0 0 0 0 244 245 246 0 0 247 247 247 247 0 248 
153 149 146 143 141 138 135 134 132 0 128 127 0 0 0 0 124 123 0 0 127 125 124 122 124 0 0 124 123 122 0 0 0 0 122 120 0 120 118 118 118 0 0 118 117 129 167 0 0 0 0 0 225 225 0 225 225 225 225 0 224 0 0 223 222 222 0 221 221 221 0 0 0 0 0 154 144 143 143 143 143 142 142 0 142 0 140 139 0 0 0 0 135 135 0 0 0 133 0 0 0 0 0 130 129 128 127 0 128 128 0 128 127 127 127 127 127 126 127 127 126 127 127 127 128 129 129 131 132 135 139 143 150 157 166 0 0 0 0 0 0 0 0 0 0 0 0 198 0 198 0 0 0 197 197 197 0 196 196 0 195 195 195 194 194 194 0 0 194 0 0 193 193 193 193 0 0 0 191 191 190 0 0 189 0 188 187 187 0 0 185 0 184 0 0 0 179 0 175 0 0 167 163 163 0 0 0 0 161 163 172 0 0 177 176 176 177 177 0 0 0 0 0 163 161 159 161 0 0 157 0 0 0 0 158 0 0 0 148 146 146 146 0 0 0 0 0 146 146 146 147 147 147 0 0 0 149 0 148 148 0 149 149 150 0 150 0 150 151 151 152 153 153 153 154 0 0 155 155 0 155 155 156 156 157 0 0 0 0 0 0 0 160 0 0 159 0 0 0 0 156 154 152 153 0 153 153 152 152 152 152 151 151 150 150 151 153 0 0 153 0 154 154 154 153 153 153 153 0 155 156 0 0 157 0 0 160 161 161 161 0 165 167 171 0 0 170 0 167 169 174 0 0 0 0 0 195 0 195 0 0 0 0 195 0 196 196 196 196 0 0 195 196 196 197 0 0 197 197 197 197 197 0 197 0 196 196 196 196 196 196 195 196 0 0 0 0 197 197 197 0 197 197 198 0 0 197 197 0 197 0 0 197 197 197 0 0 198 198 0 0 198 198 199 0 0 0 0 209 0 0 202 190 195 196 188 180 175 172 0 0 0 158 150 150 0 0 167 0 0 173 0 0 165 163 162 162 163 0 167 167 166 165 0 160 159 0 154 0 0 145 143 142 0 0 148 0 0 146 144 141 139 137 134 0 132 132 0 131 129 128 0 132 130 125 125 0 126 0 125 120 121 129 0 132 0 0 119 114 111 113 115 120 0 0 119 118 116 114 114 0 115 116 117 118 0 117 115 114 114 114 0 113 113 114 114 0 0 117 0 0 0 0 0 0 116 0 118 119 121 0 0 0 0 0 128 0 125 124 125 129 0 0 0 138 137 0 135 132 136 143 0 0 0 132 130 0 133 132 134 136 140 146 0 0 164 0 0 0 0 0 0 0 190 190 190 194 196 203 207 210 210 0 0 0 0 223 0 216 0 0 220 0 218 216 0 0 217 218 0 220 224 0 0 236 0 0 0 0 0 0 246 246 0 247 247 0 0 0 248 
147 147 0 0 0 0 0 0 0 0 0 0 0 121 119 119 120 120 122 125 0 0 0 0 0 0 0 0 0 123 123 122 122 0 0 0 0 0 0 117 117 117 0 117 116 117 139 0 0 0 0 0 0 0 0 0 225 225 225 0 0 0 224 0 222 222 0 221 220 220 0 0 0 0 0 181 155 144 144 144 0 0 0 142 0 0 139 0 0 136 136 136 0 136 0 0 134 133 0 132 0 132 0 0 0 0 0 0 0 128 128 128 128 128 130 131 132 133 136 140 142 143 145 147 149 152 157 161 166 0 0 0 0 0 0 0 0 0 0 0 0 0 198 0 198 0 0 198 198 0 197 197 0 0 197 0 0 0 0 196 0 195 0 0 0 194 0 0 193 193 193 193 193 0 0 193 192 192 0 191 191 0 190 189 0 0 0 187 186 186 186 0 0 184 0 181 0 0 177 176 0 0 165 162 162 162 162 162 161 160 162 0 0 0 182 179 176 175 175 175 0 0 0 0 0 0 165 0 0 161 157 158 0 0 0 0 0 149 147 147 0 0 0 147 0 147 146 146 147 0 148 148 148 148 0 149 149 149 0 149 149 149 150 0 0 151 150 0 0 152 0 0 0 155 155 156 0 156 156 156 158 159 0 0 0 0 0 162 0 161 161 0 160 160 0 159 159 0 157 0 0 154 152 152 152 151 0 0 0 0 0 0 150 0 149 150 0 0 0 151 151 151 0 152 0 152 152 151 0 0 0 0 155 155 0 158 0 0 0 159 159 162 0 165 0 0 0 0 167 166 169 173 0 0 0 0 194 195 195 195 0 196 0 0 0 196 0 0 0 0 196 196 0 0 197 0 197 0 0 0 0 197 0 0 0 0 196 196 0 0 196 196 0 0 0 0 0 197 197 0 0 197 197 0 0 198 197 0 0 197 0 197 197 0 197 0 197 0 198 198 0 198 198 202 0 0 0 213 213 0 0 203 196 0 0 0 177 169 173 0 0 0 0 0 149 149 157 165 0 0 0 0 167 0 163 162 162 164 0 0 0 0 166 164 0 159 0 155 0 149 0 143 143 144 0 147 0 0 0 0 141 136 136 134 133 131 130 129 129 0 129 0 0 125 123 0 125 122 0 123 121 125 0 0 132 0 0 119 114 115 0 118 119 0 0 118 116 116 115 116 0 0 0 0 117 0 117 115 115 0 114 113 113 114 0 116 0 0 0 0 116 116 115 115 117 0 0 119 0 122 124 0 0 0 0 0 0 124 123 123 128 133 0 0 139 139 0 137 133 137 144 0 0 141 131 131 131 131 132 0 0 140 144 0 0 163 166 0 176 182 0 0 0 0 0 194 195 201 0 0 0 0 214 0 0 0 221 217 216 0 0 0 219 218 217 0 0 215 216 0 220 224 229 0 236 0 0 242 0 0 0 246 0 0 247 247 0 0 248 248 
147 146 0 144 0 0 0 0 0 0 0 122 118 118 118 121 0 0 124 0 0 0 0 0 126 0 126 0 0 0 0 122 0 0 0 0 120 0 119 118 117 117 115 116 116 115 121 152 0 0 0 0 0 0 226 0 0 225 0 0 0 224 0 0 223 222 0 0 220 220 220 220 0 0 0 0 0 160 148 146 145 144 0 142 0 140 0 138 137 137 136 136 136 136 0 0 134 133 133 0 132 132 132 131 128 128 128 129 129 130 130 133 137 145 154 163 0 0 0 0 0 0 0 0 0 0 0 0 0 0 0 0 0 0 0 0 201 200 199 199 0 198 0 0 198 0 0 0 198 198 197 197 0 0 197 197 197 196 196 196 0 195 0 195 194 0 194 194 193 0 193 0 0 193 0 0 192 192 0 0 0 0 0 189 189 189 188 0 187 0 0 186 0 184 183 182 0 179 178 177 0 0 170 163 161 162 0 0 0 0 160 167 0 0 0 0 181 176 173 172 0 0 0 0 0 0 0 0 0 0 162 160 159 0 0 155 150 147 147 148 0 0 148 148 0 0 0 147 0 0 0 149 0 149 0 149 149 0 149 0 0 150 0 151 151 0 152 152 0 154 0 156 0 156 156 157 158 159 160 161 0 0 0 163 0 0 0 162 0 161 161 0 160 159 159 159 0 157 156 155 0 153 0 0 0 150 151 0 151 0 150 150 0 0 149 149 149 149 149 149 0 148 149 0 0 0 151 150 151 0 0 0 154 154 154 155 0 0 0 159 159 159 0 0 161 162 0 0 169 165 165 167 173 179 0 0 0 0 195 0 0 195 0 0 196 196 196 0 197 0 0 0 0 0 197 0 197 0 198 0 0 197 196 196 0 0 0 196 196 196 0 196 196 0 0 196 0 197 197 197 197 197 197 198 198 198 0 0 0 0 197 197 0 0 197 197 0 0 198 198 0 198 198 203 0 0 0 211 0 0 0 203 201 0 0 0 178 165 174 0 174 167 0 0 153 149 156 0 0 0 173 169 166 0 162 162 162 0 0 0 0 169 167 0 0 160 0 156 0 149 146 143 142 142 0 145 145 145 0 0 141 138 136 134 0 0 0 0 129 128 128 128 0 125 0 0 125 123 0 121 123 0 0 0 0 0 126 0 0 0 0 0 119 0 0 119 117 117 0 0 116 0 0 116 117 0 116 0 0 114 114 0 114 114 115 0 0 0 0 115 0 116 0 0 117 118 119 119 0 121 124 0 130 131 0 0 0 126 0 125 128 132 0 0 141 139 0 0 137 140 0 0 0 138 131 0 131 0 133 0 0 142 145 151 0 161 0 0 169 176 0 0 0 0 0 0 199 199 0 0 0 0 207 210 220 220 220 216 216 0 220 220 219 0 217 0 0 213 214 0 220 224 229 0 236 0 0 242 243 244 245 246 0 247 247 247 247 0 248 248 
148 0 0 0 0 0 0 128 124 121 121 119 120 0 0 0 0 0 125 122 122 0 0 0 125 0 0 0 123 122 122 0 120 119 118 118 119 119 0 0 0 0 0 0 0 116 116 129 0 0 0 0 224 0 0 225 225 0 224 224 224 223 223 0 0 0 0 221 0 220 220 220 220 220 0 0 0 0 165 149 144 144 0 0 0 139 137 137 0 0 137 0 136 136 0 136 135 134 133 0 133 133 0 0 130 129 0 129 130 135 147 163 0 0 0 0 0 0 0 0 0 0 0 0 0 0 0 0 0 0 204 0 204 203 203 202 0 200 199 199 199 199 0 0 0 0 199 0 0 198 0 0 0 197 196 0 0 0 0 196 0 195 0 195 194 0 0 0 0 194 0 193 193 0 0 193 192 0 192 192 192 0 0 190 0 0 188 188 187 187 0 0 0 184 0 182 0 0 179 178 177 0 0 167 162 0 0 0 162 0 161 162 173 0 0 0 186 180 176 173 0 0 170 169 0 0 0 0 0 0 0 0 0 0 155 150 148 147 0 0 149 0 148 148 148 147 148 148 149 0 0 0 149 0 149 149 150 0 150 149 150 0 151 0 152 152 153 154 155 156 0 157 157 158 159 160 0 0 0 0 0 0 0 0 0 0 0 0 161 161 0 0 0 159 0 0 0 157 0 154 153 0 0 152 151 150 0 149 148 0 0 149 149 0 0 148 148 148 147 0 0 147 147 0 149 150 0 150 0 148 0 0 0 0 152 153 155 0 0 0 0 159 159 0 159 158 163 0 0 169 166 166 167 173 179 0 0 0 0 195 0 0 196 196 196 196 196 0 0 196 196 0 0 196 196 0 197 197 197 0 0 197 0 196 196 0 196 196 196 0 196 195 196 0 196 196 0 197 197 197 197 197 0 197 0 0 198 0 197 0 0 197 0 0 197 197 0 0 0 198 0 0 198 0 0 0 203 206 0 0 0 201 0 0 196 0 178 169 0 0 0 164 158 156 155 159 0 0 0 0 174 170 167 164 162 162 163 167 169 170 0 0 0 0 163 0 0 0 0 149 146 143 142 142 0 0 0 0 0 143 0 0 0 133 131 130 129 0 0 0 126 127 128 0 0 127 0 0 120 122 0 0 135 0 0 0 122 119 116 116 116 116 118 120 0 0 119 0 0 115 0 114 113 114 116 0 0 0 0 0 114 114 0 0 116 0 0 114 113 114 0 116 0 0 0 0 0 0 0 120 123 0 0 0 132 0 0 127 0 126 0 132 0 0 0 141 0 0 141 0 0 0 0 137 131 0 131 0 131 136 140 0 146 147 152 157 0 0 172 172 184 0 0 0 0 0 0 202 0 0 0 0 200 212 0 222 0 217 216 0 0 0 217 0 216 218 0 214 214 0 221 225 0 233 236 0 0 242 243 244 245 0 0 0 247 247 247 0 248 248 
0 0 0 0 136 132 129 126 127 125 0 0 0 0 0 0 127 0 0 121 118 0 0 124 123 122 121 122 0 0 121 120 119 118 117 118 0 118 0 117 0 116 114 114 114 114 115 118 137 0 0 0 0 0 225 225 0 224 0 224 0 223 222 0 222 222 0 221 0 0 220 220 0 219 0 0 0 0 0 167 147 143 142 140 0 137 0 0 137 137 137 137 0 136 0 136 0 135 0 0 134 0 0 0 0 0 130 132 143 0 0 0 0 0 0 0 0 207 207 207 207 207 207 206 206 206 0 205 204 0 204 204 204 0 0 0 201 200 200 0 0 199 199 199 199 199 199 0 198 198 198 198 0 197 196 0 0 196 0 196 0 0 195 195 195 194 0 194 0 194 0 0 193 193 193 193 193 0 0 192 0 0 0 0 190 189 0 0 0 187 186 0 0 185 184 183 0 0 0 0 177 177 0 0 164 162 161 162 162 161 161 161 174 0 0 0 0 0 0 176 0 172 169 0 0 161 0 0 0 0 0 0 0 0 149 148 147 147 0 149 149 0 0 0 148 148 0 0 0 0 149 149 149 0 149 149 0 0 151 150 151 0 152 153 0 153 155 156 157 158 159 159 159 163 0 0 0 0 0 164 164 164 0 163 0 161 161 161 161 0 160 160 159 0 0 0 0 0 0 154 153 151 151 0 0 150 0 0 149 0 149 0 148 0 0 148 148 0 147 147 146 147 147 146 147 0 0 149 148 148 148 149 0 149 0 152 153 0 155 155 0 0 0 158 157 159 161 165 0 0 0 166 164 167 172 0 0 0 0 0 195 195 0 0 0 196 0 0 0 196 195 196 0 196 196 0 196 197 0 198 0 0 197 196 0 0 0 0 0 196 196 0 196 0 196 0 0 0 0 0 197 197 0 0 198 0 198 197 0 0 0 0 197 197 197 197 197 197 0 0 197 197 198 0 0 0 193 0 0 0 0 193 0 0 190 184 176 176 0 0 0 163 155 158 167 0 0 0 0 0 174 0 0 165 163 163 0 0 0 170 0 0 167 164 163 0 0 0 0 0 146 143 141 141 141 0 0 0 0 141 0 0 136 133 130 0 127 127 0 0 127 127 0 130 0 0 0 123 123 0 0 0 0 0 0 123 118 117 116 114 115 118 0 0 121 0 119 0 0 113 113 0 113 114 115 0 0 115 115 114 113 114 114 115 116 0 115 114 112 114 0 115 117 118 120 0 0 0 121 120 0 0 0 0 0 131 0 0 123 125 128 132 0 0 142 144 0 0 144 143 0 0 138 0 131 129 130 0 131 136 0 0 0 148 148 154 162 0 0 175 179 0 0 0 199 0 200 200 0 207 0 200 203 0 0 0 0 0 216 220 0 0 216 0 216 0 0 217 214 0 222 225 0 233 0 0 241 242 243 244 245 0 246 0 247 247 247 0 0 248 
0 139 135 132 131 131 0 0 0 0 124 122 0 122 123 0 0 0 0 0 117 118 0 0 122 0 119 0 120 0 0 119 0 118 0 0 117 117 0 116 115 115 114 114 113 113 113 115 121 151 0 0 0 0 224 0 0 0 0 0 0 0 222 222 222 222 0 221 0 0 220 220 0 218 218 218 0 0 0 0 170 147 140 138 0 135 135 136 136 0 137 137 0 137 0 0 136 0 0 0 134 0 0 133 0 132 134 148 0 0 0 0 207 207 207 207 207 207 207 207 207 207 0 206 0 0 205 0 205 0 204 0 0 0 203 202 0 0 200 200 0 199 0 199 199 199 199 0 198 197 0 0 0 0 197 197 0 196 0 196 196 196 0 0 0 0 0 194 194 194 194 0 193 0 193 0 0 193 0 0 192 190 191 191 190 189 0 0 188 0 187 186 186 0 0 0 183 182 181 0 178 177 0 0 169 163 162 0 0 162 161 169 0 0 0 0 181 0 0 176 0 172 171 0 0 146 139 143 135 134 145 149 151 150 148 147 0 0 0 149 149 0 147 148 0 0 149 0 150 0 0 149 0 0 150 0 151 0 152 152 152 153 154 0 156 157 158 159 160 162 163 0 0 0 0 0 0 0 164 163 163 163 163 163 162 161 161 161 161 0 0 0 0 157 156 156 155 0 0 0 0 0 152 151 150 149 0 0 0 148 148 0 148 148 148 148 0 0 147 0 147 147 0 146 147 0 148 148 147 0 147 147 147 147 0 0 0 152 152 152 0 0 0 0 156 157 0 161 164 0 0 169 164 164 166 171 177 0 0 0 0 194 0 195 195 0 196 196 196 196 196 196 0 0 196 0 197 0 0 198 198 0 197 0 0 0 196 0 0 196 196 196 196 0 196 196 196 0 0 196 197 0 0 197 0 0 0 197 197 197 197 0 0 197 197 197 197 197 197 197 0 0 0 0 189 185 182 185 196 196 187 182 0 0 185 181 176 0 0 181 176 172 0 0 0 0 0 0 0 179 173 170 167 166 164 164 167 0 0 0 0 0 167 165 0 0 158 155 152 0 0 143 140 0 138 139 141 0 0 140 0 0 0 0 129 0 125 126 126 0 0 0 0 130 130 0 128 127 128 0 0 0 0 0 0 123 118 117 118 0 0 0 0 0 0 120 118 0 113 112 112 0 113 0 114 0 115 0 114 0 113 0 0 114 0 0 115 0 112 114 0 117 117 118 0 0 121 122 0 121 123 0 0 130 131 131 0 0 124 124 127 133 0 141 140 145 0 0 147 143 0 0 134 0 0 128 127 0 133 138 0 144 0 0 149 152 157 166 0 0 181 0 186 191 0 0 198 199 0 0 201 195 0 0 0 223 218 0 0 218 0 218 216 215 216 0 0 218 216 0 221 225 229 233 0 0 0 0 0 244 245 0 246 0 247 247 247 247 0 0 
136 132 132 0 0 0 0 0 0 0 0 121 120 120 121 123 0 0 125 0 119 115 118 0 121 120 118 118 118 118 118 118 0 0 117 116 0 115 116 0 0 115 114 0 114 114 0 114 115 125 162 0 0 0 0 223 0 0 223 222 0 222 222 0 0 0 0 220 220 220 220 220 0 219 0 217 217 0 0 0 0 171 146 137 137 0 0 0 136 0 0 137 0 137 0 0 136 0 135 134 134 0 133 133 133 134 148 0 0 0 0 207 0 0 0 0 0 207 207 207 207 207 0 206 205 205 0 0 0 0 204 204 203 0 203 202 202 0 201 200 200 200 0 199 199 199 199 0 198 0 197 197 197 197 197 197 0 197 0 0 196 0 196 196 0 195 195 195 0 194 194 194 193 0 0 0 193 193 0 0 0 192 0 0 0 190 189 189 188 0 187 0 186 0 185 184 0 183 182 0 0 178 0 0 0 166 162 161 162 162 166 0 0 0 0 177 166 0 0 177 173 173 0 0 0 150 133 129 126 122 139 0 0 149 0 146 148 149 0 0 0 148 148 148 0 0 149 149 149 149 150 150 0 150 150 152 152 153 0 154 155 0 157 158 160 161 163 165 166 0 0 0 0 0 0 166 164 164 164 164 163 163 163 0 162 161 161 161 0 160 160 0 158 156 155 154 154 154 154 0 0 153 0 0 150 149 149 148 147 148 148 148 0 0 147 147 0 0 147 147 0 0 147 147 147 147 147 0 147 146 0 146 146 0 0 148 149 150 0 151 0 0 153 0 156 156 0 0 160 0 0 0 0 163 163 166 171 178 0 0 0 0 0 195 195 0 0 195 0 0 196 196 196 0 0 0 197 0 0 0 198 0 197 0 196 0 0 0 0 196 196 196 196 0 0 196 196 0 0 0 197 0 0 0 0 197 197 0 197 196 197 197 197 0 196 0 0 197 0 197 0 0 0 0 181 0 0 0 0 0 0 0 0 0 0 0 0 0 0 0 0 0 0 0 0 0 186 0 0 178 171 170 0 166 165 166 0 0 0 0 0 0 0 165 163 0 158 0 0 149 0 144 141 139 137 138 0 0 141 140 0 137 133 0 130 128 125 0 124 122 126 0 0 131 130 130 0 0 0 0 131 0 132 131 0 0 121 0 0 0 0 0 0 0 0 120 118 0 112 111 111 112 113 0 114 114 114 0 112 114 0 0 112 113 0 0 0 0 115 0 0 118 0 119 0 0 0 0 0 122 122 126 0 130 0 0 0 0 126 124 127 0 0 139 140 148 0 0 147 142 0 133 129 132 0 128 128 0 0 0 0 142 0 0 0 156 156 161 0 174 0 0 181 182 186 0 0 0 0 0 196 199 0 0 0 222 218 0 0 218 216 0 0 214 214 216 0 0 218 219 221 225 229 0 236 0 240 241 0 244 0 0 246 0 0 247 247 247 247 247 
135 135 0 0 0 0 129 128 127 125 123 120 119 119 120 121 122 0 0 0 0 113 115 0 0 0 118 118 117 117 117 116 116 0 0 0 114 114 0 0 116 0 0 0 0 115 0 0 114 116 136 0 0 0 0 222 0 0 0 222 0 222 0 221 0 221 0 0 220 0 220 220 0 219 0 0 0 0 0 0 0 0 173 147 138 137 137 0 137 0 138 137 0 0 136 136 0 135 0 0 134 0 0 132 133 144 0 0 0 0 207 207 206 206 0 206 0 0 0 0 0 207 0 0 0 206 0 206 206 0 0 204 204 0 0 203 0 0 0 0 200 0 0 199 199 199 0 0 0 0 197 197 197 197 197 197 0 197 0 0 0 196 0 0 0 0 0 0 195 194 0 0 194 194 0 193 193 193 0 192 0 0 192 191 0 0 189 0 0 188 0 0 187 186 185 185 0 0 0 182 0 179 0 0 0 0 164 162 162 164 174 0 0 0 0 167 160 165 0 0 175 174 174 0 0 0 146 137 132 130 0 0 150 148 147 148 0 149 149 150 0 148 0 0 149 149 149 149 0 0 150 151 0 152 152 0 0 0 155 0 0 0 0 161 0 0 0 0 0 0 0 0 0 167 167 166 165 0 165 0 0 163 163 0 161 161 161 161 0 160 159 0 158 157 156 155 0 152 152 153 152 152 152 0 151 0 149 0 148 0 148 147 0 147 147 147 0 0 147 147 0 0 148 0 0 146 146 0 0 0 145 0 145 146 146 146 147 149 150 151 0 0 151 152 0 0 156 154 156 161 0 0 0 164 161 164 166 172 179 0 0 0 0 195 195 0 0 195 0 196 0 0 0 0 196 196 0 197 0 197 0 0 197 0 196 0 0 196 196 196 0 0 196 0 0 0 0 197 196 0 197 197 197 0 0 0 197 197 197 197 0 0 196 0 197 197 0 0 0 0 0 186 175 171 173 0 0 0 0 0 0 0 173 0 0 173 173 174 0 177 178 179 181 184 0 0 187 0 0 177 0 0 0 166 166 167 0 0 0 0 170 0 166 165 0 0 0 0 151 148 0 144 141 138 0 137 138 139 0 0 0 136 133 132 0 0 0 0 0 122 122 127 0 0 130 131 0 0 128 128 131 132 129 124 128 0 0 122 119 119 0 0 0 119 0 0 0 113 112 111 111 0 0 113 0 0 115 0 0 0 0 114 113 0 0 0 112 114 115 0 119 120 120 120 0 0 0 124 0 0 125 126 127 0 0 131 0 0 128 125 129 0 0 138 143 0 0 0 0 0 134 129 127 130 0 127 129 132 0 141 0 143 0 0 0 0 161 163 166 171 0 0 0 0 183 0 0 195 202 201 200 0 214 0 0 223 222 0 0 217 215 215 0 214 216 217 217 216 0 216 221 0 0 232 0 0 0 241 0 0 0 245 0 246 0 0 247 247 247 247 
0 0 0 0 131 0 128 127 0 0 0 119 118 118 119 120 122 0 0 0 0 116 111 115 0 0 118 0 0 0 0 116 116 116 0 115 115 0 115 115 0 0 115 113 0 0 0 0 114 114 119 151 0 0 0 0 222 222 222 222 222 222 0 221 0 220 220 0 0 0 220 0 0 219 218 218 217 216 216 216 0 0 0 0 150 139 137 137 137 0 0 0 136 135 136 136 135 135 135 134 134 133 132 132 140 166 0 0 0 207 207 0 0 206 206 206 206 206 0 206 0 207 207 207 0 0 0 206 206 0 205 0 0 204 204 0 202 202 201 201 0 200 0 199 199 199 0 198 198 198 0 0 0 197 0 197 197 197 0 196 196 195 195 0 195 0 196 0 195 195 0 195 0 0 0 193 0 193 192 192 0 0 191 0 0 0 190 0 0 188 187 0 0 0 186 0 185 184 0 183 182 181 0 180 0 0 169 163 163 169 0 0 0 0 171 161 160 161 170 0 177 0 0 174 0 164 157 0 147 0 0 151 150 149 149 0 0 150 0 0 0 149 149 149 0 0 0 149 150 151 150 152 0 0 0 0 0 155 156 0 0 158 159 163 0 0 0 0 171 0 0 0 167 166 166 0 166 165 0 0 0 0 163 0 162 161 161 161 0 159 0 158 158 0 0 0 0 154 0 0 0 153 153 0 0 149 0 149 0 0 148 0 0 147 0 0 0 0 147 147 0 0 148 0 146 145 145 145 0 145 144 144 145 0 0 146 0 147 149 0 0 150 149 151 0 0 155 154 154 156 161 0 0 0 162 162 163 167 173 180 0 0 0 0 195 195 0 195 0 196 196 196 196 0 196 196 0 0 197 0 197 0 0 196 195 0 0 195 0 0 195 0 196 0 0 196 0 0 0 196 0 197 197 197 196 0 197 0 0 197 0 0 0 197 197 197 197 0 0 0 0 0 162 161 164 0 0 0 170 166 163 162 160 162 164 167 169 169 171 174 178 180 0 0 0 0 0 0 0 175 172 169 166 166 0 167 170 0 171 0 0 167 165 164 0 0 0 154 151 149 0 143 140 0 137 137 138 138 0 0 138 0 134 132 0 0 127 125 123 121 123 0 0 0 0 0 0 130 126 129 0 0 129 123 127 0 127 0 122 119 120 118 115 114 117 0 0 115 113 0 112 113 0 115 115 115 115 115 0 114 0 0 0 113 0 0 111 112 0 117 0 0 0 121 122 0 126 126 126 126 0 125 126 0 130 130 0 0 130 128 0 0 136 137 144 0 0 0 142 135 131 126 126 126 0 128 129 131 136 0 0 148 0 154 159 0 165 0 169 172 174 178 0 184 181 181 183 192 0 0 203 0 217 0 0 0 222 222 0 218 213 213 214 215 0 0 214 214 0 218 220 0 0 231 0 0 239 0 242 243 244 0 0 246 246 0 247 247 247 247 
0 0 133 130 128 128 128 127 0 0 121 120 0 117 118 0 0 122 123 123 0 0 113 112 0 0 0 117 0 116 0 0 0 0 115 115 115 115 114 114 115 0 0 113 114 114 114 114 113 113 114 128 0 0 0 0 0 0 221 0 0 0 0 221 0 220 220 220 220 220 219 0 0 0 0 0 217 216 216 216 0 0 0 0 0 153 140 138 138 137 137 0 136 136 136 0 136 0 0 135 0 133 133 136 157 0 0 0 207 207 207 207 0 206 205 0 0 205 0 206 0 0 0 0 207 207 0 0 0 206 0 204 205 0 204 0 202 202 0 201 201 0 200 199 199 199 0 0 0 0 198 198 0 0 198 0 197 197 0 196 196 196 196 0 0 0 0 0 0 195 0 0 0 0 193 0 0 193 193 193 193 0 192 0 191 191 0 189 0 188 188 0 0 187 186 0 185 185 184 184 0 0 181 181 0 0 0 166 165 0 0 0 0 176 164 164 0 167 170 0 0 0 0 0 0 0 0 0 0 0 0 149 149 150 0 0 0 150 150 150 150 150 150 150 150 150 0 151 0 0 152 0 0 154 154 155 156 156 156 157 0 158 158 163 0 0 0 171 170 0 169 167 167 167 0 0 0 0 165 165 0 164 163 0 162 0 161 0 0 159 158 158 0 0 157 0 0 0 155 155 0 0 0 0 152 150 149 149 149 0 148 147 147 0 0 0 0 147 0 147 147 147 0 147 146 146 0 145 0 0 0 144 0 145 0 145 0 147 0 148 0 148 148 149 0 0 0 0 0 153 154 159 0 0 164 162 163 164 169 174 181 0 0 0 0 194 0 195 0 0 0 0 0 0 0 0 196 196 0 0 0 196 195 195 0 195 195 195 195 195 195 0 196 196 196 0 197 197 0 196 0 197 0 197 0 0 197 0 0 197 196 197 197 197 0 0 0 0 197 0 0 179 159 155 157 159 157 158 156 155 157 160 163 165 166 166 169 172 175 0 0 0 0 0 0 0 0 0 0 174 171 169 167 167 0 170 0 0 171 0 0 166 0 0 0 158 155 0 0 149 0 143 141 139 136 137 0 0 0 136 136 0 134 133 131 129 127 0 0 123 0 0 127 128 0 130 130 130 130 0 0 0 0 127 128 0 128 126 0 0 119 118 114 113 116 0 0 0 114 113 112 114 116 116 116 115 0 0 113 0 0 0 113 112 0 0 112 112 114 116 120 0 122 123 124 0 125 0 0 127 0 128 126 0 0 130 0 0 132 131 0 0 136 138 144 0 0 145 135 0 0 126 0 124 0 0 130 131 136 142 0 0 0 156 161 0 167 166 171 0 175 178 182 0 0 0 188 0 0 203 208 0 0 0 222 0 222 218 0 218 0 214 213 216 0 0 213 216 0 0 220 224 227 0 0 236 238 240 0 242 0 244 245 0 246 0 0 0 247 247 
133 133 0 130 0 128 0 0 0 124 121 0 119 117 116 0 0 122 123 123 0 0 115 110 113 0 0 115 115 114 114 114 0 0 0 0 0 0 0 114 115 0 0 0 113 113 113 0 114 0 115 116 139 0 0 0 0 0 0 220 0 220 220 0 220 220 0 220 220 0 219 219 219 219 0 218 217 216 0 216 0 0 0 0 0 0 155 141 138 137 137 0 136 0 0 0 135 0 0 0 0 133 135 150 0 0 0 0 207 207 207 0 0 206 0 205 0 0 205 205 205 0 206 0 207 207 207 207 0 206 0 0 205 0 0 204 0 202 202 0 201 0 200 0 199 199 199 199 0 0 0 198 0 0 198 0 197 0 197 0 0 0 0 196 0 195 0 0 195 195 195 0 194 194 193 0 0 0 0 0 193 193 0 191 191 191 0 190 0 0 188 188 0 0 0 186 186 0 0 185 0 0 183 182 0 0 0 173 174 0 0 0 0 167 163 0 0 0 175 0 180 0 0 0 0 0 167 0 0 0 152 150 0 151 151 0 0 151 0 150 150 0 0 0 150 150 0 152 153 153 0 155 155 156 0 156 157 0 0 0 0 158 160 164 0 169 0 0 169 0 0 0 0 167 0 166 0 0 165 0 0 0 163 162 161 161 161 160 160 0 0 0 0 0 156 156 0 0 0 0 0 155 154 0 0 0 150 149 149 0 148 0 0 0 147 0 0 0 0 146 146 0 147 0 0 0 146 145 144 144 144 143 144 145 145 0 0 146 146 146 147 147 0 147 149 150 152 0 0 151 151 153 158 0 0 163 163 163 166 170 176 182 0 0 194 194 0 195 195 195 195 195 195 195 195 195 195 0 196 0 196 0 195 195 195 195 0 0 0 0 0 0 196 196 196 0 197 197 197 197 197 197 0 0 0 196 196 197 0 0 197 0 0 0 198 198 197 0 197 196 0 0 164 158 156 155 156 159 164 0 0 0 0 0 169 171 0 0 0 0 0 0 0 0 0 184 0 181 177 173 0 0 0 0 0 0 0 171 170 169 167 0 163 161 159 157 155 0 0 148 0 0 0 139 0 137 138 0 0 134 134 0 134 0 0 129 128 127 125 123 124 0 126 125 0 131 0 131 130 133 0 0 0 128 0 0 0 0 126 124 0 0 117 115 0 119 0 0 116 0 115 0 0 0 118 117 0 114 112 0 0 114 113 113 0 112 111 113 0 117 120 0 123 124 0 0 126 0 127 129 0 0 126 0 0 129 0 0 132 134 0 136 137 0 145 0 0 138 133 0 127 0 124 122 127 0 129 0 0 0 0 148 151 0 0 0 0 174 0 0 179 183 185 184 185 186 188 195 0 208 0 0 220 0 221 0 0 219 0 218 0 215 214 218 0 218 214 216 0 0 220 223 0 0 0 235 0 0 0 242 243 244 0 0 0 246 246 0 0 247 
132 131 130 129 128 127 0 0 126 0 121 120 0 0 118 119 0 0 0 0 0 0 0 111 108 113 0 0 115 114 0 0 113 114 114 114 113 113 114 0 0 115 115 114 113 113 113 0 114 0 114 113 120 154 0 0 0 0 0 220 220 220 220 220 220 219 0 0 0 0 219 219 0 219 0 0 217 216 216 216 0 215 215 0 0 0 0 156 141 137 0 136 136 0 0 136 135 135 134 134 133 134 145 0 0 0 0 0 207 207 207 0 206 206 0 0 0 0 205 205 205 206 0 0 0 0 207 207 0 0 206 0 206 205 205 204 0 0 203 0 0 0 200 0 199 199 199 199 0 198 198 0 198 198 198 197 0 0 197 0 0 0 0 196 0 195 195 0 195 0 194 194 194 0 0 0 194 194 194 0 0 193 0 192 191 191 0 0 190 0 189 188 188 0 187 0 0 186 0 185 0 184 184 0 183 181 0 180 0 0 0 0 172 163 163 0 0 0 179 0 182 0 0 175 170 166 167 0 0 156 151 152 0 0 152 152 0 151 151 151 151 150 0 152 152 152 153 155 155 0 157 157 0 0 0 0 0 0 0 158 158 158 160 164 0 169 169 0 169 0 0 167 167 0 166 0 165 0 164 164 164 0 163 162 161 0 161 160 160 0 0 158 158 0 0 156 156 156 156 0 155 0 0 153 0 0 0 150 149 0 149 148 148 148 147 0 0 147 147 147 146 0 146 146 146 146 0 0 0 0 0 144 0 145 0 146 146 145 146 0 0 0 146 146 0 149 150 0 0 150 149 151 155 0 0 0 163 163 165 167 172 178 184 0 0 0 0 194 0 194 194 194 194 195 195 194 195 195 0 0 195 0 0 194 195 0 0 196 0 0 195 196 196 196 0 197 0 0 197 197 0 197 196 196 0 0 196 0 0 0 197 0 198 198 198 0 0 0 197 0 0 0 0 0 0 0 0 0 0 0 0 0 171 171 0 0 0 0 0 181 182 181 183 0 184 0 0 0 174 171 170 169 169 0 170 0 171 0 0 0 166 164 162 0 0 156 0 152 150 148 145 143 0 0 137 138 138 0 136 134 132 133 134 0 0 131 0 128 126 0 123 125 0 0 0 130 0 133 0 133 135 0 0 129 128 128 0 0 0 124 122 121 0 117 118 118 119 0 117 0 118 119 119 0 0 118 115 113 0 0 0 0 0 112 0 112 112 113 115 118 0 0 125 125 127 127 126 0 126 129 0 0 130 0 130 128 132 0 0 0 135 134 0 140 0 0 139 0 129 124 124 0 122 122 0 0 128 131 136 0 0 147 150 0 0 0 0 178 0 0 182 0 0 187 0 0 193 0 0 0 0 0 220 0 0 222 219 217 0 218 217 216 215 0 0 218 216 217 0 0 220 223 0 0 232 0 0 0 240 0 0 0 244 0 245 0 246 246 0 0 
0 131 130 128 128 0 127 0 0 124 121 120 119 118 0 119 119 122 0 0 0 120 0 0 109 110 0 0 0 114 113 113 0 0 0 113 0 0 0 0 115 0 0 114 113 0 114 0 114 0 112 113 113 128 0 0 0 0 0 0 0 0 219 0 0 0 0 219 0 0 219 219 0 0 0 0 217 216 216 216 0 0 0 0 0 0 0 0 156 141 139 0 137 0 136 0 0 134 134 134 135 145 173 0 0 0 207 207 207 207 0 0 0 205 205 0 206 0 0 0 0 206 206 206 206 0 0 207 207 0 0 0 0 206 0 0 204 204 0 0 202 201 200 0 0 199 199 199 0 198 0 0 198 198 198 0 0 197 0 196 0 196 0 196 196 0 0 195 195 195 0 0 0 194 193 193 0 194 0 0 0 193 0 0 0 191 0 190 0 189 0 0 0 187 0 0 186 186 0 0 184 184 185 0 0 183 0 182 0 0 0 175 165 162 162 171 0 0 181 182 0 0 0 172 169 167 0 166 160 154 153 0 0 153 0 153 153 152 152 152 152 152 153 153 154 0 0 0 0 0 0 0 0 159 159 0 0 159 158 159 159 159 161 165 0 0 169 0 169 0 167 166 165 0 166 0 164 164 164 164 164 0 0 0 161 0 0 0 160 0 158 158 0 157 157 0 156 156 0 0 0 155 154 152 0 0 152 151 150 0 0 149 0 0 148 148 0 147 0 0 147 147 0 145 145 145 0 0 0 0 0 144 144 0 0 0 145 0 0 0 0 145 144 0 0 0 149 0 149 148 148 149 0 157 0 0 163 162 0 166 169 173 0 0 0 0 194 0 0 194 194 194 194 0 0 0 0 195 195 0 195 0 195 0 195 0 0 195 195 0 196 196 0 196 196 197 0 0 197 196 0 197 0 196 0 0 0 0 197 0 197 0 0 0 0 0 0 0 0 0 0 0 179 0 0 0 0 0 0 171 170 171 172 174 0 0 0 0 181 181 0 0 182 0 183 0 0 176 0 170 167 169 169 0 170 170 170 0 169 167 165 0 0 158 156 0 0 0 0 0 145 143 141 139 0 0 0 0 0 0 132 131 133 0 134 0 0 0 0 0 124 123 126 0 0 130 0 0 0 0 0 0 0 129 0 126 125 125 0 0 123 122 120 118 0 0 118 0 118 117 0 0 0 121 0 0 117 113 114 0 116 113 113 113 0 112 0 0 116 119 123 0 0 127 0 0 0 128 127 0 131 0 0 0 130 131 0 0 0 133 0 0 135 138 0 0 133 0 125 122 122 122 122 123 125 127 128 131 0 0 0 146 151 0 162 170 175 177 0 184 186 0 189 184 188 191 195 199 205 208 0 0 216 0 0 0 218 217 0 218 218 0 217 0 0 0 0 220 0 217 216 221 0 0 231 0 236 0 0 241 242 243 0 244 0 245 0 246 246 246 
0 132 0 0 0 127 0 0 0 0 0 120 119 0 0 119 120 121 121 0 121 0 0 0 0 110 112 0 0 0 115 114 113 112 112 113 0 114 114 114 114 0 0 0 114 0 0 0 0 0 113 113 113 116 142 0 0 0 217 218 0 0 218 0 219 0 0 0 0 0 219 0 218 218 217 0 0 216 216 216 216 216 0 214 214 0 0 0 0 156 141 137 137 0 137 137 0 135 134 139 153 0 0 0 0 207 0 0 207 0 0 206 206 0 205 0 0 0 205 0 0 0 206 206 206 206 0 207 207 207 207 207 0 0 206 205 0 204 204 203 202 0 201 0 0 199 199 199 0 0 0 0 0 0 198 198 0 197 0 196 0 0 0 0 196 195 195 195 0 0 195 0 0 0 194 0 0 0 0 193 193 193 0 192 191 0 0 190 190 189 0 0 0 188 0 0 0 186 186 0 184 185 0 186 0 184 182 181 0 0 0 167 163 163 163 164 0 0 0 0 0 0 0 173 170 170 0 0 0 161 157 156 155 155 155 155 154 154 154 155 0 0 0 0 0 0 0 0 0 0 0 0 0 0 159 0 159 159 159 0 0 160 163 0 0 0 169 169 0 167 0 0 165 165 0 165 164 164 164 0 164 0 163 0 0 161 161 0 0 0 158 0 0 157 0 0 0 155 0 155 155 0 0 153 0 152 0 0 150 0 0 149 0 0 0 148 148 148 0 0 148 0 0 146 0 145 145 0 143 143 142 143 144 145 0 0 0 144 0 0 144 0 144 0 146 147 148 0 148 148 147 148 149 152 0 0 0 161 161 0 166 170 175 181 0 0 193 0 0 194 0 0 0 0 195 194 0 195 195 195 194 0 0 0 0 195 195 194 0 196 0 196 196 196 196 0 197 197 0 0 0 196 0 0 0 196 196 196 196 0 197 197 0 0 0 198 0 0 0 196 0 0 181 167 165 166 166 166 169 171 172 173 0 0 0 0 0 181 0 0 181 181 0 0 0 0 0 173 170 169 169 169 0 0 170 0 0 0 167 0 0 0 0 158 156 0 0 150 0 0 145 0 141 140 139 139 0 136 0 133 131 132 134 0 0 0 0 0 0 0 123 124 126 128 0 133 134 0 131 133 0 0 0 127 126 0 0 121 120 0 0 0 0 118 118 119 0 0 117 117 0 121 0 0 121 0 0 119 117 0 115 114 114 114 114 114 114 0 118 120 0 0 0 127 129 0 130 129 0 0 0 131 132 0 130 131 0 0 0 133 0 135 135 0 0 132 128 123 121 120 120 0 121 123 124 127 128 131 134 138 0 147 152 0 166 0 175 179 183 183 190 0 189 189 0 194 0 0 206 207 209 0 213 0 215 216 216 0 0 220 220 0 220 220 220 220 221 220 0 218 216 220 0 0 231 0 235 237 0 240 0 242 243 0 244 0 245 0 0 0 
0 0 0 129 127 126 0 126 125 123 0 120 0 118 118 119 0 0 0 0 120 119 119 0 0 109 108 0 0 0 116 0 0 112 113 0 114 114 114 114 0 114 0 0 0 0 0 0 114 0 0 113 0 114 122 160 0 0 0 217 217 218 218 219 219 219 0 0 219 219 218 218 218 217 217 0 216 216 0 0 216 0 0 0 0 0 0 0 0 0 156 141 138 0 0 0 0 136 140 160 0 0 0 0 0 207 207 0 207 206 206 206 206 0 206 0 0 205 205 205 205 205 206 0 0 206 0 207 0 207 207 207 207 0 206 0 205 205 0 0 203 0 202 201 0 200 199 199 199 199 199 0 198 198 0 0 0 197 197 0 0 0 0 0 0 0 0 0 195 0 194 0 0 0 194 0 194 193 0 193 193 0 192 192 0 192 0 0 0 190 190 0 188 188 187 187 187 0 186 186 186 187 0 0 0 0 182 181 181 0 173 165 164 164 163 163 165 173 0 183 0 0 0 174 173 172 0 0 0 0 0 0 0 162 0 0 0 156 0 0 0 0 0 161 0 0 162 0 0 161 161 0 0 0 159 159 159 159 159 160 160 161 165 0 0 167 169 0 0 167 166 0 165 164 0 0 0 164 164 164 164 0 0 162 0 161 0 160 159 0 157 0 157 157 0 156 156 155 154 0 154 154 154 153 0 0 152 0 0 149 149 149 0 0 0 148 0 0 0 0 148 0 0 146 0 0 0 0 143 0 143 0 0 0 0 144 144 143 142 142 142 142 143 142 0 146 147 0 0 0 0 0 147 148 150 156 0 0 160 160 0 166 171 177 184 0 192 193 0 194 194 0 194 194 194 0 0 0 0 0 0 195 0 195 0 0 195 195 0 196 196 196 196 196 196 0 0 0 0 197 0 195 0 196 196 0 0 0 0 0 196 197 197 197 197 197 197 197 0 196 0 0 0 172 167 167 169 171 0 174 0 0 0 179 0 180 0 0 0 0 0 0 0 0 179 0 0 171 169 0 0 0 0 0 0 0 0 0 166 165 0 0 159 157 155 0 0 149 0 146 0 142 140 141 0 0 138 136 134 132 131 0 0 0 0 0 129 126 124 0 0 127 0 130 132 0 0 0 131 134 134 132 0 125 123 123 0 0 119 120 122 0 0 0 119 118 0 0 116 117 0 119 121 0 0 0 0 0 0 0 116 0 115 0 115 115 116 0 0 120 0 0 0 129 131 0 0 0 0 131 130 130 0 0 130 129 0 133 0 131 132 0 0 0 131 128 123 121 120 119 119 0 121 0 126 0 129 131 135 140 143 148 0 159 0 0 0 0 185 190 0 0 194 0 0 201 0 0 0 207 209 211 208 212 212 212 215 217 0 0 222 0 222 220 222 0 222 223 0 0 218 0 225 228 230 232 234 236 0 0 0 0 242 0 244 244 244 0 245 245 
131 0 0 0 127 126 0 0 0 122 121 120 0 117 117 118 0 118 119 0 119 0 118 0 0 110 105 109 0 0 116 114 114 114 0 114 114 0 0 0 113 113 0 0 114 114 0 113 113 113 0 113 112 113 115 135 0 0 0 0 0 218 0 219 0 219 219 219 0 219 0 0 218 0 0 216 216 0 215 0 0 0 215 0 214 213 213 0 0 0 0 152 140 138 138 137 136 138 151 0 0 0 0 208 207 207 207 207 207 0 0 0 0 0 0 205 205 205 0 0 205 205 206 0 0 0 0 207 207 207 207 207 207 0 206 206 0 0 205 0 0 203 0 0 201 0 199 199 199 199 199 0 0 0 197 197 197 0 197 0 0 196 0 0 196 196 196 196 196 0 0 195 194 194 194 194 194 194 0 0 0 0 193 0 0 192 0 0 0 0 190 0 189 188 188 0 187 0 187 187 0 0 0 0 188 0 184 182 181 0 0 171 166 165 0 0 161 170 0 0 184 0 181 177 0 0 0 0 167 167 0 0 0 0 0 0 158 158 0 0 160 161 162 0 0 0 0 162 161 161 161 0 160 160 0 159 0 0 0 160 160 162 0 169 0 0 0 169 167 166 165 0 0 164 0 164 0 164 0 0 0 0 162 162 0 160 160 0 159 158 0 0 0 157 0 0 156 0 155 154 153 154 154 0 153 152 152 0 0 0 0 149 148 148 148 148 148 147 148 148 0 0 0 0 0 145 144 143 0 0 0 0 142 143 0 143 143 0 0 141 142 142 0 0 143 145 0 147 146 147 0 0 146 146 148 151 0 0 0 158 162 164 167 174 0 0 0 0 193 0 194 0 194 194 194 0 0 194 194 194 0 194 0 0 194 195 195 0 0 195 0 196 196 196 196 196 196 0 0 196 0 195 195 0 195 0 195 195 196 0 196 0 0 196 196 0 196 196 0 195 195 0 0 181 176 0 0 176 0 0 0 0 179 0 180 179 0 0 178 177 178 0 0 178 179 0 0 170 167 169 0 169 0 0 167 166 167 0 0 0 162 159 0 0 154 0 151 149 147 145 144 0 0 0 0 0 138 136 134 134 133 0 135 0 133 131 0 125 122 124 0 0 0 133 135 0 135 132 133 0 135 131 127 123 122 120 119 119 119 120 121 0 121 0 0 121 0 0 115 114 0 0 120 119 120 0 0 0 0 0 117 0 115 0 117 117 0 0 118 121 0 0 0 0 0 0 133 132 0 0 128 128 0 131 129 128 0 133 0 0 0 0 131 129 129 0 118 119 0 0 116 118 0 125 0 0 130 132 137 143 146 150 0 160 167 0 182 0 0 0 0 196 194 195 0 0 0 0 206 207 0 0 0 0 212 212 0 217 220 0 222 223 0 223 0 0 0 223 0 0 218 0 225 227 229 231 233 0 0 238 0 0 0 0 0 0 244 244 244 244 
128 129 0 0 127 126 126 0 124 122 0 0 118 117 117 0 118 118 117 117 117 0 0 0 115 0 108 107 112 0 0 116 0 115 114 114 114 114 0 0 113 113 114 0 115 113 113 113 0 113 114 114 0 114 114 120 155 0 0 0 0 0 0 0 0 0 219 219 0 219 0 0 218 0 0 216 215 0 215 0 215 0 215 0 213 213 0 213 0 0 0 0 148 139 139 0 139 146 163 0 0 0 0 208 0 207 207 207 207 207 207 207 0 206 0 0 205 205 0 0 205 0 206 206 207 207 207 207 207 207 207 207 207 207 0 206 0 206 205 0 0 203 203 0 201 201 0 200 0 199 199 199 199 0 198 0 0 0 197 196 0 196 0 0 196 196 0 0 196 196 0 0 194 0 194 194 0 0 194 0 193 193 193 0 192 191 191 0 191 190 189 0 189 189 188 0 188 189 189 0 0 0 189 189 0 0 0 182 181 181 0 0 0 0 165 160 155 167 0 0 0 184 182 0 0 170 165 162 161 161 163 165 0 0 0 160 159 159 160 0 0 0 0 0 0 162 161 0 0 0 161 160 160 159 0 0 0 160 160 160 162 165 0 170 170 170 0 0 167 0 165 0 0 163 162 0 0 0 163 163 162 162 162 162 0 161 160 160 0 158 0 157 157 157 0 156 156 0 155 0 154 0 0 0 153 0 152 0 0 149 149 0 148 148 148 148 0 147 0 0 146 146 146 145 145 144 144 143 142 142 142 142 0 142 0 0 0 0 0 142 0 0 0 143 143 145 0 0 0 0 147 0 145 146 0 149 153 0 158 159 0 163 165 0 0 183 0 0 0 0 0 194 0 0 194 194 194 193 193 194 194 194 194 0 194 0 0 195 195 195 0 195 0 0 196 196 196 0 196 196 195 0 195 0 195 195 0 0 195 195 195 0 196 0 0 0 0 195 195 195 195 0 0 0 182 181 0 0 0 0 0 180 180 180 0 0 0 0 176 176 177 178 0 0 0 0 172 169 169 169 169 169 169 0 0 166 0 165 0 0 161 159 0 0 0 152 0 149 147 145 144 143 142 0 140 0 0 135 135 0 0 0 134 134 0 0 0 123 121 124 0 0 0 0 0 0 0 129 134 0 0 0 125 122 0 0 117 116 118 0 0 0 120 121 0 0 0 118 115 113 116 0 0 0 0 118 118 120 0 0 0 116 114 0 0 0 0 118 118 122 0 0 129 133 0 135 0 133 0 0 128 0 0 0 129 0 0 0 0 130 130 129 128 128 0 0 118 118 0 0 117 119 0 0 127 127 0 133 138 0 0 155 0 163 167 0 0 186 0 0 195 0 0 0 199 0 0 0 0 206 207 209 0 0 0 212 214 215 0 0 224 0 223 0 227 0 0 220 220 0 217 0 0 0 0 230 232 234 0 237 0 240 241 0 242 0 0 0 0 0 
0 128 128 126 0 0 125 0 0 121 120 119 117 0 115 0 117 0 0 0 115 116 117 0 0 0 0 108 109 0 0 0 0 0 0 0 0 114 112 113 113 0 114 0 0 0 0 0 0 0 0 0 0 0 114 114 134 0 0 0 0 218 0 0 0 0 0 0 219 219 0 218 0 217 216 0 215 0 0 215 0 215 214 0 214 214 214 213 213 0 0 0 165 144 140 140 142 153 0 0 0 0 0 208 0 207 207 207 207 0 0 0 0 0 206 0 0 0 0 205 205 205 0 0 207 0 207 207 0 207 0 207 207 0 207 0 0 0 206 205 204 0 0 202 0 0 0 0 0 199 199 199 199 0 0 198 198 0 0 197 0 0 0 0 0 196 196 0 196 0 195 195 195 0 0 0 0 194 193 194 194 0 193 0 0 192 0 191 191 0 190 190 190 0 190 0 190 0 0 0 191 0 0 0 0 0 0 0 181 181 0 0 0 0 0 156 150 166 0 0 184 186 0 0 0 164 162 161 161 161 160 162 163 162 161 159 159 0 0 0 0 0 0 0 0 161 160 0 161 0 0 160 0 0 160 160 160 160 160 161 164 0 0 0 0 170 0 0 167 165 165 0 0 163 0 0 162 162 162 0 0 162 0 0 0 0 0 0 159 157 0 157 157 0 156 156 0 0 155 0 0 154 153 153 0 0 0 150 0 149 149 0 0 0 0 0 0 145 145 145 0 145 0 145 145 0 0 0 142 142 141 142 141 141 142 142 142 142 141 0 0 0 142 142 143 0 0 0 0 146 147 147 0 147 0 0 149 0 0 0 0 0 0 167 172 0 0 0 0 193 193 194 0 0 194 0 194 0 0 0 0 194 0 0 0 194 194 195 0 0 0 0 0 195 196 0 196 0 0 0 0 195 194 0 195 195 0 0 0 195 195 195 195 195 195 195 0 194 0 195 195 0 0 191 186 0 0 183 183 182 181 0 181 181 0 0 177 175 175 0 0 177 0 0 0 0 171 170 0 0 169 0 169 167 167 166 0 0 0 161 160 0 156 0 153 151 0 0 147 145 144 0 142 0 139 138 137 136 134 0 0 0 133 0 0 0 123 121 123 0 0 122 123 128 0 0 0 132 0 0 0 130 125 121 0 117 113 115 0 0 0 120 0 0 0 121 0 117 115 112 113 0 118 118 117 115 115 117 118 117 0 0 114 0 116 119 0 118 119 124 0 129 129 133 136 0 0 132 0 131 0 0 128 128 128 0 0 0 128 126 127 127 0 127 0 0 120 118 119 0 118 120 123 0 126 127 129 132 140 0 0 0 0 164 0 0 0 0 190 190 189 0 0 0 0 199 0 202 203 206 0 206 205 206 207 214 0 216 217 0 0 0 221 223 227 0 0 219 220 0 218 0 226 227 0 229 231 233 0 0 238 0 240 0 241 0 242 0 243 243 
0 0 127 0 0 124 124 123 121 0 0 118 0 0 116 0 116 116 117 116 115 115 116 116 0 0 112 107 105 0 0 0 0 115 114 0 0 0 0 0 0 0 0 0 114 114 113 0 111 112 113 112 112 112 113 112 119 155 0 0 0 217 218 219 219 0 220 0 0 219 0 218 217 0 216 0 0 0 0 0 0 215 215 0 0 0 0 0 0 0 0 0 0 154 140 140 146 161 0 0 0 0 0 0 0 207 207 207 207 0 206 0 206 0 206 205 205 206 0 205 205 0 206 0 207 207 207 0 0 207 0 207 207 207 207 0 0 0 0 0 204 203 0 202 0 201 0 200 199 0 0 199 199 0 0 198 198 198 0 0 197 0 197 197 196 196 196 196 196 0 195 0 0 195 195 0 0 194 194 0 0 0 193 193 193 193 0 192 0 191 0 0 0 0 191 191 191 0 0 192 191 190 0 0 0 0 188 0 182 181 181 182 0 0 0 153 150 0 0 0 181 0 0 0 167 162 162 161 0 0 161 160 161 0 160 159 159 0 161 162 0 0 162 162 0 161 0 0 161 0 160 160 0 0 0 0 160 160 160 163 167 0 0 0 171 0 0 0 0 0 165 165 0 163 0 162 162 162 162 161 162 0 0 161 161 161 0 0 159 158 0 157 0 0 155 0 155 155 155 0 0 154 153 0 153 152 0 150 150 0 0 148 148 0 147 147 0 0 0 145 145 144 0 0 0 0 144 0 0 142 0 0 0 141 0 141 0 0 141 141 141 140 140 141 142 143 0 145 146 0 147 0 0 0 145 142 144 149 154 0 0 158 158 163 0 0 182 0 0 0 0 193 194 194 194 0 0 0 193 193 193 194 0 194 0 194 0 195 0 0 195 0 195 0 196 0 196 0 196 0 0 195 0 195 0 195 195 0 0 195 0 0 0 0 194 195 0 194 0 195 196 0 0 0 190 189 189 188 186 184 183 0 0 0 0 179 177 175 174 176 176 176 177 0 0 173 171 0 0 170 0 0 0 0 0 0 165 164 0 161 0 157 155 0 152 150 149 148 0 0 143 143 142 141 139 0 0 136 134 135 0 135 133 0 0 126 120 0 0 0 123 118 117 120 122 126 0 0 0 0 0 127 124 121 117 116 114 113 113 115 116 118 0 0 120 120 119 0 0 113 113 0 0 117 0 114 114 0 0 116 114 113 0 0 118 0 119 118 120 0 0 129 130 0 0 0 132 129 130 130 0 0 125 125 128 0 0 126 125 125 124 125 0 0 0 0 119 117 119 0 118 120 0 0 127 0 130 134 0 0 0 160 163 165 0 0 182 185 0 0 188 190 193 196 196 192 195 199 0 0 0 0 0 0 212 0 0 0 219 222 225 0 223 224 225 0 0 220 220 0 218 0 0 225 0 229 230 0 234 236 237 238 239 0 240 0 0 0 242 0 
0 0 127 126 0 124 123 0 0 120 0 117 117 116 115 115 114 0 0 0 116 115 0 0 0 0 0 0 104 106 111 0 0 114 112 111 112 112 113 0 113 111 112 112 112 112 111 111 111 0 0 111 111 0 112 113 113 132 0 0 0 0 218 218 219 0 0 0 0 219 0 217 217 216 216 216 216 0 0 215 215 215 0 215 215 0 214 0 214 0 0 0 0 169 144 141 151 0 0 0 0 0 0 208 0 207 207 207 207 0 206 206 206 205 0 0 0 0 0 205 205 0 206 0 0 0 207 0 207 0 207 207 207 0 0 0 206 206 0 0 204 204 0 203 202 201 0 200 0 0 199 199 199 0 198 0 198 198 0 197 196 0 197 0 0 196 196 196 196 0 195 195 195 0 195 0 195 194 0 0 194 0 193 0 0 0 193 0 0 191 190 0 0 0 0 0 191 0 0 192 0 191 191 0 191 190 0 0 184 182 181 0 0 0 156 148 151 0 0 0 177 0 0 173 164 163 162 162 0 0 0 160 160 160 159 159 159 0 0 162 0 0 162 161 0 0 0 0 161 160 160 0 159 159 159 160 160 161 163 0 0 0 172 171 171 170 0 167 166 0 165 0 164 163 0 162 162 162 0 0 0 161 0 0 160 0 160 159 159 0 157 0 156 0 0 0 155 155 155 154 154 154 0 153 0 152 151 151 150 0 149 148 0 147 0 0 146 145 145 145 144 0 0 144 144 0 143 0 0 141 141 141 141 140 0 139 0 141 140 140 140 139 140 0 142 0 0 144 0 0 147 147 0 146 144 142 143 146 149 155 0 152 152 158 165 172 179 185 0 0 0 0 193 194 194 193 193 193 193 193 0 0 0 194 0 194 0 195 0 195 195 195 195 195 0 0 196 0 195 195 195 195 0 194 0 195 0 195 0 194 194 194 194 0 0 0 0 194 0 196 0 0 194 193 0 0 0 0 0 188 0 0 184 0 0 0 0 176 175 176 0 0 0 0 0 172 171 171 0 170 0 169 169 0 167 0 0 0 161 0 0 0 154 152 151 150 0 0 146 145 144 0 0 0 0 137 0 136 134 136 0 136 134 0 131 127 123 0 0 0 123 121 117 116 116 117 120 124 0 0 128 125 0 0 117 115 0 0 0 114 115 117 0 0 119 0 119 0 0 0 112 113 115 0 0 114 113 115 0 115 0 112 115 117 0 0 121 119 121 0 0 0 0 0 0 130 128 127 129 0 0 124 123 125 0 0 0 121 0 0 123 123 0 0 126 0 120 117 0 0 117 119 0 0 128 0 131 136 143 149 0 161 164 167 174 0 0 185 189 0 193 193 0 0 0 192 196 0 199 199 207 0 0 0 0 0 217 216 0 222 227 0 0 224 223 0 0 224 0 0 221 0 0 224 0 0 229 230 233 0 0 236 0 0 0 240 240 0 241 241 
0 0 127 126 125 124 123 120 119 120 0 0 0 116 115 114 114 115 0 0 0 116 0 116 116 0 0 0 107 104 109 0 0 112 111 111 0 112 0 0 112 111 111 0 0 0 111 110 111 111 111 110 111 0 0 0 111 117 152 0 0 0 0 0 0 219 219 219 0 218 0 217 0 0 216 216 0 0 215 0 214 214 0 214 0 0 214 214 0 0 0 0 0 0 154 144 159 0 0 196 0 0 0 208 0 0 207 207 207 0 206 0 0 0 206 206 206 0 0 0 0 0 206 206 206 0 207 207 207 0 207 207 0 0 206 0 206 205 205 205 0 204 0 0 0 201 0 0 199 199 199 199 199 0 198 198 198 0 0 197 197 0 197 197 0 196 196 196 0 0 196 0 195 0 195 195 195 0 0 0 194 194 0 0 193 193 193 0 0 191 190 190 190 191 0 0 0 191 192 192 0 191 191 0 191 0 0 0 185 183 181 0 0 159 149 147 150 0 0 0 173 173 169 165 164 0 0 162 162 161 161 0 160 0 159 0 0 160 161 162 0 0 162 0 161 161 0 161 0 160 159 0 159 159 0 160 160 162 167 0 0 0 172 0 171 0 0 167 0 165 165 0 0 163 0 162 0 0 0 0 161 160 160 160 160 0 160 0 0 158 157 0 156 156 156 0 0 155 0 0 0 154 0 153 0 0 0 0 0 0 149 0 0 147 146 146 146 145 145 0 144 144 143 0 143 143 142 0 0 141 141 141 0 0 0 140 0 140 140 0 0 140 140 141 142 142 143 144 0 0 147 146 146 146 0 0 0 146 147 0 0 153 150 154 162 0 176 182 0 0 193 0 0 0 0 0 0 0 0 0 193 194 0 0 0 195 0 0 0 194 0 195 195 0 195 195 0 195 195 195 0 0 0 194 0 0 0 194 194 0 0 193 0 194 0 195 195 195 0 196 0 195 192 193 0 0 0 0 0 0 0 0 0 182 0 179 178 177 177 177 0 0 0 0 0 172 0 171 0 0 0 169 169 0 167 0 0 0 0 160 0 157 0 153 0 150 0 147 0 0 144 142 0 0 139 137 0 0 134 0 0 137 136 0 131 128 128 0 0 0 126 0 121 0 115 114 115 116 116 118 121 120 120 0 116 114 113 114 0 0 116 0 0 119 118 117 119 0 0 0 112 112 0 0 114 112 113 0 116 115 112 114 116 0 0 0 0 120 122 0 0 0 130 0 128 126 0 0 0 0 126 121 0 0 0 0 121 121 0 123 122 122 0 0 0 122 0 117 0 0 117 118 122 0 0 132 134 139 0 154 0 160 165 0 0 177 0 0 187 0 0 0 194 193 0 0 0 199 200 200 0 0 211 207 210 0 213 212 217 0 0 0 226 225 225 225 225 225 0 0 219 0 0 222 0 0 227 229 0 0 0 235 236 0 0 239 0 0 240 240 
128 128 127 0 0 0 0 0 121 120 119 119 0 0 116 115 115 115 115 0 116 116 115 115 0 0 0 0 0 105 106 0 0 111 0 111 0 0 112 0 111 0 0 0 0 0 0 0 111 0 0 0 111 111 0 111 110 112 131 0 0 0 0 0 218 0 218 0 218 0 217 216 216 0 0 0 0 0 214 213 213 213 214 0 213 0 0 0 0 213 212 0 0 0 171 158 173 0 0 200 0 0 0 208 0 0 207 207 207 0 206 0 0 0 206 206 0 205 205 0 0 205 0 206 0 0 207 207 207 207 207 0 0 206 206 206 0 205 0 204 0 0 0 202 0 201 201 0 200 199 0 0 0 0 0 0 198 198 0 0 197 197 197 0 196 0 0 196 196 0 0 0 195 195 0 195 195 0 194 0 0 0 194 193 192 193 193 192 191 0 190 0 190 0 0 190 0 0 0 192 192 0 191 0 191 0 190 0 0 0 181 0 0 153 146 143 147 0 0 0 174 169 166 165 0 163 163 0 0 0 0 161 0 160 159 159 0 0 0 0 0 161 0 0 0 160 160 160 0 159 159 0 0 159 159 160 162 165 0 0 0 0 173 172 0 0 169 167 0 0 164 164 0 163 162 161 161 0 0 161 161 0 0 0 0 160 0 0 158 0 0 0 156 156 156 0 155 0 0 155 154 154 153 153 0 152 0 151 0 0 149 0 147 147 0 0 146 0 0 145 144 143 143 0 143 0 142 0 142 0 141 141 0 0 0 140 140 0 140 0 0 140 140 0 0 0 142 0 145 146 0 147 0 0 0 0 145 0 147 149 151 0 0 155 160 0 174 179 185 0 0 193 193 193 193 193 0 0 194 0 193 193 194 194 0 0 194 194 194 194 194 195 0 0 195 195 0 195 0 0 0 194 0 194 194 0 194 0 0 194 0 193 194 194 0 195 195 0 195 0 0 0 192 0 0 0 0 0 0 191 0 0 184 181 0 179 179 0 0 0 0 0 176 0 0 171 171 0 0 0 169 0 0 0 166 164 162 0 0 158 0 0 0 0 0 150 0 146 145 0 0 143 142 0 139 0 0 0 134 0 136 139 0 136 132 131 0 0 0 127 0 0 125 119 117 115 113 111 114 115 118 0 119 0 116 114 0 114 114 114 115 0 118 119 119 119 0 0 0 0 112 111 0 0 0 111 113 0 0 0 115 0 116 0 121 0 0 0 126 124 124 125 0 0 127 125 0 0 0 127 0 123 0 0 120 119 120 120 0 0 0 123 124 124 0 122 120 118 0 0 118 0 120 123 0 0 137 141 0 0 0 161 167 0 176 173 177 181 183 189 0 0 195 192 194 194 199 201 0 204 207 0 209 207 208 0 0 216 218 220 0 0 223 0 0 0 225 224 0 220 215 0 0 222 224 0 226 227 229 0 0 234 235 236 237 0 238 0 0 239 
0 0 0 0 0 124 0 0 0 119 119 118 118 0 116 0 0 115 0 0 0 0 116 115 115 116 115 0 110 107 104 108 0 0 0 0 111 0 112 0 112 111 111 111 113 113 0 0 111 110 110 0 111 111 0 111 111 111 118 155 0 0 0 217 0 218 0 0 0 217 0 0 0 0 0 214 214 0 0 213 213 0 0 0 212 213 213 213 212 0 213 0 0 0 188 178 186 0 0 202 0 0 0 208 0 207 207 207 0 0 0 0 206 205 0 205 0 0 205 0 205 205 206 0 207 207 207 207 207 207 207 0 206 206 205 205 0 204 204 203 203 203 202 201 0 0 0 200 0 0 0 0 199 0 198 198 198 198 198 197 0 0 197 0 0 0 196 196 196 0 196 195 0 195 0 195 195 0 0 194 194 0 194 193 0 0 193 0 192 192 0 191 191 0 190 190 0 190 191 0 0 0 191 191 0 191 190 0 0 184 181 0 0 153 143 140 145 0 0 0 172 167 166 165 164 0 0 0 163 0 0 0 0 160 0 159 0 160 0 160 160 159 160 160 160 0 159 159 159 159 0 158 158 159 160 162 165 0 0 0 174 0 0 172 171 0 0 167 0 0 164 163 0 163 162 161 161 161 161 161 0 0 0 0 160 0 159 158 157 0 157 157 0 156 0 0 155 155 0 0 154 154 0 153 0 152 0 151 150 0 149 0 148 0 147 147 146 146 0 145 144 0 0 0 143 143 0 0 142 142 0 0 141 141 140 139 140 0 140 140 0 139 0 141 0 0 140 143 0 146 0 0 0 0 0 144 144 0 145 147 149 0 0 0 157 0 0 178 184 0 0 192 192 192 0 192 193 0 0 0 193 0 0 193 194 0 194 0 194 194 194 195 0 0 195 195 0 0 194 194 194 0 0 194 193 0 194 0 0 193 0 194 0 0 0 0 195 0 194 0 0 191 190 0 0 0 194 193 0 0 0 0 182 181 0 179 180 0 0 0 0 0 175 173 171 171 170 170 170 169 167 0 0 0 165 163 160 159 158 157 156 154 153 152 0 0 147 145 144 144 0 0 142 0 138 0 137 0 134 0 136 0 0 0 131 132 0 0 129 124 126 0 0 0 0 0 0 115 116 117 118 0 120 0 0 113 113 0 0 113 115 0 0 119 0 0 0 0 0 0 112 110 112 0 111 112 0 0 0 116 0 0 114 115 117 119 0 0 0 128 126 124 0 0 0 126 0 0 0 0 0 121 119 118 117 119 0 119 119 0 0 124 0 124 0 0 119 0 0 117 118 118 118 121 128 0 0 145 151 0 0 0 173 0 172 177 180 183 188 0 192 194 0 0 0 202 0 0 0 208 209 0 0 0 210 0 0 217 0 220 0 0 223 226 0 0 0 222 0 216 213 216 0 222 223 0 226 226 227 0 0 0 0 0 235 236 236 237 0 0 
127 0 126 125 124 123 122 0 0 0 119 118 0 117 116 116 0 115 0 116 116 0 0 0 116 0 116 0 0 0 104 105 0 0 112 112 111 0 112 0 112 0 0 0 0 0 112 111 0 110 110 111 0 0 0 0 0 110 111 134 0 0 0 217 217 0 0 217 216 0 0 0 214 213 213 213 0 212 0 212 213 213 0 213 213 213 213 213 213 0 214 0 0 0 0 195 0 0 0 204 0 0 209 208 0 0 207 207 0 206 206 206 206 0 0 205 205 205 205 0 0 0 206 0 0 0 0 0 208 0 207 207 0 206 205 0 205 204 204 0 0 203 0 202 201 201 200 199 0 0 200 0 199 0 198 0 0 0 0 197 0 0 197 0 197 0 196 196 196 196 196 0 195 195 0 0 0 194 0 0 0 0 194 193 0 193 193 0 0 0 0 0 191 0 189 189 189 189 189 0 0 191 191 0 0 191 0 0 188 0 182 0 0 159 143 139 145 0 0 176 171 166 165 0 164 0 163 0 0 162 161 161 161 0 0 159 159 0 160 160 0 0 159 159 159 159 158 158 0 0 158 158 158 160 162 166 0 0 0 175 174 0 0 171 170 0 167 0 166 0 0 162 163 0 162 161 0 0 0 0 0 160 160 160 160 0 159 158 158 158 0 157 0 156 155 155 154 154 0 154 154 0 0 153 152 0 151 0 0 149 149 148 148 148 148 0 147 0 0 145 144 144 144 0 0 0 0 142 0 0 142 141 0 140 0 0 0 140 140 0 139 139 139 140 0 0 140 0 0 0 145 145 0 0 0 144 143 144 145 146 147 0 150 152 156 0 0 179 181 0 0 0 191 191 192 192 0 193 193 0 193 193 0 0 194 194 194 0 194 194 0 195 195 195 195 0 194 194 194 194 194 194 0 194 193 193 194 194 0 193 0 0 194 0 0 0 194 0 193 0 0 189 190 0 0 0 0 0 0 187 185 184 182 181 180 0 0 0 0 0 177 175 0 171 170 0 0 0 0 169 0 0 167 0 164 0 160 0 157 155 0 0 0 151 0 148 146 145 144 143 143 0 0 0 0 136 135 134 135 0 138 0 0 0 134 131 0 0 128 123 124 125 124 0 0 0 0 0 0 120 120 0 0 0 0 114 113 113 112 113 0 115 116 120 0 0 121 120 0 0 112 109 0 0 110 112 0 0 0 0 114 0 113 113 0 119 0 0 0 0 127 124 125 124 125 124 0 123 118 117 120 118 118 119 118 120 0 119 118 121 0 123 0 0 0 123 120 0 117 116 0 118 118 122 128 136 0 150 0 0 166 0 0 0 180 0 184 184 0 0 193 192 0 0 0 207 0 0 0 210 0 0 0 0 212 0 216 216 216 0 0 0 226 227 229 0 225 220 0 220 214 216 0 222 221 0 0 227 227 0 229 231 232 0 234 0 235 236 236 236 
0 126 125 0 0 122 121 0 122 0 120 118 117 116 116 116 0 0 115 115 116 0 0 115 0 0 0 0 0 0 106 102 107 0 0 112 0 0 112 112 112 111 111 112 0 0 111 111 110 0 0 111 0 0 0 111 0 109 109 119 159 0 0 0 0 0 216 216 0 214 213 0 213 212 212 212 212 212 212 213 213 213 0 213 213 214 214 0 215 215 0 214 0 0 0 0 0 0 0 205 207 0 0 0 208 207 207 207 0 206 206 0 206 206 0 205 205 205 205 0 0 206 206 207 0 208 208 0 0 0 208 0 207 0 0 0 0 0 204 204 203 0 0 0 201 201 0 0 0 200 199 199 199 0 0 0 0 0 0 198 0 0 197 196 197 0 0 0 196 196 0 0 195 195 0 195 0 194 194 0 195 0 194 193 193 193 193 193 192 0 192 192 0 191 0 189 189 0 189 0 190 191 0 191 0 0 0 0 0 0 0 181 0 0 148 144 151 0 0 174 170 166 165 164 0 163 163 0 162 162 162 161 0 0 0 159 159 159 0 0 0 159 158 0 0 0 158 0 0 0 0 159 159 162 167 0 0 0 0 175 0 0 172 0 0 0 166 0 165 164 163 0 0 162 0 0 161 0 0 160 160 160 0 160 0 0 0 0 0 0 0 157 156 0 156 155 155 0 154 154 0 154 0 152 152 152 152 151 0 150 0 149 149 0 0 0 147 0 146 145 144 0 144 143 143 0 0 143 0 0 141 0 0 139 139 140 140 140 139 0 139 0 139 0 0 0 0 141 142 143 142 143 0 144 0 143 143 144 0 146 147 0 148 149 154 0 0 0 179 185 0 0 192 191 0 0 0 0 0 193 193 0 194 194 194 194 0 194 0 0 0 195 195 195 0 0 194 0 0 0 0 0 194 0 0 194 0 194 0 193 192 0 194 194 194 194 193 192 192 0 0 187 0 0 0 0 0 0 0 0 0 182 0 181 0 0 0 0 0 0 175 173 172 171 0 0 0 0 169 169 0 167 166 164 0 0 160 158 0 154 153 0 151 150 149 0 146 0 0 0 142 0 0 0 0 134 133 133 0 0 139 141 0 0 135 132 0 0 128 124 125 0 124 122 120 118 120 0 0 0 0 0 0 0 116 0 0 113 112 113 0 115 115 0 0 123 121 119 0 0 111 108 0 111 109 112 0 0 0 115 113 0 113 114 0 0 0 0 128 0 0 0 0 126 125 124 0 119 115 116 0 120 0 0 0 0 0 0 121 121 0 124 0 126 0 124 0 0 116 116 0 0 119 123 130 0 146 154 0 165 167 0 0 183 185 186 0 190 188 0 198 192 194 200 0 0 0 0 210 208 210 207 209 211 214 0 0 0 215 0 0 226 227 0 0 0 224 222 0 0 218 217 0 0 221 224 0 227 227 228 229 230 0 232 0 234 0 235 0 235 
0 0 0 0 0 0 120 121 0 121 0 119 117 0 0 116 116 115 114 114 0 0 0 115 115 115 115 0 0 0 0 105 105 0 0 0 0 111 0 0 0 0 0 0 112 111 112 0 111 109 0 0 0 111 111 110 110 110 111 113 137 0 0 0 0 216 216 0 215 213 212 0 212 212 212 212 212 212 213 0 0 0 0 214 214 0 0 0 0 216 0 0 0 0 209 207 0 0 0 206 207 0 0 0 208 0 207 0 207 0 0 0 0 206 0 0 0 0 205 205 0 206 206 207 0 208 0 209 209 209 0 208 208 0 207 0 205 205 0 0 203 202 202 202 0 0 0 201 0 200 0 199 199 199 199 0 198 198 198 198 197 197 197 197 197 197 0 0 196 195 196 195 195 0 0 195 0 194 194 0 0 0 194 194 0 0 0 0 192 0 0 0 0 191 0 0 188 0 188 188 189 190 0 0 0 191 190 190 0 0 0 182 0 0 156 150 157 0 0 172 0 0 164 163 163 0 163 162 162 0 0 0 0 160 0 159 0 159 0 159 0 158 158 0 158 158 158 0 0 158 159 160 161 167 0 0 0 0 0 174 173 0 170 170 0 0 165 0 164 163 0 162 161 161 0 161 0 160 160 0 0 159 0 0 0 159 158 158 158 0 157 157 0 0 156 0 0 0 154 0 154 0 153 152 0 0 0 0 151 0 150 0 0 149 148 0 147 0 0 0 145 0 144 0 0 0 0 0 0 142 141 141 0 0 139 0 0 0 139 0 0 0 139 139 0 139 0 140 140 0 0 142 142 0 0 142 142 143 0 145 146 0 0 148 151 156 163 169 175 183 0 0 0 191 0 0 192 191 192 0 193 0 0 194 0 0 0 194 194 0 0 0 0 195 0 194 0 193 193 0 193 0 193 0 0 194 0 0 193 193 193 0 0 193 0 0 0 192 191 0 187 184 185 0 0 186 186 185 0 0 182 181 181 181 181 0 0 0 177 175 0 172 0 170 0 0 0 167 0 0 167 166 165 0 162 0 0 158 0 0 153 0 0 0 0 0 146 145 144 0 142 0 0 0 135 133 133 134 0 0 139 139 0 0 135 136 0 133 130 0 0 124 124 124 0 121 122 121 124 0 0 0 117 115 115 0 112 0 114 113 115 115 117 0 0 0 121 118 117 0 112 110 0 110 110 113 0 0 115 114 113 0 0 112 114 117 0 0 122 126 0 0 0 0 0 0 122 119 0 0 120 120 0 121 0 121 121 0 0 124 124 125 0 125 124 124 0 0 117 117 0 118 119 124 131 0 146 154 0 0 0 0 0 184 191 0 0 194 193 0 0 199 195 192 190 195 0 0 0 210 0 212 0 0 216 218 0 0 213 218 220 224 0 0 227 227 225 224 0 0 220 218 0 0 220 224 0 227 227 228 229 230 231 232 233 0 234 0 235 235 
124 0 0 121 121 0 0 0 0 0 0 0 0 117 116 116 0 0 115 0 114 114 0 0 0 0 0 114 114 0 0 106 103 106 0 0 110 109 0 0 111 111 0 111 0 0 0 0 0 111 111 111 0 112 111 0 0 0 0 111 122 0 0 0 0 217 216 216 215 214 213 213 213 0 213 0 214 214 0 0 0 215 214 215 0 216 216 0 217 0 216 0 0 0 210 207 0 0 0 206 207 0 208 208 208 0 207 0 207 0 0 206 0 0 205 0 0 205 205 0 0 206 0 0 0 208 0 209 0 0 209 0 0 208 207 206 205 205 0 204 0 203 202 202 202 202 0 0 201 200 0 0 199 199 199 0 198 198 198 198 198 0 0 0 197 197 196 196 196 196 0 196 196 0 195 195 0 0 194 0 194 0 0 194 0 0 193 193 193 192 192 191 191 190 190 189 189 188 188 188 188 188 0 191 0 191 0 0 0 188 186 183 0 0 163 155 162 0 0 170 167 165 0 164 0 163 163 163 163 164 0 0 161 159 159 158 158 0 0 157 158 0 157 0 157 157 158 158 158 159 160 163 0 0 0 0 0 175 0 173 172 171 170 0 167 166 0 0 0 0 0 161 0 0 0 0 0 159 159 159 0 0 159 0 159 158 158 0 0 157 0 156 0 157 157 0 0 0 154 154 0 153 153 0 0 152 151 0 151 0 150 150 0 148 148 147 147 0 146 0 145 144 144 144 144 143 143 0 142 142 0 141 0 140 139 140 140 0 140 140 140 140 139 139 139 138 139 0 139 0 0 142 141 142 0 141 140 142 0 0 145 146 0 147 148 151 159 166 174 181 0 0 0 192 191 0 191 0 192 192 193 0 193 194 0 0 194 0 193 194 0 194 0 0 0 0 193 193 0 0 193 193 193 0 0 193 193 193 192 0 0 193 193 193 0 193 192 192 0 0 185 181 181 0 182 0 182 182 0 181 180 0 0 0 0 0 0 176 0 0 0 0 0 167 167 0 0 166 166 0 166 0 0 0 0 0 0 0 0 0 152 0 150 149 0 0 145 0 0 0 0 139 0 0 134 132 132 0 0 0 0 137 0 0 139 139 0 134 131 0 127 126 125 0 0 0 0 123 124 122 120 118 117 115 114 0 111 0 0 116 0 0 119 121 0 0 121 118 0 0 0 0 0 109 0 0 0 0 112 0 114 0 114 111 113 115 117 118 118 0 0 0 0 126 123 123 0 0 0 0 122 123 0 123 0 122 122 124 0 125 126 127 0 126 124 121 0 0 117 117 0 117 120 126 132 138 147 0 157 169 0 0 0 192 0 0 0 199 199 0 0 207 0 0 198 192 197 204 0 0 209 213 0 0 219 218 220 0 217 0 220 224 0 0 0 0 224 221 0 0 219 217 219 0 222 224 0 228 230 230 230 229 0 0 232 0 234 0 0 0 
0 0 0 121 120 119 119 117 117 118 0 0 0 0 0 0 0 0 0 114 113 114 0 0 115 114 114 0 0 113 0 0 103 104 0 0 110 109 0 110 0 0 0 110 111 0 112 112 0 111 111 0 0 0 112 111 110 111 0 110 113 140 0 0 0 0 217 0 216 0 0 214 214 214 214 0 0 0 0 216 216 216 0 0 216 0 0 0 217 0 217 216 215 0 0 208 204 0 0 0 0 0 0 0 0 0 207 0 206 0 206 206 0 206 205 205 205 205 205 205 206 0 207 208 0 209 209 0 0 0 0 209 0 208 0 0 0 0 205 204 0 204 0 203 0 201 202 0 201 0 199 0 199 199 199 0 198 198 198 0 0 198 0 0 0 0 0 196 0 0 196 0 0 0 0 0 0 195 0 0 0 0 0 0 0 194 192 193 0 0 192 0 0 0 190 0 0 188 188 0 0 187 188 0 0 0 0 190 0 0 0 0 181 0 0 159 166 0 0 169 166 165 0 164 164 163 0 164 165 0 0 163 161 0 159 158 0 0 157 157 0 0 156 156 157 0 0 158 159 160 164 0 0 0 0 176 175 174 174 173 172 0 169 167 0 0 0 0 0 159 0 0 0 0 0 0 0 159 158 159 0 159 0 0 0 158 157 0 157 157 0 156 0 157 0 157 0 156 0 154 153 153 0 152 152 0 0 0 151 0 150 150 0 149 0 148 0 147 145 145 145 0 0 0 144 0 143 0 142 0 142 0 141 140 140 0 140 140 0 0 0 0 140 0 0 0 138 0 138 140 141 0 0 0 0 0 140 141 0 143 143 144 0 0 148 149 156 0 0 0 187 0 0 194 192 0 191 192 0 0 193 193 193 193 194 0 194 0 0 0 194 193 0 0 193 0 193 193 0 0 193 0 193 0 193 0 0 192 192 0 0 192 192 0 0 192 0 192 0 0 185 179 179 0 179 0 0 0 0 0 178 179 0 0 0 0 0 173 171 0 167 166 165 166 166 167 167 166 165 164 164 0 0 162 160 159 0 0 0 0 151 149 0 148 0 145 144 0 0 0 139 137 0 134 132 132 132 133 0 0 135 136 0 0 0 140 0 0 132 0 128 126 127 0 0 128 0 126 0 0 0 0 116 115 114 0 112 0 0 120 0 120 121 123 0 0 119 116 0 0 111 0 108 108 0 0 0 112 112 0 0 115 0 0 114 116 117 115 116 0 122 124 125 0 122 123 123 123 123 0 124 125 0 0 122 0 124 125 0 0 0 128 0 0 0 121 0 121 115 116 117 118 0 0 132 139 0 0 159 169 0 187 0 0 0 0 0 203 201 0 0 212 0 0 0 207 0 204 202 209 0 214 0 0 0 0 222 0 221 220 222 0 0 0 0 0 221 218 0 0 216 217 216 221 0 225 0 0 0 0 0 229 230 231 232 0 0 0 234 0 
122 0 0 0 0 0 118 0 117 116 117 117 117 115 114 114 114 114 0 0 114 113 114 0 114 114 0 114 114 0 0 0 104 102 106 0 0 0 108 109 109 109 110 110 110 0 111 0 0 110 0 111 0 0 0 0 0 0 0 110 110 123 0 0 0 0 217 217 217 216 0 216 216 216 216 216 216 216 0 216 216 0 0 216 216 217 217 217 0 0 0 0 0 214 212 0 202 192 193 0 0 0 207 207 0 0 207 0 206 0 0 0 206 0 205 0 0 205 205 205 0 0 207 208 0 0 0 210 210 210 0 0 209 0 208 207 207 0 0 205 0 0 204 0 0 203 0 202 200 0 200 199 199 199 199 0 0 0 198 198 0 0 197 197 0 0 0 0 0 0 196 196 195 0 0 195 195 195 195 195 0 194 194 194 0 194 0 0 0 192 192 192 0 191 190 0 189 0 188 0 187 0 187 188 189 0 0 0 190 189 0 0 0 0 0 164 0 0 171 0 166 165 0 0 0 164 0 0 0 0 0 162 160 0 159 158 157 157 0 0 0 0 0 156 0 157 158 159 161 166 0 0 0 0 177 176 175 174 174 0 172 0 0 0 0 160 158 156 156 156 156 157 0 158 158 159 159 159 0 0 0 158 0 157 158 0 0 0 0 157 0 0 0 156 0 156 0 0 0 0 154 0 153 152 0 151 0 151 0 151 150 150 0 149 0 148 148 0 0 0 145 0 144 144 0 0 0 0 142 142 0 0 0 0 0 140 140 0 0 140 0 0 140 140 0 140 139 139 139 0 0 0 0 0 0 0 141 141 141 141 142 143 0 0 146 148 153 0 0 177 185 0 0 0 192 191 191 192 0 193 0 192 193 0 0 0 0 193 193 0 0 0 193 193 193 0 0 0 192 192 192 0 0 0 0 192 192 192 191 0 192 192 192 0 0 191 191 0 192 0 0 177 176 176 0 0 0 176 177 0 0 0 0 176 175 0 0 0 167 165 164 164 165 0 0 165 0 0 0 163 162 0 0 0 158 157 156 0 153 151 0 148 0 0 145 0 0 141 139 138 0 136 134 133 132 130 132 133 136 0 134 135 136 136 0 140 0 0 131 130 0 0 129 0 0 0 0 0 0 0 118 116 115 0 114 114 115 0 0 0 122 121 0 0 0 0 118 114 0 112 0 108 106 108 111 114 114 111 0 0 0 114 0 0 0 0 118 0 0 120 120 122 0 0 0 0 0 122 122 121 0 0 0 125 124 0 0 126 127 0 0 127 0 0 126 122 0 120 114 115 117 119 0 126 134 0 148 0 159 169 0 0 0 0 0 0 0 0 203 0 0 215 0 0 0 0 0 0 0 211 0 0 215 210 216 0 0 0 0 0 222 225 0 0 226 0 220 218 0 0 216 0 221 221 0 224 227 231 0 0 0 231 229 0 231 0 232 233 0 234 
120 120 119 120 0 0 118 0 116 0 115 116 116 0 0 114 0 0 114 0 0 114 0 0 114 114 0 0 114 0 112 0 106 102 105 0 0 109 108 0 0 0 110 0 109 110 109 110 110 109 109 110 110 110 110 111 110 110 0 0 109 112 141 0 0 0 0 0 0 217 0 218 0 0 0 217 217 0 0 218 218 218 217 0 0 218 0 219 0 219 0 0 216 214 213 0 0 185 175 0 0 0 207 207 207 207 207 0 206 0 206 0 206 206 0 0 0 205 0 205 205 0 207 208 209 0 210 0 210 210 210 210 0 0 208 0 207 207 0 206 0 205 205 204 204 204 0 0 201 200 200 0 199 199 199 199 199 0 198 198 0 0 0 197 197 0 196 196 0 0 0 195 195 0 0 0 195 195 195 195 0 0 194 194 194 0 0 0 193 192 0 0 0 0 190 0 189 188 188 0 0 187 186 186 187 0 0 0 190 0 188 185 0 179 0 0 0 0 170 0 166 165 0 0 0 164 165 167 0 0 164 162 0 160 0 0 157 156 156 156 156 156 156 0 0 156 158 162 0 0 0 0 0 0 178 0 175 175 0 173 0 0 0 0 159 156 155 0 154 154 154 154 154 155 0 0 0 0 0 158 158 158 0 0 0 157 0 157 157 0 156 156 0 0 0 156 156 156 0 155 0 154 153 0 151 151 0 151 151 0 0 150 0 149 0 0 148 0 0 0 145 0 144 144 144 143 0 143 142 141 141 141 140 140 140 140 140 0 140 0 0 0 140 140 0 0 0 0 139 139 140 141 141 0 0 0 144 0 0 142 0 143 144 0 145 146 150 157 165 174 183 0 0 0 195 190 191 192 0 193 193 193 193 0 0 193 193 0 193 193 193 0 0 192 0 0 192 0 192 191 192 0 192 192 0 192 192 0 191 191 0 0 192 192 191 0 191 0 0 0 0 177 172 172 0 172 0 0 0 174 0 0 173 0 0 169 167 166 0 164 163 0 0 0 163 164 164 0 164 0 160 159 0 0 157 0 0 0 0 0 147 146 145 144 143 0 0 139 137 136 135 0 0 0 0 131 132 133 0 0 135 133 0 133 0 0 0 0 0 129 130 0 129 130 0 0 0 123 122 119 116 115 0 0 114 0 0 0 0 125 0 123 0 122 0 0 0 114 0 0 107 106 0 109 111 0 0 113 113 0 115 114 115 116 0 119 120 0 0 120 119 0 121 119 119 121 0 0 123 121 122 0 0 125 126 0 0 126 127 0 0 128 128 0 127 123 0 118 116 0 116 119 0 126 132 0 146 0 158 0 0 0 184 190 198 0 0 0 200 0 0 0 0 212 208 215 0 0 0 0 221 220 217 213 0 213 218 0 220 0 224 227 0 225 223 0 220 220 222 0 216 0 0 224 0 222 225 0 0 232 0 0 228 229 230 231 0 0 233 0 
120 120 0 119 118 117 117 116 115 0 0 115 0 0 0 114 114 114 113 113 0 0 114 113 114 114 114 0 0 113 113 0 0 104 104 0 0 109 108 109 109 0 109 0 110 0 0 0 109 109 109 109 110 0 0 0 110 109 0 108 0 109 121 0 0 0 0 0 219 218 218 0 0 219 0 0 218 219 0 0 0 0 0 218 0 219 0 0 0 219 218 0 216 215 0 0 0 0 162 172 0 0 0 207 0 0 0 0 0 0 206 0 0 0 0 205 205 0 206 206 206 0 207 0 0 0 210 210 210 210 210 210 0 0 209 208 0 207 0 206 206 0 0 0 0 0 0 0 201 200 200 200 0 0 199 199 199 0 198 198 198 198 198 0 197 196 196 196 0 0 196 196 0 0 0 0 195 0 195 195 195 0 194 0 193 194 194 193 193 0 0 192 191 191 190 0 189 188 188 0 187 187 0 186 186 0 189 190 0 0 0 0 183 180 178 0 0 172 169 167 166 165 164 164 164 165 167 0 0 0 163 161 160 0 159 0 157 156 0 155 0 0 156 156 156 157 161 0 0 0 0 0 0 0 0 0 0 0 0 0 0 0 162 158 156 155 154 153 152 152 152 152 0 0 155 0 158 0 157 0 0 0 158 0 0 157 157 157 156 0 0 156 156 156 0 0 156 156 0 155 155 154 153 0 0 151 151 151 151 151 150 149 149 149 149 148 148 148 0 0 146 145 144 0 144 144 0 143 142 141 0 141 140 139 140 140 0 0 141 0 140 139 140 0 0 140 0 140 139 139 139 0 141 141 142 0 0 0 0 141 140 0 0 145 145 146 149 155 164 0 0 0 0 0 0 192 191 0 0 0 193 0 194 0 193 193 193 0 193 193 0 193 193 192 192 0 191 192 192 0 0 0 191 0 191 192 0 0 0 191 0 0 0 191 191 0 190 190 191 0 0 181 170 166 167 167 0 0 0 0 0 0 0 167 166 164 0 163 162 162 0 0 0 163 163 163 163 163 0 0 0 157 156 155 0 0 152 150 147 0 145 0 0 0 140 0 138 0 0 0 134 133 0 132 0 0 132 133 0 0 134 131 0 132 134 0 0 138 0 131 0 130 130 0 0 126 123 121 0 0 0 116 0 114 114 115 118 0 0 0 0 124 121 121 120 118 0 0 111 109 106 105 0 110 0 0 0 114 112 114 0 117 0 118 0 118 0 0 0 118 119 0 0 118 119 119 123 0 0 0 123 123 0 126 126 0 0 128 128 0 129 129 130 0 127 123 0 116 115 116 117 119 0 126 130 0 146 0 160 0 0 0 181 185 191 0 0 199 200 205 0 213 0 0 209 214 219 0 0 0 0 0 220 217 0 216 216 220 220 0 226 0 0 227 218 216 219 0 0 0 219 222 0 0 0 221 224 0 230 231 0 228 227 0 0 0 231 0 232 0 
0 0 0 0 0 0 0 115 114 113 114 114 114 0 0 115 114 114 113 113 113 0 0 0 0 114 0 113 112 0 0 0 0 105 103 106 0 0 109 0 0 108 108 0 0 0 110 108 0 0 0 0 0 0 0 0 0 0 108 108 0 109 112 143 0 0 0 0 0 219 219 0 0 0 0 219 0 0 0 220 220 0 0 219 0 220 220 0 220 0 0 0 216 0 215 0 0 0 153 155 0 0 0 0 206 206 206 206 0 0 206 206 205 205 0 205 0 206 0 0 0 207 207 0 208 209 0 210 209 0 0 210 0 210 209 0 208 0 207 0 206 206 0 0 0 0 0 0 201 0 200 200 0 200 0 199 199 0 198 198 198 198 0 0 0 197 0 196 196 196 196 0 196 0 195 195 195 195 195 0 0 0 0 0 194 0 194 0 193 0 192 0 0 191 0 190 0 189 188 0 187 187 0 186 186 186 187 0 0 0 0 0 0 181 178 0 174 171 0 166 165 165 164 164 166 0 0 0 167 164 162 161 160 0 159 158 0 156 0 155 155 156 156 156 0 158 161 166 0 0 175 177 178 0 0 177 0 0 174 0 0 163 158 156 0 154 0 152 0 151 0 151 0 151 153 0 0 157 157 157 0 157 157 157 0 157 0 0 0 0 0 156 156 156 0 0 156 0 156 156 0 0 153 152 0 152 151 0 0 150 0 149 0 0 0 148 148 148 0 147 146 0 144 0 0 0 0 0 0 142 0 0 0 0 141 141 141 141 141 0 0 139 0 0 0 141 141 0 140 0 0 140 0 140 0 0 144 0 0 141 140 142 0 0 145 146 149 154 0 0 0 0 0 0 0 194 190 190 0 192 0 0 0 0 193 0 0 0 192 0 0 193 0 0 192 0 192 192 192 0 0 192 0 0 0 0 191 191 191 191 191 191 0 190 0 0 190 190 190 0 0 0 173 162 162 163 0 164 165 165 0 164 163 0 0 160 0 0 159 0 0 160 160 0 0 0 0 161 0 0 0 0 0 0 153 152 0 0 0 0 0 141 140 0 137 0 136 135 134 133 0 0 0 130 131 132 0 0 132 0 133 131 0 0 132 135 0 139 0 133 131 129 0 0 126 122 122 0 0 117 0 116 0 0 113 115 118 0 0 127 0 0 121 120 0 116 114 0 0 0 105 105 108 0 0 115 0 0 114 114 0 0 0 120 0 120 0 0 0 120 119 120 0 118 0 120 123 0 0 123 0 124 0 0 126 0 0 0 0 0 129 130 0 0 126 121 118 115 115 116 0 120 0 126 130 0 147 0 156 163 0 0 0 0 186 0 192 196 0 203 0 208 0 0 0 0 0 0 217 219 0 0 0 221 0 0 0 220 222 0 231 0 0 0 220 215 0 0 0 222 221 222 0 0 222 221 223 0 230 0 229 225 0 227 0 0 0 231 0 0 
119 119 118 116 116 115 0 0 115 0 0 0 0 0 0 0 0 0 113 112 113 113 112 113 113 114 0 113 111 111 112 0 0 106 102 104 0 0 0 0 108 107 107 107 108 0 0 0 0 108 109 109 0 110 0 109 109 109 107 0 108 108 108 122 0 0 0 0 0 0 220 220 220 220 220 220 220 220 220 220 220 220 220 220 0 220 0 0 220 0 0 218 217 0 216 0 0 0 147 143 0 0 0 206 0 205 0 206 206 206 206 0 205 0 0 0 206 0 0 0 207 207 0 0 208 208 0 0 210 210 0 210 210 0 0 209 0 0 207 206 206 0 205 205 204 203 202 202 202 0 0 200 0 0 0 199 199 0 0 0 198 198 0 197 197 0 0 196 196 0 0 0 196 0 0 195 195 195 0 194 0 0 0 0 0 0 0 0 193 193 193 0 0 191 0 0 0 0 188 0 0 187 186 186 0 185 186 0 0 0 188 187 0 182 179 0 173 170 167 0 0 165 165 165 0 0 0 0 0 163 162 161 160 0 159 158 0 0 156 155 156 0 156 0 0 157 0 162 0 170 173 0 0 0 0 0 0 0 0 0 0 159 156 155 0 153 0 0 151 0 0 151 151 151 0 0 0 156 0 156 156 156 0 157 0 157 156 0 0 156 156 0 0 0 156 0 156 0 0 0 0 155 152 152 0 0 152 0 151 150 150 0 0 0 0 149 0 0 0 147 146 145 144 145 145 144 143 0 0 142 142 142 142 0 0 0 0 141 0 141 141 141 141 140 141 0 0 0 140 0 139 140 140 140 140 141 141 0 143 142 141 142 0 0 0 145 148 152 159 167 176 184 0 0 0 0 190 189 191 192 0 193 193 0 192 192 191 192 192 0 192 0 192 0 192 0 0 0 0 192 0 0 191 191 0 0 191 0 191 0 0 190 190 190 190 0 0 0 190 0 190 0 0 165 158 159 160 160 0 160 160 159 0 158 157 157 157 157 157 157 0 158 0 0 160 0 0 0 157 157 0 0 0 0 151 0 0 0 0 0 0 0 137 136 135 0 134 133 132 130 130 131 0 129 130 132 0 132 130 132 0 133 132 0 132 132 0 0 0 0 132 129 128 127 124 123 0 0 119 115 115 0 0 0 113 114 118 0 0 125 0 0 0 0 0 114 112 0 108 105 105 106 109 0 0 0 0 114 114 115 0 0 118 120 0 120 120 121 120 122 120 120 0 120 120 0 122 0 0 123 123 125 0 0 127 125 0 0 130 0 0 131 0 0 125 120 116 115 0 115 117 0 0 126 133 0 145 0 149 156 166 174 177 177 181 0 190 192 199 204 0 209 212 0 215 214 214 214 218 220 220 223 0 220 222 0 0 0 226 230 234 0 0 0 225 217 220 0 0 223 222 222 223 0 221 0 221 226 0 0 229 225 225 226 227 228 229 230 0 0 
119 0 0 115 115 115 0 0 0 0 0 0 0 114 0 0 115 114 0 0 0 113 112 112 113 0 0 113 111 111 112 0 110 106 101 103 106 0 109 107 107 0 0 0 0 0 109 109 109 109 0 109 108 109 109 110 0 109 108 108 107 107 106 113 140 0 0 0 0 0 220 0 220 220 0 0 220 0 0 0 0 0 220 0 0 0 0 220 220 220 0 218 218 0 0 0 0 0 141 133 160 0 0 0 205 205 0 0 206 206 206 0 206 0 206 206 206 206 0 0 207 0 0 0 0 208 208 0 0 210 210 210 0 0 209 0 0 207 0 0 0 0 204 204 204 0 0 0 0 202 201 0 0 0 0 199 199 199 199 0 198 198 0 197 197 0 0 0 197 0 196 196 196 0 0 0 195 195 195 195 195 0 194 0 0 0 0 0 193 0 193 0 192 191 191 190 0 0 189 0 188 187 0 186 0 185 185 186 188 0 0 187 0 0 0 174 171 0 167 0 0 165 166 0 169 0 0 0 164 162 0 161 0 160 0 158 157 157 0 156 0 0 0 0 156 157 158 159 161 165 0 173 173 173 174 173 173 172 0 165 161 157 155 153 0 0 151 150 150 150 150 0 150 151 152 153 0 0 0 156 156 156 0 0 157 0 156 156 156 0 0 156 0 0 156 156 156 156 156 0 0 0 0 0 153 0 0 151 0 0 150 0 149 0 0 0 149 0 148 147 146 146 146 0 145 144 143 0 0 142 0 142 142 142 142 142 0 142 0 142 141 0 0 141 141 141 141 0 140 139 0 0 0 0 140 0 141 0 143 143 142 143 144 0 145 144 146 151 157 164 171 178 0 0 0 0 192 190 0 0 191 192 193 0 0 192 192 0 192 0 0 0 191 190 191 0 0 191 191 0 191 191 190 190 0 0 191 191 0 191 190 190 0 0 189 189 189 189 0 190 190 0 0 0 164 157 156 156 0 0 155 0 0 154 154 0 0 155 155 155 155 155 0 0 157 157 0 0 0 0 152 151 0 0 0 0 0 142 140 138 137 136 0 0 0 0 0 131 130 0 130 130 0 130 132 0 133 132 130 132 0 0 133 133 133 131 134 0 0 0 0 129 127 0 0 0 0 0 0 117 115 112 111 0 0 114 0 0 0 124 0 0 119 119 0 115 0 108 105 104 106 109 0 0 113 113 115 115 113 115 0 120 119 0 121 121 121 0 0 0 0 124 0 0 122 0 120 122 123 0 124 126 0 0 0 124 0 0 130 131 0 130 0 0 124 0 115 114 0 116 119 0 124 126 0 0 144 0 150 0 0 0 0 178 0 0 190 195 0 0 0 208 0 212 211 211 212 214 0 0 224 0 0 223 222 225 0 229 231 232 236 0 0 0 0 223 0 220 223 0 0 223 224 0 220 0 220 223 0 0 0 224 0 0 226 0 0 0 229 229 
0 117 0 0 0 0 113 113 114 114 114 0 114 114 0 0 0 0 0 0 0 0 0 0 112 0 0 0 0 112 112 0 0 0 103 102 106 0 0 106 107 106 107 107 108 108 108 108 109 0 109 0 109 0 110 0 0 0 109 0 0 0 106 109 126 0 0 0 0 0 0 0 0 221 221 0 220 0 221 221 0 221 221 221 221 221 220 0 220 220 0 219 0 0 0 0 0 0 138 132 147 0 0 0 205 204 205 0 0 0 206 206 206 0 0 206 206 0 206 0 206 0 207 207 0 0 207 208 209 0 0 0 209 208 208 208 0 207 206 0 0 0 205 204 204 0 202 0 0 202 201 201 0 200 0 199 199 199 199 0 198 198 198 198 0 0 198 0 197 197 196 0 195 0 0 195 195 0 195 0 195 195 194 0 194 194 0 194 194 0 0 0 0 191 0 0 190 0 189 0 188 187 0 0 0 185 0 185 186 0 0 0 0 181 177 173 170 167 166 166 166 167 169 0 0 0 0 165 162 162 161 0 0 160 159 158 157 0 0 156 156 156 0 156 155 156 157 158 160 163 0 173 173 173 173 0 0 0 167 161 158 156 155 0 152 0 150 150 0 149 0 0 150 0 0 152 153 0 0 156 156 0 157 157 157 157 157 156 156 0 156 156 0 0 0 155 0 156 156 0 156 156 155 154 153 0 151 150 0 0 150 0 0 0 0 0 0 0 148 147 147 0 0 0 145 144 144 144 0 143 0 0 142 0 0 142 142 142 0 0 0 0 0 142 0 141 141 140 0 140 140 140 138 0 0 140 140 0 0 144 143 143 0 0 144 144 145 149 154 0 0 176 0 0 0 0 196 190 190 0 191 0 0 0 0 0 0 0 0 191 190 190 0 0 0 191 191 191 0 190 190 190 0 190 189 0 190 190 0 190 190 0 189 189 189 0 0 189 189 0 0 189 0 0 0 170 158 153 150 150 150 150 150 0 151 151 0 0 0 0 0 0 0 0 0 153 0 152 0 0 148 146 0 0 0 0 140 138 136 135 134 133 0 131 130 130 0 131 131 0 0 0 130 131 0 0 134 132 0 0 132 133 133 0 0 0 133 0 137 0 0 130 128 0 126 123 0 120 0 0 116 111 108 110 0 113 114 0 0 122 0 0 117 116 0 0 0 0 106 104 106 0 0 0 114 115 0 0 118 119 0 119 118 0 0 121 122 0 0 124 123 0 0 0 121 122 122 122 123 0 126 0 0 0 126 124 126 0 0 0 0 130 0 0 122 116 113 113 115 116 119 0 0 124 133 0 144 146 149 158 0 0 0 174 0 0 191 0 0 0 0 205 0 0 0 0 0 0 0 0 0 0 0 0 225 227 0 0 0 0 0 0 0 0 0 0 0 220 224 0 226 225 0 0 222 222 217 220 225 227 226 223 0 224 225 225 0 227 0 228 
0 116 115 115 0 0 113 113 114 0 0 0 113 0 114 114 0 0 0 112 0 112 111 111 0 0 0 0 113 0 0 0 111 0 104 102 0 0 0 109 0 108 107 108 108 0 0 0 0 0 108 108 0 0 110 0 0 0 0 0 108 0 107 107 114 0 0 0 207 213 0 0 0 0 221 0 221 221 221 221 0 221 0 0 221 220 220 0 0 220 219 218 0 0 0 0 0 156 139 139 145 0 0 0 0 204 0 0 205 0 0 206 0 0 0 0 206 0 0 206 205 206 206 206 207 207 0 208 0 0 209 0 0 207 207 207 207 206 0 206 206 0 0 0 0 203 202 202 202 0 201 201 0 0 200 199 199 199 199 0 197 198 0 0 198 198 198 198 0 0 197 196 195 0 0 195 0 0 195 0 0 0 195 0 194 194 194 0 194 0 0 192 191 191 191 0 190 0 189 0 188 0 186 186 0 185 184 183 184 186 0 187 0 0 175 0 170 0 167 167 167 0 0 171 170 0 165 163 162 0 161 161 0 160 159 158 157 156 0 156 156 0 0 156 155 156 157 158 160 164 0 0 0 175 0 174 0 0 165 160 156 0 0 0 152 151 0 0 0 149 149 0 149 0 151 152 153 155 0 0 157 0 157 157 157 157 0 0 156 155 156 0 156 155 156 155 156 0 156 156 156 0 0 0 0 0 151 150 0 0 150 150 150 149 149 149 149 149 149 0 148 0 146 0 0 145 0 144 0 0 143 143 0 0 0 142 0 0 143 143 0 142 142 0 142 0 0 141 0 0 0 140 140 140 140 140 140 142 0 0 0 0 0 143 144 143 145 147 152 0 167 174 186 0 0 0 199 191 190 0 191 0 191 0 192 0 191 190 191 0 0 190 190 190 190 190 0 0 0 190 189 190 0 0 0 189 0 190 0 190 0 0 189 188 0 0 188 0 0 189 0 189 190 0 0 0 0 164 154 149 147 147 147 147 0 0 148 0 0 0 0 0 0 0 149 149 0 0 0 0 0 142 139 139 138 137 135 134 133 0 131 130 0 129 129 130 131 0 0 130 0 130 0 131 0 0 0 133 131 132 0 0 0 0 0 0 133 0 135 0 0 0 131 0 125 123 0 120 120 0 0 113 109 110 111 110 114 0 120 120 0 0 115 114 0 111 107 107 106 107 111 0 0 0 0 115 0 0 0 0 0 118 118 0 0 123 124 0 121 122 124 0 0 0 124 122 0 123 124 0 0 0 0 0 126 0 124 129 0 131 0 131 0 0 119 115 112 113 114 0 118 0 0 124 0 0 0 0 0 0 165 0 0 169 0 0 185 195 0 0 199 198 203 205 203 0 0 216 214 218 0 0 0 225 225 0 229 0 0 0 0 235 0 0 231 0 0 222 0 0 0 226 225 0 0 0 220 0 0 0 223 221 0 0 0 225 225 0 0 0 
0 0 0 115 114 113 0 0 0 0 113 0 0 0 113 113 113 112 111 111 111 111 111 111 112 113 113 0 0 113 112 111 0 0 106 102 103 0 0 0 0 0 0 0 0 0 109 0 108 0 108 108 107 109 110 110 109 109 108 109 108 107 107 105 108 130 0 0 0 207 212 0 0 0 220 0 0 221 0 0 0 221 221 0 221 0 0 0 0 220 219 219 0 0 0 0 0 144 144 0 157 171 0 0 0 0 204 204 204 0 0 205 206 0 0 206 206 206 206 205 0 0 206 206 0 207 0 0 208 0 208 208 0 207 0 0 0 0 0 0 205 205 204 204 0 203 0 0 202 0 0 201 201 0 0 200 199 199 199 0 0 0 0 198 198 0 0 198 0 0 0 0 196 0 0 0 195 195 0 195 0 0 0 195 0 194 194 194 0 194 193 0 192 0 191 0 0 0 189 0 0 188 187 186 186 0 0 183 0 185 0 0 0 178 173 172 171 170 169 170 0 0 0 172 0 0 165 162 161 0 161 161 161 0 0 0 157 0 0 156 156 156 0 0 156 0 0 158 161 167 0 175 0 0 0 0 172 0 161 159 156 0 154 153 152 151 150 150 149 0 0 0 149 0 0 153 0 155 156 0 158 157 0 157 158 0 158 0 0 156 156 156 0 0 0 156 156 0 156 155 0 156 0 155 154 0 152 151 151 0 0 0 0 150 149 0 149 149 0 0 149 0 0 0 145 0 0 145 144 144 143 143 0 143 143 143 0 143 142 0 0 142 142 142 142 142 142 0 141 140 0 0 0 0 0 0 140 141 142 142 0 141 142 143 0 145 145 148 152 0 164 171 0 0 201 0 0 193 190 190 0 0 190 0 191 0 190 0 0 0 190 190 0 0 0 190 190 190 0 189 0 0 190 0 0 189 189 0 0 0 189 189 0 188 0 188 187 188 0 0 0 189 190 191 0 0 0 0 0 165 155 148 145 144 144 144 144 144 144 144 144 144 144 0 0 144 0 0 141 0 0 138 136 135 135 134 133 132 131 131 131 130 130 130 0 0 131 0 130 129 130 130 0 130 0 0 133 0 0 132 132 0 0 133 133 133 133 133 132 133 0 0 0 128 125 125 0 122 120 0 116 0 112 0 0 109 0 0 118 118 0 0 114 112 0 108 105 105 108 111 0 0 115 115 116 117 0 119 117 119 0 121 120 0 124 0 0 122 120 122 0 0 0 126 0 125 0 123 124 0 127 128 0 0 126 0 124 127 0 132 132 133 0 124 116 114 113 113 114 0 117 0 122 125 0 132 137 0 148 0 0 0 0 167 0 0 185 192 0 0 195 0 0 199 199 208 0 0 212 216 219 220 0 225 0 0 0 228 0 230 228 228 234 0 230 222 216 218 225 0 0 0 220 223 0 0 220 0 222 0 0 221 0 222 223 0 0 225 225 225 
116 0 0 0 0 113 113 113 112 112 112 112 0 0 112 0 0 0 111 111 111 0 111 0 0 113 0 0 0 0 0 111 0 0 0 0 103 0 0 0 108 107 0 0 0 0 0 0 0 0 109 0 108 0 0 110 110 0 0 0 108 108 0 0 106 116 154 0 0 0 207 211 0 0 0 220 0 220 221 0 0 221 220 220 221 221 0 0 220 220 0 0 0 0 0 0 162 143 0 0 0 161 0 0 0 204 204 0 203 204 0 205 0 206 206 0 205 205 0 0 205 0 206 206 206 206 0 207 207 207 207 207 0 206 206 206 206 0 206 0 204 0 0 203 0 0 203 0 202 202 0 201 201 201 0 0 0 199 199 199 199 0 198 198 198 0 197 0 0 197 197 0 196 196 196 0 195 0 0 0 0 195 0 0 195 0 194 194 0 194 0 0 0 192 0 191 190 190 189 189 0 0 0 0 186 0 0 184 183 183 0 0 0 176 172 172 0 0 172 0 0 0 0 0 0 0 0 161 0 0 161 0 160 0 0 0 158 156 0 0 0 156 157 157 0 157 157 158 162 0 0 175 176 0 175 173 0 0 163 159 0 0 0 153 0 150 150 0 149 149 149 149 150 151 0 153 155 0 157 0 0 158 158 158 0 0 158 157 156 0 0 156 0 0 0 0 0 0 0 0 0 156 0 155 0 0 0 0 151 151 0 151 0 150 0 0 0 0 0 149 0 0 0 0 145 145 0 145 0 0 144 144 0 143 0 0 0 143 142 0 0 0 0 0 142 142 0 142 141 0 140 141 0 0 139 138 0 140 140 140 140 140 141 0 0 0 146 149 153 158 164 171 181 0 0 0 0 196 189 0 0 191 0 190 190 190 190 190 190 190 190 0 0 189 0 0 0 189 0 189 0 189 0 189 188 0 189 189 189 0 0 189 188 188 188 0 187 187 188 0 189 189 0 191 193 0 0 0 0 0 0 176 162 152 146 143 142 139 139 140 139 139 139 139 0 137 138 137 136 136 135 135 0 133 133 133 0 132 0 132 0 131 0 0 0 0 131 0 130 0 0 0 0 130 0 0 133 0 0 132 131 132 133 0 0 132 133 134 133 134 135 0 131 128 127 0 0 0 0 0 116 0 0 111 110 112 0 0 116 117 0 0 114 110 0 105 104 105 0 114 0 0 115 115 115 0 0 117 116 0 0 121 0 125 124 0 0 120 119 122 0 0 0 125 127 0 125 123 0 124 126 0 129 0 125 0 124 127 0 133 134 0 0 119 114 114 113 114 0 114 116 118 121 123 127 130 133 0 143 146 0 157 0 165 0 0 0 190 0 0 199 0 0 200 201 0 0 0 212 0 0 216 0 0 0 220 221 224 0 227 226 230 0 0 0 222 216 219 225 0 0 223 220 221 0 0 220 0 216 0 219 0 220 220 0 222 223 223 0 0 
115 115 0 115 115 114 113 0 0 0 112 112 112 112 0 0 0 111 111 0 111 0 110 111 0 0 0 113 0 0 111 111 0 0 0 104 102 104 107 0 107 107 106 107 0 0 0 108 108 0 0 0 0 0 0 0 0 0 0 0 0 108 0 106 107 108 131 0 0 0 206 202 207 0 0 0 220 220 220 0 221 0 0 0 0 0 220 220 220 220 220 0 0 0 0 0 154 151 0 0 158 152 172 0 0 0 0 0 0 204 0 204 0 0 0 0 205 205 205 205 205 0 0 0 0 206 206 206 206 206 206 206 206 0 0 205 205 0 206 0 205 0 204 204 204 0 203 203 0 202 201 201 0 0 200 0 0 199 199 199 199 0 198 198 198 0 197 0 0 197 197 197 0 196 196 196 195 0 195 195 0 195 195 195 195 195 195 195 0 194 0 193 0 192 0 191 190 0 0 189 0 188 187 186 186 0 185 184 183 183 184 0 0 174 172 172 0 0 0 0 0 0 0 0 0 0 163 161 0 0 0 160 159 161 0 0 158 156 156 0 0 157 0 0 0 157 157 159 163 0 0 0 175 0 174 172 0 0 162 159 157 155 0 0 0 150 150 0 149 149 149 0 150 150 153 0 156 0 0 0 158 158 0 0 0 0 158 157 157 157 157 0 156 156 0 0 0 156 156 0 157 0 0 155 154 153 153 152 0 150 151 151 0 150 150 150 150 150 0 149 0 0 147 0 146 146 0 145 144 144 144 0 0 144 144 0 143 0 143 142 142 0 143 0 0 143 0 0 142 0 0 140 140 140 139 139 138 138 0 0 140 141 141 142 143 144 0 150 0 158 163 172 179 191 0 0 0 0 190 190 190 0 0 190 0 190 0 189 0 0 189 0 0 189 0 0 189 189 189 189 189 189 0 0 188 188 0 0 189 189 0 0 0 187 0 0 187 187 187 0 0 189 189 191 193 194 196 0 0 0 0 0 0 0 0 165 155 146 141 139 138 137 137 136 136 135 135 134 134 134 134 0 133 0 133 133 0 0 0 0 0 0 0 130 129 0 0 130 130 0 130 130 0 131 132 0 131 132 0 0 0 0 0 133 0 134 0 0 0 136 134 134 132 127 128 0 127 0 0 121 118 0 114 113 112 113 0 0 114 116 0 0 111 109 0 104 105 109 0 0 117 117 115 0 118 0 0 118 118 0 120 121 0 0 0 0 0 121 121 120 124 126 0 126 0 0 124 122 0 123 126 0 0 0 127 0 125 127 0 132 0 0 0 116 114 0 114 0 0 114 115 0 0 122 125 0 131 135 0 140 146 147 153 159 167 0 181 184 191 0 202 201 200 202 0 0 204 0 210 0 0 209 212 0 0 218 0 0 222 0 227 0 0 0 0 220 217 221 0 0 0 220 216 218 0 0 217 214 214 215 216 0 0 0 220 221 0 0 222 0 
0 113 0 0 0 0 0 0 112 112 112 0 0 111 111 110 111 111 110 111 111 0 0 110 111 111 111 112 0 0 111 111 0 109 0 0 103 103 0 0 108 107 0 106 106 107 106 107 108 0 109 108 107 108 109 109 110 110 109 108 108 107 0 106 0 106 116 155 0 0 0 201 198 206 0 0 0 0 0 0 0 220 0 220 220 0 220 0 0 0 220 0 0 0 0 167 148 0 0 0 154 154 162 0 0 0 0 203 203 0 0 203 204 205 205 205 0 0 0 0 205 205 205 205 0 0 0 0 0 205 205 0 206 0 205 205 205 0 205 0 0 205 205 0 204 204 0 0 203 202 202 0 201 200 0 200 0 199 199 199 199 0 198 0 198 0 198 197 0 0 0 197 0 196 0 0 196 0 0 195 0 195 0 0 195 195 0 0 0 0 194 193 192 192 0 191 0 190 189 189 0 188 0 187 186 0 185 184 0 183 0 0 177 173 173 174 0 0 0 0 0 0 173 170 166 163 162 0 0 161 160 0 160 161 0 160 157 0 156 156 0 157 0 157 157 157 158 160 165 0 0 174 174 0 0 0 0 165 161 0 156 154 154 153 152 151 0 0 149 149 0 150 0 151 0 0 0 0 0 0 158 0 0 0 159 158 157 0 158 0 0 0 156 156 0 0 156 0 0 0 157 0 0 0 154 154 0 0 152 0 151 0 151 0 150 0 150 150 0 0 149 0 147 146 0 146 0 0 0 144 144 0 0 0 144 144 143 0 0 142 142 0 0 0 0 0 143 142 0 0 0 140 140 0 0 0 0 139 0 0 0 0 142 142 142 143 145 151 0 160 163 0 182 194 0 0 0 0 191 189 0 190 189 189 0 0 0 0 189 189 189 0 0 0 189 188 0 0 189 188 0 189 0 0 188 188 0 0 188 0 0 188 186 187 0 0 0 0 187 187 188 0 190 191 0 0 196 198 200 203 0 0 0 0 0 0 0 0 0 165 156 147 142 138 136 135 135 133 132 132 133 133 133 133 0 133 0 0 0 132 0 131 0 130 129 130 130 0 0 0 130 130 0 0 0 0 131 131 0 132 0 133 133 132 133 0 0 135 0 0 135 0 0 130 127 0 129 0 0 0 119 0 113 0 0 116 0 0 114 0 0 0 109 0 0 107 108 111 0 0 0 0 0 114 0 0 118 117 116 0 0 0 123 0 0 0 125 123 0 122 0 126 0 127 0 0 123 123 0 124 0 0 0 0 0 0 126 129 0 132 134 0 0 114 113 114 114 114 0 0 116 116 118 121 0 0 129 0 0 139 0 145 0 159 165 0 180 183 192 0 206 0 199 200 0 0 199 203 207 205 209 206 207 0 0 212 213 215 218 223 0 0 232 230 0 220 219 223 0 0 0 220 215 216 218 0 213 212 213 0 0 216 217 218 0 0 0 220 220 220 
0 112 112 113 0 0 113 113 112 0 0 0 0 0 111 111 111 111 111 0 111 0 0 0 0 110 110 0 0 0 112 111 110 109 108 0 104 102 106 0 0 107 0 106 0 0 0 0 0 0 0 0 108 0 0 109 109 0 0 0 108 0 105 106 107 108 110 134 0 0 0 0 198 195 203 0 0 0 0 221 220 220 220 220 220 220 0 0 219 219 220 0 0 0 0 151 145 0 0 153 157 0 161 162 0 0 0 0 203 0 203 203 0 0 204 204 0 204 204 204 0 0 0 205 205 205 205 205 205 205 205 0 0 205 205 205 0 205 205 0 0 0 0 205 0 204 204 0 0 203 0 0 201 201 0 200 0 200 199 199 199 0 0 0 0 0 198 0 197 0 0 197 0 196 196 196 196 0 196 196 0 195 0 195 195 195 195 195 0 195 194 0 0 192 191 191 0 190 189 189 0 0 188 0 0 185 185 0 184 0 0 0 176 173 173 0 0 0 177 0 0 0 0 0 165 162 162 161 0 160 159 159 160 0 0 159 157 156 156 156 156 0 156 0 156 157 158 160 167 0 174 174 173 173 173 0 0 164 159 157 155 0 0 152 152 0 0 0 0 150 150 150 0 152 0 156 0 0 0 0 0 0 0 0 158 157 158 0 0 0 158 0 157 156 156 156 156 0 156 156 0 0 156 0 0 0 0 0 153 0 0 0 151 0 0 0 150 0 0 149 148 148 0 146 146 0 0 146 145 0 0 145 145 144 0 0 0 144 0 142 0 0 142 142 142 143 142 0 0 142 0 140 0 0 139 139 139 139 139 0 0 142 0 0 0 143 144 151 0 0 163 173 0 0 0 0 209 0 194 189 0 0 189 0 0 0 189 0 0 188 188 189 189 0 189 189 189 189 0 189 0 188 188 188 188 0 188 0 187 187 187 0 187 0 0 187 0 188 0 187 188 189 190 191 192 194 196 198 200 0 0 0 0 209 207 0 0 0 0 0 0 0 0 0 158 151 145 141 137 135 134 133 133 133 134 133 132 132 132 132 132 130 130 131 131 0 130 0 130 130 130 130 129 130 0 0 0 130 131 132 0 0 0 134 134 135 135 138 0 139 136 0 0 131 129 0 0 0 120 0 119 117 114 116 0 0 0 115 113 113 114 112 108 107 107 108 0 0 114 0 0 0 114 110 0 0 116 115 114 0 0 121 123 0 0 0 124 123 0 124 0 126 0 129 0 0 123 123 0 124 126 0 0 0 0 0 128 130 0 133 0 0 121 114 0 0 0 114 115 0 0 117 0 121 124 127 129 132 136 0 0 144 152 0 164 0 182 189 198 0 0 203 194 195 0 200 197 0 206 208 0 0 208 213 215 212 212 214 0 0 0 229 0 0 225 221 223 0 0 223 0 0 0 0 214 0 213 211 212 212 213 214 0 216 216 217 217 218 0 0 
111 0 0 111 0 0 0 0 0 111 111 112 111 111 0 0 0 0 0 0 0 110 109 110 0 0 109 110 0 0 0 111 110 109 108 0 0 102 0 0 0 108 0 105 106 106 107 0 0 107 0 108 107 108 0 0 108 108 108 0 0 107 105 106 0 0 108 118 0 0 0 0 0 197 194 203 0 0 0 220 220 220 0 0 0 0 219 219 219 0 0 0 0 0 166 139 143 0 149 155 0 0 0 146 159 0 0 0 0 0 202 0 203 0 203 0 0 0 204 0 0 204 204 0 0 204 204 204 204 0 205 0 205 205 205 205 205 205 205 205 205 205 205 205 0 0 204 203 0 203 0 0 202 200 0 0 200 0 0 199 199 199 199 199 0 198 197 0 0 197 196 0 0 0 196 196 196 196 196 0 0 196 0 195 0 0 195 194 0 0 0 0 193 192 0 191 0 190 0 189 189 0 188 187 186 185 0 185 184 183 181 0 175 173 174 0 0 0 0 0 0 0 0 0 164 0 0 161 160 0 159 159 160 0 0 159 157 156 155 0 0 155 156 0 0 0 159 163 0 0 0 0 174 0 0 171 0 0 159 156 155 154 0 0 152 0 151 151 151 0 150 150 151 151 154 0 0 158 159 0 0 159 0 159 158 0 158 0 0 158 158 158 0 157 156 156 0 156 0 156 156 0 156 156 0 155 155 0 153 0 0 150 0 0 0 150 149 149 0 148 148 0 147 147 146 146 0 0 145 0 145 0 0 145 145 145 0 144 143 143 0 0 0 0 0 0 143 143 0 142 0 141 0 140 139 0 139 138 139 0 0 142 141 142 144 144 146 150 0 0 164 171 183 193 0 0 0 0 198 189 188 0 188 188 188 0 0 0 188 188 0 0 188 0 0 0 0 0 0 189 188 0 188 0 0 0 186 0 187 186 187 0 0 0 0 186 0 0 0 0 188 0 0 190 0 0 196 199 0 0 208 0 210 209 0 0 0 211 0 0 0 0 0 0 0 0 0 0 0 0 157 153 149 146 145 144 144 144 145 145 144 141 138 137 134 132 130 130 129 130 130 0 129 129 0 131 130 130 131 0 132 132 0 0 0 136 0 138 0 138 0 0 134 0 130 0 0 0 117 0 0 116 117 0 117 0 0 116 114 0 0 110 107 108 0 0 110 112 113 114 0 0 113 114 0 115 0 0 0 0 0 117 122 0 128 0 126 124 124 0 126 128 0 131 0 0 122 122 0 123 0 128 129 0 131 0 129 130 0 0 0 0 117 114 115 0 114 0 114 0 0 117 118 0 124 127 0 0 135 139 0 147 151 0 166 175 183 0 203 0 0 203 193 199 0 200 195 0 203 210 0 0 214 0 0 215 214 216 0 0 226 228 0 0 227 224 0 0 223 220 0 219 0 0 211 212 0 212 0 212 212 213 0 214 0 215 0 216 216 0 
109 0 109 109 110 0 0 110 110 0 0 0 112 112 112 0 111 111 111 110 0 110 0 0 0 0 110 110 111 112 0 0 110 0 0 0 0 102 0 0 0 109 107 106 105 106 0 107 0 106 106 0 0 107 107 0 107 107 107 107 107 0 0 0 107 108 108 109 132 0 0 0 0 0 197 194 203 0 0 0 220 220 0 219 219 0 0 219 0 0 0 0 0 0 145 135 141 143 150 0 0 0 151 136 139 0 0 0 202 202 202 202 0 202 202 203 203 203 203 0 204 203 203 0 0 203 0 203 0 0 0 0 204 0 0 0 204 0 205 0 205 205 0 0 0 0 0 204 203 203 0 0 202 202 0 201 200 200 0 199 0 199 0 199 0 198 198 0 0 0 196 0 0 196 196 196 196 196 0 0 0 196 196 0 0 196 0 194 195 0 195 194 193 0 0 191 0 0 0 0 0 0 187 0 186 0 0 185 0 183 0 0 174 173 174 0 178 178 178 0 176 0 0 166 163 162 0 161 160 159 159 0 160 0 0 158 156 0 0 154 154 0 0 0 156 157 160 164 0 0 0 0 174 0 172 0 0 163 157 0 0 153 0 0 152 0 0 0 151 0 150 150 0 153 0 157 0 158 159 0 0 159 158 158 0 158 157 158 158 157 157 158 0 158 0 157 0 156 156 156 0 0 0 156 156 156 0 154 0 152 151 150 0 150 150 150 0 149 148 148 0 0 0 0 0 146 146 146 145 145 144 145 0 145 0 0 144 144 0 0 143 0 142 143 143 0 0 143 0 142 0 141 140 0 0 0 0 139 140 141 0 142 141 0 0 0 147 150 0 0 162 170 0 0 205 0 0 0 0 190 188 0 187 187 0 188 188 188 0 0 0 0 188 188 188 187 188 0 0 188 0 0 187 0 187 186 186 0 187 0 187 0 0 187 186 186 187 187 187 187 0 188 0 189 191 193 196 200 0 0 209 0 0 211 0 0 208 210 0 0 203 194 191 190 0 0 0 0 0 0 0 0 0 0 0 0 0 0 0 0 0 0 0 0 0 159 146 134 131 130 130 0 0 130 131 0 131 131 131 131 132 131 132 134 0 0 137 137 0 0 137 0 133 132 130 0 0 0 121 119 0 118 0 0 117 117 117 0 0 0 112 0 109 0 0 109 111 0 0 115 0 0 113 0 0 114 113 112 110 110 114 116 121 0 129 0 0 126 0 0 124 128 0 0 0 124 120 122 0 127 0 128 0 0 130 0 130 130 133 0 0 124 116 115 115 0 114 0 114 114 115 116 118 0 0 126 0 132 132 0 0 0 149 159 0 0 185 197 207 0 0 201 201 0 204 199 193 195 199 0 0 0 218 0 0 0 0 0 0 223 223 228 0 0 228 227 227 0 0 0 0 217 0 0 209 211 0 212 211 0 212 212 212 213 213 213 0 0 0 214 
0 0 108 108 109 0 0 109 109 110 111 0 0 0 112 0 0 111 111 111 110 110 110 109 109 109 110 0 0 112 0 0 111 0 0 0 0 100 101 0 0 0 0 0 0 0 0 106 106 0 107 107 107 107 107 0 107 108 0 0 106 0 106 106 107 108 0 107 117 155 0 0 0 0 0 196 190 202 0 0 0 0 0 219 218 218 218 218 0 0 0 0 0 167 138 137 140 145 0 0 0 0 151 146 137 149 0 0 0 0 202 202 202 202 0 202 202 0 202 203 0 203 202 203 203 203 0 202 202 203 0 203 0 204 0 203 204 0 205 205 0 204 0 204 204 204 204 0 0 0 204 0 203 0 202 0 201 0 200 199 198 199 199 199 0 0 0 0 197 196 196 196 0 0 196 196 196 0 0 196 196 0 196 196 0 0 196 0 195 195 0 0 193 192 0 190 0 190 190 189 0 0 188 187 186 0 0 0 0 0 0 177 174 172 174 0 0 0 178 0 175 0 0 164 162 162 0 160 0 159 0 159 160 0 0 157 155 154 154 0 153 0 154 155 156 157 160 0 0 0 174 174 0 0 171 0 0 161 157 155 154 153 0 152 152 0 151 151 151 151 0 0 152 0 0 158 0 159 0 160 159 159 158 158 157 158 0 158 0 0 158 0 0 0 158 157 0 0 156 0 157 0 157 156 156 0 0 0 154 153 152 0 150 150 150 150 150 0 0 148 148 147 147 147 147 0 0 146 0 145 145 145 145 145 144 0 144 144 0 143 0 142 142 0 0 0 143 143 142 142 0 141 0 0 140 139 140 0 141 142 0 0 141 144 0 0 147 148 153 158 161 170 183 0 205 0 0 0 0 192 188 0 0 0 187 187 0 188 188 0 188 187 187 0 0 0 0 188 188 188 0 0 187 0 186 186 186 0 186 0 0 187 0 0 186 0 0 187 187 187 0 188 189 0 190 193 198 0 0 0 0 0 0 0 0 208 209 0 0 0 196 192 191 190 190 0 189 190 0 0 0 0 0 0 0 0 0 0 0 0 0 0 0 0 0 0 0 166 146 135 133 133 0 0 0 133 0 133 132 132 133 133 133 136 0 0 138 139 0 0 136 135 0 0 131 0 0 0 0 121 119 117 118 119 0 0 0 117 0 112 111 110 109 108 0 110 111 113 0 0 0 0 109 112 0 113 113 112 108 109 114 117 0 0 129 0 0 0 0 0 126 128 0 0 0 121 118 123 0 0 0 129 0 132 130 130 130 130 134 0 0 120 118 0 114 114 115 0 114 114 115 115 116 118 122 124 0 0 131 0 0 0 151 0 0 0 0 201 0 0 0 201 199 0 202 199 196 192 196 0 0 0 0 0 220 219 217 218 220 222 222 226 231 0 0 225 227 0 218 215 0 215 0 0 208 210 0 0 211 0 0 211 0 0 212 212 212 212 212 212 
0 108 108 0 109 0 110 109 0 109 110 110 110 0 0 111 111 111 0 0 0 0 0 109 109 109 110 0 0 0 0 0 0 109 0 0 0 100 99 104 0 0 0 0 0 106 0 106 0 0 107 0 0 0 107 0 0 0 0 107 106 0 106 0 0 0 0 108 112 136 0 0 0 0 0 0 190 188 202 0 0 0 219 0 0 0 216 217 0 0 0 0 0 164 145 141 0 0 0 0 0 0 0 0 0 133 159 0 0 0 201 0 202 202 202 202 202 202 202 202 0 203 0 202 202 0 0 201 201 202 202 0 203 0 203 0 204 0 205 0 204 204 0 0 204 204 204 204 204 204 204 0 204 0 203 0 202 201 0 199 199 199 199 0 198 0 0 197 196 0 196 196 196 0 0 196 196 196 0 0 0 196 196 196 196 0 196 0 0 0 0 0 193 192 192 191 0 0 190 189 189 0 188 0 186 185 0 0 184 0 0 176 173 173 175 0 0 0 0 176 0 172 0 164 162 0 161 161 0 158 158 159 160 0 0 156 0 154 153 153 152 153 154 155 0 158 162 0 0 0 174 0 0 172 0 0 0 159 155 154 0 0 152 152 152 0 151 150 0 151 0 152 154 0 158 159 0 160 0 0 0 159 159 0 158 0 0 158 157 157 0 0 0 158 158 0 158 0 157 156 157 0 157 0 156 0 0 156 155 0 154 0 151 151 151 151 0 150 149 0 148 148 0 0 147 0 147 0 146 145 145 0 145 145 0 144 144 0 144 0 142 141 0 0 143 0 0 0 142 142 0 141 140 139 0 0 0 0 141 0 0 0 142 144 0 0 147 148 150 154 161 170 181 0 206 0 0 0 0 195 186 187 187 0 0 187 0 0 0 0 0 0 0 187 187 187 0 187 187 0 187 0 187 0 186 0 186 186 0 186 0 186 186 186 186 0 0 0 0 187 0 188 189 190 191 195 200 0 208 210 0 0 0 0 210 209 0 0 0 199 194 0 191 191 0 0 190 190 0 191 191 192 0 193 0 192 193 0 0 194 195 0 196 197 200 0 0 0 0 163 140 133 133 134 134 0 135 0 0 135 0 135 135 0 0 138 138 0 0 0 136 0 0 133 0 0 130 128 0 0 121 119 119 0 0 119 0 0 0 0 0 109 109 109 110 0 111 112 117 0 0 0 109 0 0 110 0 0 0 0 0 118 123 0 129 0 0 131 0 0 127 128 0 0 0 121 118 124 0 0 130 131 0 133 0 0 130 133 0 0 123 119 0 0 115 115 0 0 115 116 116 116 118 120 122 126 130 0 133 139 143 150 154 162 169 176 189 0 0 0 0 204 194 0 200 0 0 197 197 0 206 206 0 0 217 0 220 218 219 0 224 228 232 0 0 226 227 0 213 212 212 211 0 0 209 209 0 0 212 210 0 210 0 0 211 0 0 211 0 210 
106 0 108 108 110 0 109 109 109 0 0 0 0 0 0 110 110 111 111 0 111 0 110 110 110 0 110 109 109 110 111 0 0 110 0 107 0 101 99 101 0 0 108 107 106 104 105 105 0 0 107 0 0 0 0 0 0 0 108 107 0 106 106 0 107 0 108 0 108 121 0 0 0 0 0 0 0 186 189 0 0 0 0 218 0 0 216 217 0 0 0 0 187 0 157 143 143 0 144 139 136 140 146 146 138 124 138 0 0 0 201 201 0 202 202 202 0 202 202 202 0 202 0 202 0 202 0 0 0 0 202 0 202 0 202 203 0 0 205 0 0 204 204 0 0 204 0 204 204 204 0 204 0 0 0 203 0 202 0 199 199 0 199 0 0 0 198 0 197 196 0 0 0 196 0 196 196 196 0 0 0 196 196 0 195 196 196 195 0 0 195 195 0 0 0 0 191 190 0 0 189 0 188 187 186 185 185 0 184 182 179 175 173 174 176 0 0 179 177 175 0 0 166 163 162 0 0 0 0 0 158 158 0 0 0 155 154 0 153 152 0 152 0 0 0 158 163 0 0 173 0 0 0 0 0 0 162 157 154 153 153 153 152 0 0 0 151 0 0 151 151 154 0 0 0 160 0 0 0 160 0 160 0 0 159 158 157 0 0 157 0 158 158 0 0 0 0 0 0 157 0 0 157 0 157 157 0 156 156 0 0 154 0 0 0 0 151 0 150 149 149 148 0 148 0 0 148 0 0 146 145 145 0 0 145 0 0 0 144 0 142 0 142 0 143 0 0 142 142 0 0 141 140 140 0 139 139 140 139 141 144 0 145 145 0 0 147 148 150 153 160 0 179 190 202 217 0 0 0 199 187 187 187 187 0 187 187 187 187 187 186 186 186 186 0 187 0 0 0 187 187 0 186 186 186 0 185 0 0 186 186 186 185 185 0 186 186 0 186 187 0 0 189 191 0 0 202 0 0 0 212 0 0 211 210 212 0 0 202 195 194 0 0 191 191 0 191 190 0 191 0 0 192 192 0 0 193 193 0 194 194 195 0 197 199 0 0 0 0 0 0 142 134 0 136 0 136 137 0 137 137 137 138 0 0 136 136 139 0 139 135 134 133 0 0 131 0 126 126 0 0 0 121 0 0 119 0 0 0 0 110 108 109 0 110 112 113 114 0 120 0 116 110 0 113 110 112 0 0 0 0 118 122 0 130 0 0 0 129 128 128 0 0 0 0 122 121 0 0 0 129 0 0 133 0 0 131 0 0 0 118 117 0 117 116 116 116 116 117 0 0 119 120 122 0 0 0 0 136 0 146 0 157 163 0 176 186 0 0 0 0 0 198 0 203 0 0 203 206 0 209 207 0 0 219 0 0 0 220 0 224 0 0 0 0 225 226 0 212 0 0 211 0 212 0 209 0 0 0 209 0 209 0 210 209 210 0 209 0 209 
107 0 0 0 0 0 0 0 109 108 0 109 0 110 110 110 0 0 111 0 0 111 110 0 0 0 0 109 109 0 110 111 111 110 0 107 0 0 98 101 0 0 108 107 106 105 105 0 106 0 106 106 107 107 107 107 108 0 108 0 0 106 106 106 106 107 107 108 108 112 141 0 0 0 0 0 0 194 184 191 0 0 0 0 217 216 216 0 0 0 0 193 181 0 0 148 139 138 137 130 125 131 140 144 0 135 132 159 0 0 0 201 0 202 0 202 0 202 0 202 0 202 0 0 201 201 0 201 201 0 202 202 202 202 0 203 0 0 0 0 0 204 204 0 204 204 204 204 204 204 204 204 0 0 205 0 0 0 201 199 199 199 199 0 0 0 0 0 197 197 0 0 196 196 196 0 196 196 0 196 196 196 196 196 196 0 0 196 196 196 0 0 0 0 193 0 0 190 190 0 189 0 0 0 0 0 185 0 0 0 178 174 172 174 0 0 0 0 177 175 0 0 165 163 162 162 0 160 159 158 158 0 0 0 0 155 154 0 0 152 152 152 153 0 156 158 0 0 173 172 0 173 0 0 0 0 160 156 0 0 153 0 0 0 0 152 151 151 151 151 152 0 0 0 0 0 0 0 160 0 0 0 0 0 0 0 157 0 0 0 157 157 0 157 157 156 156 156 156 157 158 0 158 158 0 0 0 157 0 0 157 156 0 155 154 152 151 0 150 0 0 149 149 149 149 0 0 148 147 146 0 0 0 0 145 0 144 144 0 143 142 0 141 142 143 0 143 142 0 0 141 0 0 0 0 139 0 0 0 0 143 0 0 145 145 146 147 0 150 153 161 0 177 186 199 0 0 0 0 204 188 187 187 187 187 187 0 186 186 186 0 0 186 186 0 187 187 0 0 187 186 186 186 0 0 185 185 0 185 185 0 0 0 185 0 185 186 186 0 187 187 188 189 191 195 200 0 0 0 0 212 0 210 210 212 0 0 206 199 196 195 194 193 0 0 0 192 191 191 0 0 191 0 192 192 0 0 193 0 194 194 195 196 0 200 0 0 203 0 0 0 0 141 137 138 0 0 139 0 139 138 0 0 0 139 138 137 138 0 0 135 134 134 0 133 0 0 0 126 0 0 0 0 120 118 0 0 115 0 109 107 108 109 110 109 113 0 0 0 0 0 113 113 0 111 0 0 112 0 116 119 0 125 0 132 0 0 130 0 127 128 0 0 0 123 121 122 0 0 129 130 0 0 133 0 0 132 0 0 124 117 116 0 117 116 117 117 118 119 0 0 0 121 123 0 128 0 133 137 142 146 0 158 166 0 176 185 0 0 210 207 202 199 0 207 205 201 0 0 0 0 209 0 0 220 222 0 222 222 0 225 231 0 0 0 229 227 0 216 0 210 210 209 212 0 210 211 0 0 210 208 209 0 209 0 0 208 208 208 208 
107 107 0 109 0 0 0 0 0 107 107 108 109 0 110 0 110 110 110 0 0 111 0 0 110 109 108 109 0 0 110 111 0 0 109 0 105 0 98 99 104 0 108 0 107 0 0 0 0 0 106 106 107 107 107 106 107 0 0 107 107 106 0 106 106 0 0 0 0 109 125 0 0 0 0 0 0 0 193 186 195 0 0 0 217 217 0 0 0 0 0 189 182 0 0 158 138 137 0 0 127 132 0 0 0 0 134 141 0 0 0 201 0 201 0 202 0 201 0 0 201 201 0 201 201 201 201 201 201 0 0 201 0 201 0 0 203 203 0 0 203 0 204 204 204 203 0 0 0 204 0 0 205 205 0 0 0 0 0 200 0 199 0 0 198 0 198 198 0 197 0 196 195 196 0 0 196 196 196 196 196 196 0 0 0 196 195 0 0 0 0 0 194 194 193 0 0 191 190 0 189 188 188 187 186 186 0 0 0 0 0 174 172 173 0 0 0 0 0 175 0 169 164 162 162 0 0 0 158 157 0 158 159 0 0 155 153 152 152 0 0 151 152 154 156 160 0 0 174 174 0 0 0 164 162 160 158 155 154 0 153 0 0 153 0 152 151 0 0 151 152 0 0 0 0 0 0 0 0 0 0 0 0 0 0 0 0 0 0 0 0 156 0 0 0 154 154 154 155 0 0 0 0 0 158 158 158 0 159 0 158 157 0 0 155 152 151 151 151 151 0 150 149 0 149 150 0 148 147 0 0 145 145 0 0 144 143 143 0 0 142 141 141 0 0 0 0 141 141 141 0 0 139 0 0 139 0 138 0 142 143 145 0 146 145 147 0 149 151 153 159 0 176 184 199 0 0 0 0 209 190 187 0 0 0 0 0 0 186 186 0 0 0 186 186 0 0 187 0 186 186 0 185 0 0 185 0 0 185 185 185 185 0 0 0 186 0 186 186 187 188 189 190 193 0 0 0 0 0 212 0 211 209 212 0 0 207 200 199 197 0 195 194 0 0 0 0 192 0 192 0 0 0 192 192 192 0 193 0 194 194 195 196 197 0 202 203 203 203 202 0 0 163 141 140 0 141 141 140 142 0 0 141 0 0 0 136 136 0 0 136 134 0 0 133 131 0 0 125 0 0 122 0 0 0 0 0 110 110 111 0 110 0 110 112 114 0 0 120 0 0 115 0 113 113 0 113 111 0 115 118 0 0 0 131 0 0 129 0 126 128 0 0 124 121 121 124 0 129 130 0 0 0 132 131 0 0 0 0 119 116 117 0 119 0 118 119 0 120 121 123 0 124 122 126 0 0 134 138 143 148 0 158 0 0 178 188 0 0 0 0 200 204 0 0 0 201 0 212 0 0 215 218 220 0 222 0 0 222 0 229 0 0 0 235 0 0 219 213 0 209 0 208 212 0 212 208 211 0 0 208 208 0 208 208 208 207 207 207 207 
107 107 106 107 110 111 0 0 108 0 107 0 108 0 0 0 110 0 108 110 0 111 0 110 109 109 108 109 0 0 110 0 0 0 110 0 0 0 101 100 103 0 0 0 0 106 106 0 105 105 0 0 0 0 107 0 0 107 0 0 0 106 0 106 106 106 0 108 108 109 114 148 0 0 0 0 0 0 0 194 189 199 0 0 0 0 0 0 0 0 199 187 182 0 0 0 150 136 0 0 128 129 0 0 0 0 0 130 156 0 0 200 200 201 0 0 0 201 201 0 0 201 201 0 0 200 0 0 201 0 0 201 0 0 202 0 0 202 203 203 203 0 203 0 0 0 0 0 203 204 0 204 204 0 0 205 0 203 0 200 0 199 0 198 198 0 198 0 0 197 0 196 196 0 197 0 0 0 0 196 196 0 0 0 0 0 0 0 196 195 195 195 0 193 193 193 0 0 0 190 0 0 188 187 186 186 0 184 0 0 177 174 173 175 0 0 179 177 176 0 0 0 164 162 0 0 0 159 158 156 156 157 158 0 0 153 0 152 0 151 151 151 0 153 156 162 0 0 0 0 0 0 163 157 156 0 156 155 154 0 152 152 0 0 0 0 151 151 151 151 152 153 153 154 154 155 155 156 155 154 154 153 153 154 154 154 154 0 0 154 0 0 0 0 0 0 0 0 155 0 158 0 0 159 0 0 159 0 0 0 159 0 0 0 0 0 153 151 152 0 0 151 0 0 151 0 0 148 147 147 0 145 144 144 144 143 0 0 143 142 0 141 141 0 0 0 0 0 0 140 140 0 139 0 139 139 0 139 0 0 0 144 0 147 0 0 149 149 152 154 158 166 0 184 197 0 0 0 0 0 192 186 186 0 0 186 186 186 186 186 186 185 186 0 186 186 0 186 0 0 0 0 0 0 185 184 184 184 0 185 185 185 0 0 0 186 186 186 0 0 0 190 193 197 0 0 0 0 0 0 211 210 212 0 0 0 200 198 198 0 0 196 195 0 194 194 193 192 0 192 192 192 192 192 192 192 0 0 0 194 0 0 197 199 0 201 0 0 0 0 0 0 0 157 142 143 0 0 0 0 0 143 142 0 0 138 135 137 0 0 136 134 0 0 134 132 0 0 125 0 0 119 0 116 114 111 108 107 0 0 0 112 112 0 0 113 0 0 0 121 116 117 0 112 113 0 111 112 0 113 119 0 0 130 132 0 0 128 125 127 0 0 0 121 120 122 0 127 129 0 132 0 132 131 0 0 0 0 121 117 117 0 0 0 0 119 0 0 121 0 0 0 0 126 126 0 134 134 139 0 0 0 158 0 0 179 184 0 0 0 0 197 0 0 0 205 204 0 213 216 0 217 0 0 222 223 0 225 226 0 231 234 0 0 236 0 0 216 211 210 0 0 209 212 0 212 208 209 210 208 208 208 0 0 208 0 207 207 207 207 
107 0 0 0 0 0 0 109 108 108 107 107 108 0 109 109 109 0 109 109 0 110 0 0 0 0 109 0 0 109 110 110 0 111 110 0 0 0 0 98 0 0 0 109 107 106 106 105 0 105 105 105 0 107 0 106 0 106 0 107 106 104 105 0 106 105 106 0 0 109 109 128 0 0 0 0 0 209 0 0 196 192 202 0 0 0 0 0 0 0 0 187 183 0 0 0 0 138 136 0 126 123 134 144 0 0 0 123 136 0 0 0 0 0 201 0 201 0 201 201 201 201 201 201 0 200 201 201 201 201 201 201 200 201 201 202 0 0 203 203 203 0 0 203 203 0 0 203 203 0 0 0 203 0 0 0 0 0 0 200 199 199 0 198 0 198 0 197 197 196 196 196 0 0 197 196 196 0 0 196 196 0 0 0 196 197 197 196 196 196 0 0 0 0 0 193 0 192 191 190 0 189 0 0 0 0 0 0 0 0 176 173 173 175 0 0 0 176 175 0 0 166 163 162 0 0 160 0 0 0 0 155 0 0 0 152 0 0 0 0 150 0 0 151 155 0 0 0 0 0 0 0 155 151 153 0 0 154 154 0 153 0 0 0 152 151 151 151 0 0 0 152 152 152 152 153 0 0 153 152 0 151 0 151 151 151 151 151 150 151 152 151 152 153 0 152 152 152 153 0 0 0 159 159 159 159 0 0 159 159 159 0 0 158 157 156 154 154 153 153 152 152 152 152 152 0 0 148 147 0 0 145 144 0 144 0 0 0 0 141 141 141 0 0 136 135 0 0 0 140 0 139 139 139 139 139 139 0 140 0 142 143 0 146 0 0 150 149 0 0 158 164 174 183 195 0 0 0 0 0 195 185 186 186 0 186 186 0 0 0 0 0 0 186 186 0 186 186 185 185 184 185 185 185 0 0 184 0 0 0 185 0 185 185 185 0 186 186 187 188 190 191 196 0 0 0 0 0 0 0 210 211 0 0 0 199 198 0 198 0 0 0 196 195 0 0 0 193 0 192 192 0 0 0 0 192 192 193 194 0 195 195 196 0 0 202 202 203 202 204 0 0 0 0 150 144 145 0 0 0 145 0 0 0 0 138 138 0 0 0 0 137 0 0 0 0 129 0 0 0 119 117 116 114 111 107 104 104 111 0 0 114 114 0 0 115 118 0 0 122 118 118 0 113 115 0 113 113 114 116 0 123 127 0 0 0 130 125 123 0 0 0 124 0 0 0 0 127 0 0 0 0 0 0 0 124 121 0 119 118 119 121 0 0 122 121 121 123 124 124 125 128 0 0 131 0 0 0 141 146 152 156 159 0 0 175 177 189 0 0 197 191 0 0 202 196 204 0 215 0 0 216 217 222 0 224 0 223 0 0 228 233 0 0 234 232 0 220 212 209 0 0 211 212 0 211 208 208 209 209 0 208 0 0 208 208 0 207 207 207 
107 107 108 0 110 110 110 0 0 0 108 0 107 108 109 0 109 109 109 0 0 0 110 0 109 109 109 0 0 0 0 110 110 110 110 108 107 105 102 98 100 0 0 0 108 0 0 106 0 0 105 104 105 106 0 106 105 106 0 106 0 104 104 0 0 0 106 0 108 108 108 115 150 0 0 0 0 210 0 0 0 197 196 0 0 0 0 0 0 202 194 186 182 0 0 0 159 139 136 0 126 122 0 0 0 0 0 121 121 0 0 0 200 0 201 201 200 200 0 201 201 0 0 201 0 0 0 0 0 200 0 0 201 0 201 201 202 0 203 0 203 0 202 0 203 203 0 203 0 203 203 203 203 203 203 0 0 0 0 0 199 0 0 198 198 198 197 197 0 196 0 0 196 0 0 196 196 196 196 196 196 196 0 0 0 197 0 0 196 0 0 195 0 195 0 193 0 0 191 190 189 189 0 187 186 186 0 0 0 0 175 172 172 174 0 0 0 175 0 0 0 164 162 161 160 0 159 0 157 156 155 154 154 0 153 151 0 150 149 149 149 149 149 150 151 155 159 160 160 158 155 152 150 150 151 153 0 0 0 0 0 152 0 152 0 151 0 0 151 0 151 151 0 152 152 152 153 153 152 152 152 151 151 150 0 149 150 150 150 150 150 150 0 150 151 151 150 151 152 154 156 157 0 0 159 159 159 0 0 0 0 0 0 0 0 157 156 0 0 154 153 154 0 0 0 152 0 149 148 147 0 146 145 144 144 0 0 0 0 141 141 141 0 138 134 130 135 0 0 0 0 0 0 139 138 0 0 139 140 0 141 142 144 145 0 0 150 151 0 0 158 164 0 181 192 211 0 0 0 0 199 187 186 186 0 0 0 186 185 185 185 0 0 185 0 185 0 0 185 0 0 184 184 184 0 184 184 0 0 184 0 0 185 185 185 0 186 0 187 189 192 194 200 0 0 0 0 0 212 210 212 0 0 0 198 196 196 0 0 0 197 0 0 0 195 0 194 0 0 192 192 0 191 191 0 192 0 193 194 0 195 195 197 0 0 203 0 0 0 204 0 0 0 0 173 148 145 146 0 0 146 0 0 145 143 0 142 0 0 139 0 139 0 0 137 132 130 0 0 0 118 116 114 0 0 106 105 106 0 0 115 114 0 115 0 115 119 0 0 0 121 0 0 117 0 0 114 114 115 119 0 126 129 0 0 131 129 126 0 0 126 124 0 121 121 122 124 0 0 0 0 126 0 0 123 120 119 0 119 120 0 122 0 124 122 0 124 124 126 0 0 130 0 0 133 136 137 141 145 150 155 158 163 0 0 176 180 184 187 0 193 192 0 0 199 196 0 212 216 0 0 219 218 0 0 0 0 220 224 0 227 229 0 0 236 0 225 0 0 208 207 209 0 212 212 211 209 209 209 0 0 208 0 0 208 0 0 0 0 207 
108 108 0 110 110 110 110 0 0 108 0 108 107 0 0 0 0 0 109 108 0 0 0 0 0 0 0 109 0 0 109 0 110 0 110 0 0 0 0 99 99 0 0 109 108 0 0 106 105 0 0 106 0 105 106 106 106 106 0 106 0 105 105 106 106 106 105 107 0 0 109 111 130 0 0 0 0 0 210 0 0 0 195 199 0 0 0 0 0 199 0 185 182 184 0 0 0 142 135 0 0 116 122 0 0 0 0 124 114 141 0 0 199 200 0 0 0 200 200 0 0 200 0 0 0 201 201 200 0 0 199 0 201 200 200 0 0 202 0 0 0 202 202 202 0 0 203 0 202 202 0 202 0 201 202 0 202 200 199 199 199 0 198 197 0 0 0 0 197 0 197 0 196 196 196 196 0 0 0 0 196 196 0 0 0 0 0 197 0 196 196 0 0 195 194 193 0 192 191 0 189 189 188 187 0 0 186 0 0 0 0 172 172 174 0 0 0 175 174 0 0 163 161 160 159 0 158 0 0 0 154 153 0 0 149 149 148 0 0 147 0 0 147 0 149 149 150 151 151 149 149 149 149 0 0 151 0 153 153 0 152 152 0 151 0 151 0 150 150 0 151 151 0 152 152 152 0 0 0 0 0 152 151 151 0 150 0 150 150 150 150 150 150 150 150 150 150 0 151 153 155 157 0 0 159 0 159 159 0 0 0 159 0 0 0 0 0 0 0 155 154 0 0 0 0 152 150 150 149 148 147 146 0 0 144 143 0 143 0 0 141 0 0 0 0 129 132 0 0 139 139 0 0 0 138 137 0 139 139 140 141 0 0 144 148 0 152 156 160 161 161 165 0 181 193 209 0 0 0 0 201 186 186 186 186 186 186 0 185 184 0 185 185 185 185 185 0 185 0 0 0 0 184 184 184 0 184 0 0 184 184 185 185 185 185 0 0 187 0 191 194 199 0 0 0 0 0 0 210 212 0 0 0 196 192 193 194 195 0 197 197 0 196 0 0 194 194 194 0 0 191 0 191 192 0 193 0 0 194 0 0 0 197 0 0 203 202 203 0 204 205 205 0 0 0 162 146 146 0 0 146 146 146 146 145 145 0 144 0 138 0 0 0 0 138 0 0 125 121 120 0 0 112 110 0 108 108 0 0 0 0 113 0 116 0 118 123 0 0 0 121 0 0 0 0 0 117 0 0 121 124 0 0 0 129 128 0 0 0 0 0 121 120 119 121 123 0 0 0 0 123 122 0 122 123 0 120 120 119 0 0 122 0 124 124 0 0 0 0 0 0 132 133 134 136 0 141 144 150 0 0 0 0 174 176 180 0 186 184 189 192 200 0 0 199 203 0 212 216 0 0 0 223 0 225 222 0 221 223 223 225 228 0 0 0 0 218 0 0 208 207 208 0 0 210 0 0 0 209 0 209 209 0 0 0 208 208 0 207 207 
110 110 111 0 112 0 0 110 109 108 108 108 0 0 108 108 108 109 0 108 108 109 0 108 0 110 0 109 109 109 107 108 0 0 0 0 108 0 0 100 99 0 0 0 0 108 107 106 105 106 0 0 106 0 0 0 0 107 0 107 0 106 0 0 0 0 106 0 0 108 0 108 116 153 0 0 0 0 209 0 0 0 201 198 203 0 0 200 198 0 0 186 182 184 0 0 0 147 129 130 0 116 118 0 0 0 0 0 117 126 0 0 0 0 200 0 200 200 200 200 0 199 200 200 0 0 0 0 0 0 200 0 0 199 200 0 0 201 202 202 202 202 0 202 0 0 202 202 202 0 0 0 0 0 0 0 0 0 0 199 199 0 198 198 198 197 0 0 196 0 197 0 0 196 196 196 0 0 0 0 196 196 0 0 196 196 196 0 0 196 196 196 195 195 0 193 0 192 191 0 190 0 188 0 187 0 0 0 182 179 175 172 172 175 0 0 176 175 0 0 166 162 160 159 0 0 157 156 0 0 153 152 0 149 148 147 147 147 0 146 146 0 145 146 0 0 148 148 148 147 0 0 148 0 0 149 0 0 0 152 152 0 151 0 151 150 150 0 0 151 0 151 0 152 152 0 0 153 153 0 0 0 152 0 151 150 150 150 0 0 0 0 0 0 150 150 150 150 151 0 0 157 158 0 158 0 158 0 0 158 159 0 160 160 160 160 159 0 157 155 0 153 155 154 152 152 151 0 0 148 147 146 0 145 0 0 0 143 142 142 142 0 139 136 131 126 130 0 138 139 0 0 138 138 0 138 138 0 139 140 0 0 144 145 149 0 158 0 0 0 0 164 172 182 193 211 0 0 0 0 206 188 185 0 0 185 185 0 0 0 184 0 0 185 0 0 0 184 184 184 184 0 184 0 183 0 183 183 184 184 184 185 0 185 185 0 186 187 189 193 0 0 0 0 0 0 0 209 212 0 0 0 191 187 188 0 0 194 0 0 0 196 0 195 194 194 0 194 0 192 191 191 192 0 0 193 0 194 0 195 195 0 198 0 0 202 0 203 204 204 0 0 204 0 0 0 154 146 145 145 145 146 147 0 0 147 0 0 0 139 139 0 0 0 0 0 0 123 120 0 0 114 110 109 109 110 0 116 0 118 0 114 117 119 120 122 125 0 0 126 121 120 0 0 121 0 118 118 120 123 126 0 0 0 0 0 0 0 0 0 0 118 118 119 121 0 0 0 123 0 121 0 119 120 0 0 121 0 122 0 123 123 0 127 127 0 128 0 0 131 132 0 0 138 140 0 0 150 0 160 166 0 0 0 178 183 0 0 190 191 195 207 0 204 201 0 208 211 213 0 0 225 224 0 0 220 221 0 0 0 227 231 0 0 0 0 215 0 0 210 207 208 209 209 209 0 0 210 0 209 209 0 0 210 0 208 208 208 207 0 
0 0 112 0 0 0 112 110 109 0 0 0 0 108 107 108 0 108 0 0 0 0 0 107 0 0 109 0 0 0 108 108 0 108 109 108 107 106 104 101 98 102 0 0 109 108 107 0 0 106 106 106 106 0 0 0 0 107 107 0 107 106 107 0 0 106 104 0 0 107 107 108 110 134 0 0 0 210 209 0 0 0 0 202 200 200 198 192 193 0 0 188 184 185 0 0 0 153 130 128 0 0 116 0 0 0 0 0 122 118 153 0 0 199 0 199 199 0 200 200 200 200 0 200 200 200 0 0 200 200 200 200 0 0 0 0 201 201 0 0 202 0 0 202 202 0 201 201 0 0 201 201 200 0 200 200 0 200 199 199 199 0 0 0 0 198 198 0 197 197 197 0 196 0 196 196 196 195 196 0 196 196 0 0 0 196 196 0 0 0 0 196 0 195 0 193 193 0 191 0 0 189 0 0 187 187 0 0 0 0 174 173 172 175 0 0 176 0 0 0 164 162 0 159 158 157 156 155 0 154 153 0 150 148 0 0 145 0 0 145 0 0 0 144 143 0 146 0 146 0 146 0 146 147 0 148 150 0 0 152 0 0 151 151 151 0 0 151 151 151 0 0 0 152 0 152 0 153 153 0 152 152 0 152 151 0 151 150 150 149 0 149 149 0 0 0 150 0 152 0 0 157 0 0 157 0 158 0 157 157 0 0 0 160 161 0 0 0 157 155 154 153 153 152 151 0 0 0 0 148 147 0 146 0 0 145 0 0 142 0 0 0 0 138 134 131 134 0 139 0 0 0 138 0 138 138 138 0 139 140 142 0 0 146 151 0 0 0 0 160 0 163 169 181 196 216 0 0 0 0 210 189 185 185 185 184 184 185 185 0 184 184 0 0 0 184 184 184 0 0 183 183 0 183 183 0 0 183 0 184 0 0 0 185 185 185 186 189 191 197 0 208 0 0 0 212 210 212 0 0 0 184 181 182 0 0 0 0 194 195 0 0 0 195 194 194 0 0 193 192 192 192 0 0 0 193 193 194 0 0 195 0 198 199 0 202 0 0 0 0 0 0 204 205 0 0 0 149 144 144 145 0 147 0 0 148 147 0 0 138 137 140 0 139 0 132 126 122 119 0 117 114 0 0 108 112 0 118 0 0 116 117 0 0 0 0 126 0 0 0 0 118 0 0 119 120 119 120 0 0 0 0 123 120 120 121 0 121 0 118 117 118 117 119 0 0 0 123 0 117 117 0 116 120 0 0 120 121 0 0 123 124 0 129 0 130 129 0 132 132 133 0 0 139 144 0 0 155 0 0 170 175 0 179 177 185 0 192 194 0 205 0 0 207 0 0 207 208 215 0 0 0 224 0 0 222 0 0 222 0 0 231 0 0 0 0 213 212 0 0 208 0 0 0 0 209 209 0 0 210 0 209 0 210 0 0 0 0 0 0 
0 112 112 113 114 0 0 0 0 109 0 0 108 108 0 0 0 109 0 0 108 108 0 108 109 109 108 109 109 109 0 108 108 0 109 109 0 0 0 0 98 98 0 0 0 0 0 0 108 107 107 106 106 106 106 107 107 0 0 0 107 106 0 0 0 0 106 106 106 106 106 108 109 121 0 0 0 0 0 209 0 0 0 0 205 202 199 197 197 0 0 189 184 185 0 0 0 0 133 128 0 0 113 111 130 0 147 0 129 117 140 0 0 0 199 199 199 0 0 0 200 0 199 0 0 200 0 0 200 199 200 200 0 0 200 201 0 201 0 0 201 0 0 201 201 0 201 201 0 201 200 200 200 200 0 199 0 199 199 199 0 0 0 0 0 198 0 0 197 197 0 196 196 196 0 196 0 195 0 196 196 0 0 197 0 0 0 196 196 196 196 0 0 195 194 193 0 0 0 190 190 189 188 188 0 187 0 185 0 178 175 172 172 0 0 0 175 0 0 167 163 161 0 0 157 156 0 0 0 0 152 0 0 147 145 144 144 144 144 143 143 144 144 0 143 0 0 144 144 0 144 0 0 146 146 147 0 0 0 0 0 151 0 151 151 0 151 151 0 0 151 0 0 0 152 0 0 153 153 153 0 0 0 0 0 0 0 151 0 150 0 149 149 149 149 149 0 0 152 0 0 0 0 156 0 0 0 157 156 157 0 159 0 161 0 0 0 0 158 0 154 153 153 0 152 151 151 0 0 0 0 146 146 0 0 145 144 144 0 143 143 0 142 0 0 138 0 0 140 0 139 137 137 0 138 0 0 138 139 0 0 143 0 148 155 0 0 0 166 159 160 164 171 181 197 219 0 0 0 0 213 190 185 0 184 0 0 0 0 0 0 184 184 0 0 184 183 0 0 0 0 0 0 0 183 183 183 183 183 184 0 185 185 185 186 0 188 192 197 0 0 0 213 0 213 212 212 0 0 0 179 175 178 0 183 186 0 0 193 194 195 195 0 0 0 194 193 193 0 0 0 192 192 192 0 193 193 194 195 0 196 197 198 199 0 201 0 203 204 0 0 0 0 0 0 0 0 162 144 144 0 0 148 149 0 148 147 0 0 140 137 0 0 135 133 0 125 121 0 0 115 113 112 0 110 0 0 120 0 0 120 0 0 0 0 0 126 0 0 122 0 118 120 121 118 0 0 0 0 0 0 0 114 115 116 116 117 117 0 117 116 0 0 0 0 0 0 0 0 111 112 114 117 0 122 121 121 0 123 0 124 0 0 0 0 132 0 0 133 133 135 0 0 0 144 0 155 159 0 0 0 0 0 0 181 184 0 0 195 202 210 0 0 211 0 0 0 209 216 222 226 0 227 0 0 0 0 0 221 222 226 229 0 0 0 224 213 210 210 0 208 208 208 208 0 209 209 209 0 210 0 0 0 210 210 0 209 209 0 209 
113 113 0 0 0 0 112 0 0 109 108 108 107 107 0 108 109 109 109 108 0 0 0 110 0 109 108 0 0 109 108 108 0 109 0 0 0 0 106 0 99 96 102 0 0 0 109 0 0 0 0 0 107 107 0 107 0 107 107 0 0 106 106 107 0 0 107 106 106 0 107 0 110 113 141 0 0 0 0 209 210 210 0 0 0 0 0 0 0 0 0 189 184 183 0 0 0 0 136 125 0 0 108 105 0 0 0 0 0 121 131 0 0 0 199 199 0 199 199 0 0 0 199 199 0 0 0 200 199 0 200 0 0 200 200 0 0 0 0 201 200 0 0 0 201 0 201 0 0 0 200 0 0 0 0 199 199 199 199 199 0 198 0 198 0 198 198 198 0 197 0 196 196 0 0 0 196 196 196 196 196 0 0 197 197 0 196 195 196 0 196 195 195 0 194 0 0 193 191 0 190 0 189 188 187 187 0 0 0 178 174 172 172 174 0 0 0 0 0 166 163 0 159 0 157 156 155 154 154 0 152 0 0 0 145 0 142 142 143 0 143 143 0 143 0 0 0 142 142 142 143 0 144 145 0 0 146 147 0 0 0 151 0 0 0 0 150 150 0 0 151 0 151 0 151 152 0 0 0 153 0 153 153 153 0 0 0 151 151 150 0 0 0 149 0 149 148 150 0 153 0 0 0 155 155 156 0 0 156 156 0 158 0 0 0 0 0 0 158 156 155 154 0 153 0 0 150 151 0 0 148 146 146 0 145 145 0 0 0 143 143 0 0 0 142 0 0 141 0 0 0 137 137 0 137 137 137 138 139 0 0 0 144 149 156 0 0 0 0 0 160 165 0 184 198 220 0 0 0 0 216 192 185 184 184 0 183 184 0 0 0 184 184 184 0 184 0 183 182 181 181 181 181 182 183 183 183 183 0 184 0 185 0 0 188 190 193 197 0 0 0 0 0 214 213 0 0 0 0 173 167 171 175 0 181 184 0 0 0 0 0 195 195 195 0 194 193 192 0 0 192 192 192 192 0 193 0 194 0 0 196 0 0 0 0 0 0 0 203 0 204 0 0 0 203 0 0 0 151 144 0 0 0 148 0 0 146 146 0 0 138 0 0 132 0 0 123 122 0 120 114 113 112 111 113 0 115 122 0 123 119 0 124 0 0 0 124 124 122 119 119 121 0 0 122 0 121 121 0 0 115 110 109 0 0 0 0 115 0 0 117 0 0 119 119 0 0 114 0 109 112 113 115 119 0 122 122 0 123 0 125 0 0 130 0 134 0 0 135 137 0 137 138 0 148 0 157 161 0 172 174 179 0 0 183 185 0 0 201 207 215 0 216 208 211 0 0 0 0 222 0 0 225 0 0 225 0 0 223 224 225 230 0 0 0 0 212 210 209 0 209 207 0 208 208 0 0 209 209 210 210 0 0 0 0 0 209 209 0 209 
0 0 112 112 112 0 110 109 109 109 0 0 0 0 0 108 0 0 0 109 109 109 0 0 0 0 109 109 109 109 0 108 0 109 110 110 109 0 0 0 99 95 98 104 0 0 109 0 108 107 107 0 0 0 0 107 0 107 107 106 106 105 105 0 0 0 0 107 0 106 107 0 109 110 125 0 0 0 0 210 0 210 0 211 0 0 0 0 202 0 0 190 184 182 185 0 0 0 142 127 0 0 110 101 112 135 0 0 0 125 124 0 0 0 199 199 0 199 199 199 199 199 0 0 0 0 199 199 0 0 200 0 200 199 199 200 200 199 200 0 200 200 200 200 0 0 200 200 199 0 0 0 199 199 0 199 199 199 199 0 0 0 0 0 0 198 198 198 0 197 196 196 196 196 0 0 195 0 0 0 196 196 0 0 197 0 196 196 0 196 0 0 0 194 0 194 0 0 192 191 190 0 0 0 0 187 186 0 0 0 173 171 172 0 0 0 0 0 167 164 162 160 158 0 156 0 0 154 153 0 0 0 0 146 144 0 142 0 142 0 0 0 0 142 0 143 0 0 141 0 142 143 144 144 145 0 145 146 148 0 0 150 150 0 149 0 0 149 150 151 151 151 0 151 0 0 152 0 0 152 0 0 0 153 153 0 152 0 0 0 151 0 0 149 0 149 148 0 150 151 0 153 153 153 153 154 155 155 154 0 0 0 157 159 0 162 0 0 158 156 0 0 153 153 0 151 151 0 150 0 148 0 145 0 145 144 0 144 143 143 143 143 142 0 0 143 142 141 0 140 139 0 0 0 0 137 137 0 138 139 0 143 144 148 155 0 0 164 164 161 159 167 0 187 199 222 0 0 0 0 0 194 184 184 0 183 0 183 184 0 184 184 0 0 0 0 0 182 181 181 181 181 181 0 0 183 183 183 0 184 185 185 186 187 189 192 198 0 0 212 0 0 214 214 0 0 0 191 173 163 163 167 172 0 0 0 0 0 0 0 0 0 0 195 0 194 193 193 0 0 192 0 0 192 192 193 194 0 194 0 0 0 0 199 0 0 202 202 0 203 0 0 203 202 202 0 0 0 163 145 144 0 0 146 147 0 145 0 0 0 137 0 132 131 0 125 122 0 0 120 117 0 0 111 0 0 116 0 0 0 121 120 123 0 0 127 125 0 0 121 120 124 0 0 122 0 120 118 0 112 108 106 0 0 115 0 113 110 114 0 117 0 0 116 115 0 0 109 108 0 0 0 115 118 0 0 122 0 124 0 126 0 0 131 130 133 0 0 137 0 0 139 137 144 0 0 162 166 0 171 175 178 0 0 180 184 0 0 209 0 0 0 0 212 0 212 212 214 0 0 0 0 222 225 0 221 225 225 225 0 227 232 0 232 227 0 213 212 211 0 0 207 208 0 208 208 0 209 209 211 211 211 210 210 0 0 0 0 0 210 
0 113 111 111 0 110 109 109 0 0 0 0 107 107 107 107 108 0 109 0 0 108 108 0 0 0 0 0 0 109 0 108 0 0 0 0 0 0 107 0 100 94 97 0 0 0 0 0 107 107 106 0 0 0 0 0 0 107 0 106 105 104 105 106 107 0 0 107 107 106 106 107 107 108 115 149 0 0 0 210 0 0 0 211 0 0 0 0 202 0 0 192 185 182 184 0 0 0 149 133 0 0 0 110 115 0 0 0 0 127 119 151 0 0 199 199 199 199 199 199 199 199 199 199 199 199 199 199 0 0 200 200 199 0 0 0 199 199 0 199 0 0 0 199 0 200 200 0 199 199 199 199 199 199 199 199 199 199 199 0 198 0 0 0 198 198 198 0 0 197 196 0 196 195 0 196 196 0 196 196 196 196 196 0 197 0 196 0 0 195 0 0 0 195 194 193 193 192 0 0 190 190 0 189 0 187 186 0 181 177 172 171 171 173 0 0 0 167 165 163 161 0 158 157 155 155 0 0 153 152 151 0 0 145 143 142 141 141 0 141 142 0 0 141 0 142 0 141 141 141 142 0 0 144 144 0 145 0 146 0 0 0 149 148 148 149 149 0 0 0 0 151 0 150 151 151 151 0 152 152 152 152 0 152 0 152 0 0 0 0 151 150 150 150 150 0 149 149 150 151 0 153 153 153 0 153 153 153 0 154 0 155 157 159 0 0 0 0 158 0 155 154 154 0 0 0 151 0 149 149 147 147 146 145 0 145 0 144 143 143 143 143 143 0 0 0 142 141 0 140 0 139 0 138 0 137 137 0 138 140 142 144 146 151 0 0 164 166 0 159 159 0 0 191 203 223 0 0 0 0 0 196 184 184 0 182 183 183 0 183 0 0 183 183 183 0 182 181 181 0 0 182 0 183 183 183 183 183 0 0 0 186 187 189 192 199 0 0 0 0 0 213 212 0 0 0 190 175 167 162 161 165 170 0 178 181 184 0 0 0 193 194 0 195 0 0 0 193 193 0 192 0 191 192 0 0 194 0 195 0 196 197 0 199 199 201 0 202 202 202 202 202 0 201 201 0 200 0 0 148 143 144 0 0 146 0 145 144 143 0 0 0 131 0 0 123 123 0 0 122 0 0 113 113 0 0 117 0 0 0 123 122 125 0 0 126 123 0 0 119 120 0 0 125 119 119 0 0 0 0 105 104 0 0 0 0 110 108 112 0 114 116 0 113 112 0 112 0 109 110 111 113 114 118 121 0 122 0 123 124 126 0 0 132 131 136 0 143 143 0 0 0 140 147 0 0 164 0 0 174 0 0 0 0 180 184 0 0 0 0 0 0 216 206 0 209 202 208 215 0 220 220 0 225 0 221 0 0 228 0 231 234 0 229 216 0 216 0 212 212 0 209 210 0 209 209 209 209 212 0 0 212 211 210 211 211 0 211 0 210 
113 0 0 111 110 109 109 109 0 108 107 0 107 0 0 107 107 108 109 109 109 108 108 0 109 108 0 108 108 0 0 109 109 109 110 0 0 109 0 0 100 96 95 0 0 0 108 108 0 0 106 106 106 106 106 107 0 108 0 0 0 0 106 0 106 107 108 0 0 0 0 107 107 107 111 131 0 0 0 0 210 211 210 211 211 0 0 205 199 199 0 0 187 183 183 0 0 0 155 136 130 0 118 114 113 121 0 0 0 131 120 143 0 0 0 0 0 0 199 199 0 0 199 199 199 199 199 0 0 199 0 0 0 0 0 0 199 199 199 199 199 0 0 199 199 199 0 0 199 199 199 0 198 0 199 199 199 0 0 0 0 0 198 198 0 198 0 0 197 197 0 0 196 196 0 0 196 0 196 0 0 196 196 0 197 0 196 0 196 196 0 195 195 195 0 0 192 0 0 0 191 0 189 189 0 188 0 0 0 176 173 171 170 172 0 0 169 166 164 162 160 0 0 0 0 0 0 0 0 151 0 149 147 144 143 0 0 0 0 141 141 141 141 141 141 140 141 141 0 0 141 0 0 143 0 144 144 0 144 0 146 0 0 147 0 0 149 149 149 150 150 0 0 150 0 151 151 0 152 152 0 0 0 152 152 152 151 150 0 0 0 149 150 0 0 0 0 149 150 0 0 0 0 0 152 152 0 153 153 153 0 154 0 0 0 0 0 0 0 157 0 0 0 0 153 152 151 150 150 0 0 0 146 145 145 0 144 144 144 0 143 143 0 0 0 0 0 0 0 139 139 139 138 137 0 137 0 0 139 140 142 145 0 0 157 159 164 0 0 161 162 0 0 191 205 224 0 0 246 0 0 197 184 0 0 183 183 0 183 183 183 183 182 182 0 182 181 181 181 181 182 0 0 183 183 183 183 183 184 185 0 187 190 194 199 0 0 0 0 0 213 212 0 0 0 189 177 171 167 162 161 164 167 0 0 0 183 186 189 0 193 194 0 195 0 194 0 193 0 0 192 191 0 0 192 0 0 194 0 0 196 0 0 199 199 0 0 0 0 201 201 201 201 0 0 200 199 0 0 154 144 143 144 145 0 0 0 0 0 0 134 130 0 125 0 124 123 0 124 122 0 0 116 116 0 115 115 0 0 124 122 0 0 0 0 0 122 0 0 116 118 122 124 0 119 116 116 113 111 0 105 103 0 107 107 0 108 0 0 0 111 113 0 111 108 109 109 0 0 110 111 0 114 0 120 123 124 0 122 125 129 0 0 0 135 0 0 0 145 0 143 143 143 0 0 158 164 0 0 172 175 0 179 181 182 183 0 199 207 218 0 0 216 206 0 0 202 0 212 214 0 220 0 224 0 221 227 0 229 0 234 236 0 0 215 0 216 0 210 211 0 210 0 0 211 209 209 210 0 0 0 211 0 0 0 211 0 0 211 211 
0 0 111 0 0 110 109 109 0 107 0 0 107 0 0 108 107 0 109 0 0 109 109 109 109 0 108 107 0 0 0 0 109 0 109 109 0 0 0 0 102 98 94 94 0 0 0 0 107 106 106 106 104 105 106 107 0 108 108 0 106 0 0 0 0 0 0 0 0 108 108 0 0 108 109 119 0 0 0 0 0 0 0 0 211 0 0 204 199 199 0 0 0 183 182 0 0 0 0 137 129 121 116 0 0 117 127 139 142 136 125 137 0 0 0 198 198 0 0 199 199 199 199 199 199 199 199 199 199 199 199 199 199 199 199 199 199 199 199 199 199 0 199 199 199 199 199 199 199 199 199 0 0 0 199 199 0 0 198 0 0 0 198 198 0 198 197 197 197 197 197 197 0 196 0 195 195 0 196 196 0 0 196 0 0 0 196 196 196 0 0 195 194 195 0 0 193 193 192 192 191 0 190 189 0 188 0 0 181 176 173 171 170 171 0 169 166 164 163 0 160 0 156 156 155 153 153 152 0 150 0 0 146 144 142 141 0 0 0 141 141 141 0 140 0 141 141 141 0 141 141 0 142 142 143 0 144 0 144 144 145 0 0 147 147 148 0 0 148 0 0 150 0 150 0 0 0 151 151 0 0 152 0 0 152 0 0 151 150 151 0 0 0 150 149 150 0 0 151 152 153 0 153 152 152 152 0 0 153 153 153 153 154 155 156 157 0 158 0 0 0 154 0 154 153 0 0 151 150 150 0 148 146 146 0 0 144 144 0 0 144 143 144 144 0 144 142 142 141 140 0 0 0 137 136 137 0 138 139 140 143 146 150 0 158 159 166 0 0 165 166 0 182 190 205 225 0 0 246 0 0 199 184 0 183 183 0 0 183 182 0 0 182 0 0 181 181 181 0 181 0 0 182 0 183 183 0 183 185 0 188 190 194 0 0 0 0 0 0 212 212 0 0 0 188 180 177 0 0 166 163 165 169 173 0 181 0 186 0 191 0 0 0 0 194 194 0 193 192 192 0 0 0 0 191 192 193 194 0 196 196 0 0 199 199 0 0 0 0 201 0 200 200 0 0 199 198 0 0 163 144 143 0 0 145 144 142 140 140 0 0 127 122 120 122 123 0 0 125 123 123 0 0 117 0 0 116 0 0 123 122 0 126 0 124 0 122 121 0 116 117 0 0 0 120 117 114 114 112 108 104 103 104 104 103 103 105 106 107 107 107 110 0 108 109 109 109 111 0 111 0 0 116 0 122 124 0 0 125 127 131 0 0 133 0 0 0 0 145 143 143 0 147 0 0 157 161 0 0 172 173 176 181 0 0 184 0 201 204 215 0 0 217 214 214 0 209 212 0 212 0 0 224 226 0 229 0 0 227 0 0 0 0 0 215 214 215 0 209 212 0 208 211 0 0 210 209 212 0 0 213 212 0 212 0 0 0 0 0 0 
0 110 110 110 110 110 0 0 109 108 107 0 107 107 107 0 108 0 0 108 0 109 0 109 108 0 108 107 108 0 108 0 109 109 108 109 0 110 109 0 0 0 94 90 91 0 0 0 0 0 0 0 106 0 0 107 0 0 0 0 106 106 106 106 106 0 0 0 108 108 0 0 107 107 108 112 141 0 0 0 0 212 212 0 211 0 0 0 198 198 0 0 192 185 182 0 0 0 0 135 129 0 117 112 114 114 121 0 0 0 132 134 0 0 0 0 0 198 0 0 0 199 0 199 199 199 0 0 0 0 199 199 199 199 199 199 199 199 0 199 199 0 199 199 199 199 199 199 199 199 199 0 0 0 199 199 0 198 198 0 198 0 198 0 0 0 197 197 197 197 0 197 0 196 0 0 0 196 196 196 0 0 196 196 0 0 0 196 0 196 0 196 195 195 0 194 0 0 0 192 0 191 0 189 188 0 0 0 181 0 173 171 170 170 0 167 165 163 0 160 159 0 156 0 154 153 152 151 150 150 0 0 0 143 0 141 141 141 0 0 141 141 0 140 0 141 0 141 141 141 0 0 141 141 142 143 0 144 0 144 0 145 145 146 0 0 148 148 148 0 149 149 0 150 150 150 0 0 0 0 0 152 0 152 151 0 0 0 0 150 150 150 150 0 150 150 0 150 151 0 0 152 152 152 152 152 152 0 0 0 153 153 153 154 0 154 155 156 155 155 155 154 0 154 154 0 0 0 152 0 150 148 0 0 0 144 144 0 0 0 0 144 0 144 144 144 0 0 141 0 140 0 0 137 137 137 0 138 0 140 0 0 150 0 0 161 165 0 0 169 0 0 181 190 210 0 0 0 246 0 0 200 184 183 183 183 0 183 0 0 0 0 181 181 181 181 181 0 181 181 0 182 182 182 0 184 0 185 0 188 190 197 203 0 0 0 0 214 211 212 0 0 0 188 182 181 0 0 173 170 167 169 172 175 0 181 184 186 189 191 192 0 0 194 193 0 0 0 192 0 191 0 0 0 192 0 0 0 0 196 196 0 0 199 199 199 200 200 201 201 201 199 199 199 199 0 197 0 0 167 146 143 0 0 0 0 142 139 139 0 0 124 119 119 0 0 125 0 0 0 123 0 121 117 117 0 115 0 0 124 125 0 0 0 119 0 0 121 0 119 116 118 119 0 0 0 117 0 0 0 0 103 103 103 102 101 103 0 104 103 104 107 0 109 108 0 110 0 0 112 0 116 0 0 0 125 0 0 0 0 131 0 134 132 0 137 0 0 145 140 0 0 0 149 151 153 160 0 0 174 0 0 0 0 0 191 0 0 207 214 0 0 217 0 0 0 0 213 0 216 221 0 228 0 0 0 0 233 232 0 233 231 0 0 216 215 0 0 212 213 0 211 212 0 0 214 212 214 0 0 212 212 212 212 212 212 212 212 212 212 
111 111 0 0 110 0 0 0 0 108 107 107 107 107 0 0 108 108 108 107 108 0 0 0 0 0 108 107 107 108 108 107 109 109 0 109 0 0 0 107 105 0 0 92 86 87 93 0 0 0 0 0 0 0 0 0 107 0 106 106 0 106 0 106 0 0 0 0 0 0 108 107 107 107 108 109 126 0 0 0 0 0 0 0 211 0 0 0 196 195 0 0 0 188 183 181 0 0 0 137 132 0 120 118 0 119 117 129 141 0 138 135 0 0 0 0 0 198 0 0 198 0 0 0 0 199 0 198 198 0 0 0 0 199 199 199 199 0 0 0 199 199 199 199 199 199 199 199 199 199 199 0 198 0 0 0 0 0 0 0 198 198 197 197 0 197 197 197 197 0 197 197 0 196 196 196 196 196 196 0 0 0 196 196 0 196 0 197 0 196 0 0 0 194 0 0 193 0 193 192 0 191 0 0 188 0 186 0 0 176 173 171 170 169 0 0 164 162 161 160 158 0 0 155 0 0 152 0 0 150 0 0 145 142 0 140 140 0 0 141 0 0 0 0 0 141 0 140 0 0 140 140 140 140 0 0 143 143 0 144 0 0 144 144 146 0 0 0 0 147 148 0 0 150 0 150 0 150 150 151 151 0 152 152 0 151 151 151 151 151 150 150 0 0 150 150 150 150 150 0 0 0 152 152 152 152 151 152 152 0 0 153 153 0 0 154 154 0 0 154 0 155 0 154 0 154 0 0 153 0 0 150 148 147 146 0 144 0 144 144 144 144 0 144 0 0 0 142 141 0 140 139 138 137 0 137 137 137 138 140 0 0 150 152 0 161 164 0 0 166 172 0 181 192 0 0 0 0 246 0 0 202 185 183 183 183 183 182 0 182 182 182 0 181 181 0 181 181 181 181 182 182 0 183 0 185 0 186 189 192 199 0 0 0 0 0 213 212 0 0 0 194 187 184 0 0 0 0 0 174 172 173 175 177 0 0 185 187 0 0 193 0 0 0 194 193 193 0 192 0 191 191 0 191 0 192 193 0 0 196 196 198 0 199 199 0 0 0 0 0 0 0 0 0 199 199 196 0 0 161 148 144 143 144 0 0 0 0 0 0 0 120 118 118 121 123 0 0 0 0 124 0 121 0 0 113 114 123 0 0 125 124 0 0 117 0 0 122 0 121 118 117 118 0 0 0 0 0 0 110 107 104 103 102 0 102 103 104 104 104 106 108 109 109 110 110 110 111 110 112 0 116 0 0 123 125 0 0 129 130 131 0 132 132 133 134 142 0 0 139 143 0 0 149 150 153 160 0 0 178 0 0 181 185 0 0 0 199 0 0 221 0 221 216 218 220 0 0 0 220 222 0 231 0 0 0 0 234 0 0 0 227 0 0 220 212 0 0 210 211 0 212 212 0 217 0 0 216 0 0 212 212 212 212 212 212 212 212 212 212 
0 111 0 0 0 0 109 109 109 0 0 0 107 0 107 0 106 107 0 0 108 108 107 108 109 0 0 0 0 108 108 0 0 0 0 108 109 0 109 107 106 0 0 0 90 86 85 92 0 0 0 106 106 106 106 105 106 106 105 105 105 106 107 107 107 106 106 107 108 0 0 0 0 0 0 107 115 150 0 0 0 211 0 0 0 0 208 0 196 192 0 0 0 0 185 181 0 0 0 140 0 0 122 126 0 0 123 130 0 0 0 139 162 0 0 198 198 198 198 198 0 198 198 198 0 199 0 0 0 0 0 198 0 0 0 199 199 199 199 199 199 199 199 199 199 199 199 199 199 199 199 0 0 198 0 198 198 198 198 198 0 0 0 0 197 0 196 0 0 0 197 0 196 196 0 0 0 196 196 196 196 196 0 0 0 0 0 197 197 197 0 196 0 195 0 194 194 0 193 192 191 191 191 0 189 0 186 184 0 176 173 171 169 0 167 166 0 0 161 0 158 156 154 0 0 152 151 151 0 149 0 0 144 0 0 140 139 0 0 140 140 0 0 0 140 0 140 140 140 140 139 0 0 140 0 141 142 0 143 0 144 0 144 144 145 0 146 147 0 0 147 148 149 0 0 149 150 150 0 151 151 0 0 152 0 151 151 151 0 0 151 151 0 151 150 0 150 0 0 0 152 152 153 153 153 0 152 152 152 152 0 153 153 153 153 0 154 154 0 155 0 155 0 154 0 154 0 153 0 0 0 0 0 146 146 0 145 0 144 0 0 143 0 144 0 143 143 142 0 141 140 139 0 0 137 136 137 137 137 141 0 0 0 151 0 0 0 164 165 167 172 177 182 195 0 0 0 247 246 0 0 203 186 184 183 183 0 182 182 182 181 181 0 182 182 182 181 181 182 0 183 184 0 0 0 185 187 189 195 201 0 0 0 0 0 212 0 0 0 0 188 182 182 183 183 0 181 181 0 0 177 0 178 180 182 184 0 189 0 0 0 194 194 0 0 0 193 0 192 0 191 0 0 192 192 192 193 195 0 0 0 0 0 0 0 0 0 0 0 0 0 0 0 0 0 0 0 0 154 146 0 0 143 0 142 141 0 0 0 131 126 118 116 119 0 124 0 0 0 0 124 0 123 0 0 115 116 122 0 0 123 117 0 0 119 118 0 122 0 0 0 0 0 0 0 118 116 0 0 111 0 105 103 101 0 0 103 105 106 107 109 0 0 0 0 111 112 112 0 0 0 116 117 0 123 126 0 0 128 130 132 0 133 0 0 134 135 0 0 140 0 146 148 149 152 156 160 169 0 181 0 0 183 184 0 0 0 195 205 0 222 0 225 219 219 221 0 221 0 219 219 0 0 0 0 0 0 234 234 0 0 228 0 0 0 209 215 0 212 211 0 210 213 0 216 0 0 216 0 212 212 212 212 0 212 212 212 212 212 0 
0 110 110 0 110 110 0 0 109 107 107 107 107 0 107 0 0 0 107 0 108 108 0 108 109 0 0 0 109 108 108 0 109 109 0 108 0 0 108 107 107 0 0 0 0 90 85 85 89 0 0 0 106 106 105 105 0 106 106 106 0 0 0 0 0 107 107 107 107 107 107 108 108 0 108 108 110 134 0 0 0 0 0 0 0 0 208 0 0 190 193 0 0 0 0 181 0 0 0 139 129 125 124 0 0 132 125 126 139 0 0 146 162 0 0 198 198 198 0 0 0 0 0 198 0 0 0 0 0 0 198 198 0 198 0 199 199 199 0 0 0 199 199 199 199 199 199 199 199 199 199 0 198 198 198 198 197 198 0 0 197 197 0 0 197 0 196 0 197 197 197 0 196 196 0 0 0 0 0 0 196 0 0 0 0 197 197 197 197 197 0 0 0 0 194 194 194 0 0 192 0 0 191 0 189 0 0 0 0 0 173 0 169 0 0 165 164 0 161 0 158 0 155 0 153 152 151 0 0 149 0 0 0 0 140 139 139 139 0 0 140 140 0 140 140 140 140 0 140 0 139 139 0 139 140 0 141 142 142 0 0 0 0 143 143 0 0 146 147 147 0 0 149 149 0 0 149 0 151 151 152 0 0 153 152 151 0 152 0 152 152 0 151 0 151 0 151 151 151 152 0 153 0 0 0 0 153 0 0 152 0 0 0 152 0 0 0 154 0 154 155 155 0 0 0 0 154 153 0 0 0 0 0 148 0 145 145 144 0 0 143 143 143 0 0 143 0 0 0 0 140 0 139 138 137 0 137 0 138 0 0 0 145 146 149 154 0 162 164 0 172 177 183 198 0 0 0 247 246 0 0 203 186 184 183 183 0 182 182 182 0 181 182 182 0 0 183 0 184 0 185 0 0 187 186 188 192 199 0 0 0 0 0 212 211 0 0 0 195 184 181 181 181 181 0 0 183 183 0 182 181 181 182 183 0 187 0 190 192 0 194 194 0 195 0 194 193 192 0 192 192 192 192 193 193 0 0 0 0 0 0 0 0 0 0 183 180 177 176 172 164 160 162 171 0 0 0 154 134 138 0 0 145 0 0 139 136 134 0 129 0 119 117 0 0 125 0 0 0 124 123 0 0 0 122 118 117 122 0 0 122 114 120 0 0 116 0 0 0 121 0 117 0 117 117 0 116 0 113 0 0 105 103 102 103 0 106 107 107 0 0 113 114 0 114 0 0 111 0 0 114 116 118 121 123 126 0 0 127 0 0 0 132 132 0 0 133 0 142 139 143 146 149 152 156 0 0 172 0 0 0 181 0 182 182 188 0 196 202 0 220 0 225 0 0 0 0 220 0 0 220 0 0 232 0 0 0 0 231 0 0 228 0 0 0 212 216 0 217 212 0 209 212 0 215 0 0 216 212 211 0 0 212 212 212 0 212 212 0 0 
0 110 111 111 111 110 109 0 0 108 0 106 107 0 0 107 106 106 107 0 108 0 0 0 0 109 109 0 0 0 108 108 0 0 108 108 108 0 0 0 107 106 106 0 0 0 91 86 84 88 0 0 0 0 0 0 105 0 0 106 106 0 0 108 0 0 0 107 106 106 0 0 0 108 108 108 108 121 0 0 0 210 211 0 0 0 208 0 0 192 189 0 0 0 188 181 178 0 0 143 127 122 121 131 0 0 132 133 0 148 149 146 160 0 0 0 198 198 198 198 198 197 198 198 198 198 0 198 0 0 198 198 198 198 0 199 199 199 0 198 0 0 0 199 0 0 0 0 0 199 199 0 0 0 198 198 0 198 0 197 197 197 0 197 0 197 197 197 197 197 0 196 0 0 0 196 196 196 196 0 0 196 0 196 0 197 197 197 0 0 196 196 0 195 0 194 194 0 193 0 192 0 0 0 188 0 0 0 0 0 173 170 0 167 0 165 0 162 0 159 0 0 0 153 152 0 0 150 0 0 0 145 142 140 139 0 0 138 138 0 0 0 0 139 0 0 139 0 0 0 139 139 0 0 139 0 141 0 142 0 143 143 143 0 143 143 145 0 147 147 148 148 149 0 150 150 150 0 151 0 152 152 0 0 153 0 0 0 0 0 0 0 151 0 151 151 0 0 0 152 153 0 0 155 0 0 153 152 0 152 152 152 152 151 152 152 0 0 0 155 0 155 154 154 0 154 0 154 154 154 0 0 152 0 147 145 0 0 0 144 144 0 0 143 142 0 143 0 0 0 140 0 0 139 0 0 0 0 138 140 142 142 141 142 145 150 0 0 164 167 173 0 185 199 0 0 0 247 246 0 0 203 186 184 0 0 182 182 0 0 182 0 0 183 0 0 184 0 0 0 0 187 188 188 190 196 0 0 0 0 0 0 212 211 0 0 0 188 181 180 180 0 181 0 0 0 0 0 0 0 185 185 186 187 0 190 0 192 0 0 195 195 0 195 0 194 0 193 193 192 0 0 0 0 0 0 0 0 181 179 175 174 174 172 170 169 166 164 161 157 152 147 145 147 156 0 148 130 121 126 0 0 0 0 141 137 135 0 130 0 0 118 119 120 123 0 0 125 0 124 124 125 0 0 0 0 116 123 0 0 0 117 119 0 0 115 0 0 121 0 0 113 0 115 115 115 0 112 110 0 0 106 105 106 107 108 0 0 0 0 114 0 0 115 116 0 115 110 0 0 114 117 120 0 124 0 0 125 125 129 0 0 130 0 0 132 133 0 0 0 0 148 0 0 158 0 0 173 178 0 0 179 0 0 180 187 0 199 202 0 220 0 0 0 220 0 0 219 0 0 216 220 0 227 229 0 0 0 232 0 0 220 219 219 0 0 218 0 216 215 0 211 213 0 216 0 0 216 0 211 211 0 212 212 0 212 212 0 0 212 
0 112 0 0 0 111 110 0 110 109 108 107 108 107 107 0 106 0 107 107 0 108 108 0 109 109 0 0 108 107 107 108 108 108 108 0 0 0 109 0 0 0 0 106 0 0 0 0 86 84 87 0 0 0 106 0 106 106 0 0 104 0 0 107 107 0 0 0 106 0 107 0 0 0 0 0 107 112 145 0 0 0 0 0 211 0 0 205 0 0 190 192 0 0 0 182 0 0 0 0 135 0 126 132 0 0 0 137 140 0 0 152 161 0 0 0 0 0 0 0 197 197 0 198 198 198 0 0 198 0 0 0 198 0 0 0 0 0 0 0 0 198 0 199 0 198 0 198 0 0 0 0 198 198 0 0 0 197 0 0 197 197 197 197 0 0 0 197 197 197 0 0 196 196 0 0 196 196 0 0 196 196 196 0 0 0 0 0 197 0 196 195 0 195 194 0 194 193 193 0 192 191 0 189 188 0 186 0 0 176 172 169 167 166 0 0 0 162 0 159 156 154 154 153 152 151 150 0 149 148 0 144 141 138 0 138 0 0 137 0 138 138 0 138 139 0 0 138 138 0 139 139 0 0 140 140 140 141 0 142 142 142 142 0 142 142 0 0 0 0 0 149 149 150 150 151 0 151 0 0 152 151 153 0 0 0 0 153 0 152 0 0 152 0 0 150 151 151 0 0 153 154 0 0 0 153 153 152 151 0 0 151 0 0 0 152 0 0 0 154 155 0 155 0 0 154 154 154 154 0 154 154 153 0 148 146 146 0 145 0 0 144 0 142 142 0 0 0 142 141 140 0 0 0 0 137 138 138 138 0 139 140 140 142 143 148 154 0 0 0 174 0 188 201 0 0 0 247 246 0 0 201 186 183 183 183 182 0 0 182 0 183 0 183 183 184 184 185 185 0 187 187 190 195 201 0 0 0 0 0 212 211 0 0 0 199 188 181 179 178 179 0 181 0 182 0 185 0 187 0 0 0 0 0 191 192 0 194 0 0 0 0 0 195 0 194 0 0 0 0 0 0 0 0 0 172 167 166 166 166 165 165 164 164 161 160 158 156 153 152 151 151 152 152 0 0 127 117 114 118 0 0 146 0 140 137 0 0 128 0 124 121 122 0 125 0 0 126 125 0 0 0 123 125 0 0 119 123 0 0 123 121 0 0 0 116 0 0 118 0 0 111 112 0 0 0 0 112 113 0 109 108 109 0 0 112 0 114 114 115 0 0 0 114 117 0 113 114 0 117 115 0 0 0 0 0 124 122 125 0 130 0 129 0 0 131 133 0 0 143 0 0 0 152 158 0 0 170 0 0 0 174 0 177 179 184 0 0 200 0 0 0 0 0 0 0 0 214 0 0 212 218 0 223 225 0 0 0 230 0 0 217 215 211 0 0 223 0 216 0 0 213 0 211 215 0 0 218 0 212 0 0 212 212 212 212 212 212 0 212 
0 112 112 0 0 0 0 0 0 0 0 0 0 0 109 108 107 107 0 107 107 107 108 108 108 0 109 0 0 0 0 0 108 0 108 0 108 0 0 0 109 0 0 0 106 0 0 0 0 86 83 87 0 0 0 0 107 107 107 106 104 106 107 107 106 107 107 107 106 0 0 107 107 107 106 107 107 109 130 0 0 0 211 0 211 0 0 205 0 0 194 191 0 0 0 183 0 0 0 0 139 132 127 0 0 142 139 0 0 147 150 152 162 0 0 0 0 197 0 0 0 0 0 0 198 0 0 0 0 198 0 0 0 0 198 198 0 0 198 0 0 0 0 0 0 198 0 0 0 198 198 0 0 198 198 197 197 0 0 197 0 0 197 197 0 0 197 196 197 0 197 196 196 0 196 196 0 196 196 196 0 0 196 0 196 196 0 196 196 0 0 196 0 0 0 0 194 0 0 0 0 191 0 0 0 0 0 0 181 0 0 0 167 166 165 164 163 0 160 0 0 155 0 153 152 0 149 149 0 148 0 143 140 0 0 0 136 136 136 136 0 136 137 0 0 0 138 137 138 138 138 0 139 139 0 0 0 140 0 141 0 0 0 0 142 143 144 145 145 0 0 0 150 0 0 0 0 152 152 152 152 0 0 0 153 153 0 153 0 152 152 0 151 151 0 151 151 151 152 152 152 0 0 154 153 153 0 0 152 150 151 0 0 0 0 151 153 154 0 154 155 0 155 155 0 0 154 154 154 154 0 0 0 0 150 148 146 0 145 144 144 144 143 0 142 142 0 0 0 0 139 139 139 139 0 0 137 0 138 0 139 139 140 142 144 147 151 158 0 0 173 180 189 205 0 0 0 247 246 0 0 199 184 183 183 0 183 0 183 182 183 183 0 184 184 184 0 0 187 187 189 193 200 0 0 0 0 0 212 210 0 0 0 0 199 193 187 183 180 177 178 179 0 0 0 0 184 0 188 189 0 192 0 193 193 194 0 195 0 196 196 196 196 0 0 0 0 0 0 0 0 0 0 163 154 156 160 160 161 161 162 0 160 0 0 155 153 154 157 0 0 0 0 0 0 127 115 111 113 113 0 0 0 0 139 0 133 131 129 126 123 0 124 0 0 129 0 127 0 0 0 0 122 123 0 120 119 0 0 0 123 121 0 0 117 116 116 0 116 114 0 110 111 0 0 110 109 113 0 0 111 0 0 112 114 0 0 0 0 117 0 0 0 117 0 0 113 0 0 117 117 0 0 0 0 0 123 124 0 0 128 128 129 0 130 131 133 0 0 137 144 0 0 150 157 0 0 163 0 0 175 166 0 0 178 182 0 0 199 207 0 0 0 217 0 0 0 203 207 0 214 0 0 222 0 0 0 0 227 0 0 217 0 212 0 222 222 0 220 0 217 213 0 209 212 0 217 218 0 214 211 212 212 212 212 0 0 212 0 0 
112 111 111 112 0 111 110 111 111 111 111 111 111 112 0 0 109 108 0 0 108 0 108 108 108 108 108 0 108 0 0 0 0 0 107 107 108 108 108 109 109 109 109 0 0 0 0 100 0 90 86 83 87 0 0 0 0 0 0 0 106 106 0 0 107 107 0 0 107 106 0 0 0 106 106 107 107 107 119 0 0 0 0 211 0 210 0 205 203 0 0 192 194 0 0 183 178 0 0 0 141 0 129 133 0 0 0 141 145 0 0 155 162 0 0 0 0 197 197 197 0 0 0 0 197 0 0 197 198 198 198 0 0 198 198 0 198 0 198 198 0 0 0 198 0 198 198 0 0 198 0 198 198 198 0 0 197 197 0 197 197 0 0 0 0 0 197 0 197 0 197 196 0 0 196 0 0 0 0 196 0 0 0 196 0 195 0 0 0 0 0 196 195 195 195 194 0 0 0 192 191 191 190 190 189 188 0 0 0 177 172 0 167 0 0 0 0 160 0 0 156 154 0 0 0 0 150 0 0 0 0 142 139 0 136 135 134 134 0 0 135 135 136 136 137 0 0 137 0 0 137 0 0 0 138 138 139 0 0 141 0 0 0 141 0 0 0 0 145 146 148 0 0 151 151 152 0 0 153 0 0 153 0 0 153 0 153 0 152 151 0 0 151 150 151 151 151 0 152 152 152 0 153 153 152 152 0 0 0 0 151 151 0 0 151 151 0 154 0 155 155 155 155 155 155 0 154 154 154 154 154 155 0 0 0 0 147 146 0 144 144 144 0 0 142 142 0 142 141 0 0 139 138 0 138 138 137 137 138 138 139 139 0 142 0 147 151 157 0 167 172 179 187 202 0 0 0 247 246 0 0 199 184 183 0 0 0 183 183 0 0 184 184 0 185 185 186 187 189 193 199 0 0 0 0 0 212 209 209 0 0 0 199 197 195 0 188 184 0 178 176 177 179 0 0 183 0 0 0 0 0 0 0 195 195 0 0 196 196 0 0 196 0 0 0 0 0 0 172 170 0 159 149 147 153 0 0 158 159 0 0 0 0 154 150 148 153 0 0 0 0 0 0 142 124 115 110 110 0 111 126 0 0 140 136 135 0 0 129 127 126 0 125 0 0 0 0 126 126 126 126 0 124 0 120 120 120 0 122 0 122 120 0 116 0 0 114 0 113 110 0 110 0 110 108 108 108 0 0 112 111 113 114 115 0 0 117 0 0 118 0 0 120 120 0 0 113 118 0 118 119 0 0 128 0 0 122 0 0 0 0 127 0 128 129 130 134 0 0 137 142 0 0 151 158 0 0 161 0 0 173 166 0 0 0 181 0 0 199 204 0 0 0 212 0 0 191 197 0 0 0 216 218 222 0 0 0 227 226 0 0 219 0 215 0 0 224 0 220 0 215 0 0 211 213 0 218 216 0 0 212 0 0 0 0 0 0 0 0 212 
0 111 111 0 0 111 111 0 0 0 0 0 0 0 0 0 0 0 107 0 108 0 109 109 109 0 0 107 106 107 0 0 107 107 0 0 107 107 0 0 109 109 108 109 0 0 0 0 0 0 0 85 84 88 0 0 0 106 0 106 0 0 0 0 108 0 108 0 0 0 0 0 106 105 0 0 107 106 111 142 0 0 0 211 0 0 0 205 202 0 0 197 192 0 0 183 178 0 0 151 138 133 131 0 0 147 146 0 0 148 152 154 158 0 0 0 197 0 196 0 197 196 0 197 197 197 197 197 0 198 0 0 198 198 198 0 198 197 198 0 0 198 198 198 198 198 198 198 198 198 0 198 198 198 198 0 0 0 197 197 197 197 0 0 197 197 197 197 196 197 197 0 196 196 196 0 0 196 0 196 0 197 0 196 0 195 196 196 196 0 195 0 0 0 0 194 0 193 192 191 0 191 0 0 189 0 0 0 0 177 173 0 167 0 0 0 0 160 159 0 156 0 0 152 151 0 0 149 148 147 0 141 138 135 0 134 133 133 0 133 134 0 0 0 136 137 137 136 136 0 137 138 0 0 138 0 139 0 0 141 141 141 141 140 141 142 0 0 144 145 0 148 0 151 0 0 153 153 0 0 153 152 153 0 0 153 152 0 152 0 151 151 150 150 151 0 0 152 0 152 152 152 152 0 0 151 151 151 151 151 0 151 151 151 151 0 153 0 0 155 155 155 155 155 155 0 154 0 0 154 154 0 0 0 0 0 148 146 0 0 0 0 144 0 0 0 0 0 141 140 0 139 0 0 0 138 138 138 0 138 139 0 0 142 0 147 150 0 0 167 171 0 187 204 0 0 0 0 0 0 0 196 183 0 0 184 184 184 0 184 184 0 185 185 186 188 189 193 198 0 0 0 0 0 0 209 0 0 0 0 198 195 195 194 193 0 188 184 181 178 175 176 0 0 181 183 184 186 0 191 0 195 0 197 197 0 0 0 197 197 197 196 0 0 0 0 162 158 162 0 150 141 143 0 0 0 156 0 0 0 0 150 152 150 153 0 0 0 0 154 150 153 0 124 112 110 0 108 108 108 117 0 0 135 135 0 0 0 130 128 128 127 128 0 0 128 0 124 125 0 0 0 123 121 119 119 0 118 119 0 121 119 0 114 114 0 113 0 112 109 110 0 110 0 0 107 110 0 0 115 115 116 0 0 0 118 114 117 0 119 0 122 0 123 0 119 113 0 0 120 122 0 0 0 0 123 121 0 0 125 127 0 0 126 129 132 136 0 139 139 0 0 0 152 0 0 0 160 0 0 164 164 0 0 175 0 187 0 194 199 0 0 0 0 0 192 184 196 206 210 212 213 0 0 0 224 225 0 0 0 0 222 220 216 0 0 0 0 219 215 212 0 210 207 211 0 0 213 0 212 211 0 212 0 212 212 0 0 0 212 
111 110 111 0 112 112 111 111 111 0 0 0 0 0 0 0 0 0 0 0 108 109 0 0 0 0 0 0 108 108 107 108 0 107 0 107 107 107 0 109 109 0 0 0 109 0 0 0 0 0 0 90 86 84 87 94 0 0 105 105 105 106 107 0 108 0 0 0 0 106 105 105 106 105 106 107 107 106 108 124 0 0 0 0 0 0 208 205 202 0 0 0 194 193 0 184 177 0 0 152 142 137 130 131 0 0 0 148 0 0 0 156 159 0 0 0 196 0 196 0 0 197 0 0 197 0 0 0 197 0 0 0 198 0 198 198 198 198 198 0 198 198 0 198 0 198 0 198 197 0 198 0 198 0 0 0 0 0 197 0 197 0 197 197 196 197 0 0 0 0 0 0 196 196 0 0 0 196 196 0 0 0 0 196 0 196 0 0 196 0 195 0 0 194 0 194 0 192 191 0 0 191 0 0 0 188 187 0 0 177 173 170 167 166 165 164 162 160 0 157 0 0 153 0 0 0 149 148 0 0 0 140 0 134 133 133 133 0 0 133 0 0 134 135 0 0 0 136 0 0 0 138 138 138 138 138 139 0 0 141 141 141 0 140 140 141 142 143 143 144 145 147 0 0 0 0 0 0 0 0 153 0 0 0 153 153 0 151 0 0 151 151 150 0 0 0 0 152 0 152 152 0 151 152 0 151 0 151 0 150 0 150 151 0 151 151 153 0 0 0 0 0 156 155 155 0 154 0 0 154 154 0 155 0 152 149 0 146 146 0 145 0 144 144 0 143 142 141 141 140 139 139 0 138 0 138 0 0 0 0 140 141 0 142 144 146 150 156 0 167 173 180 186 207 0 0 246 0 0 0 0 193 183 183 0 0 0 184 184 184 184 184 186 187 190 195 199 0 0 0 0 0 0 208 0 0 0 0 193 191 190 191 191 191 0 0 0 0 181 0 176 175 176 0 0 0 184 186 189 192 194 196 0 0 0 198 0 0 0 198 0 0 0 0 164 151 152 0 0 145 133 140 0 0 154 0 155 0 0 0 144 147 156 0 0 0 0 151 150 154 0 0 129 113 108 108 109 0 0 105 109 0 0 133 134 0 133 0 0 0 129 0 0 0 0 128 0 126 124 0 0 0 123 119 117 118 0 115 118 0 0 0 0 113 112 112 112 0 0 110 0 0 0 0 107 108 0 116 0 0 117 119 0 0 0 117 115 0 0 0 119 0 0 0 0 117 114 0 0 122 0 126 0 0 125 122 121 0 0 123 0 0 0 128 129 0 139 0 142 141 0 137 0 151 155 159 159 160 0 0 156 157 0 0 0 0 174 182 187 0 199 199 206 0 195 186 195 0 0 0 209 212 0 0 0 221 0 0 227 0 0 225 0 220 221 0 225 0 0 216 216 0 210 208 212 0 0 213 0 211 210 0 212 0 212 212 212 212 0 0 
0 0 111 0 0 0 0 0 111 0 0 0 0 0 112 111 110 107 107 107 0 0 0 109 108 0 110 0 0 0 0 0 108 108 0 107 106 107 108 0 0 108 108 109 109 0 0 0 0 0 0 0 90 86 85 88 0 0 0 0 0 106 107 0 0 107 106 0 0 105 0 105 0 0 0 0 107 107 107 115 0 0 0 0 211 0 208 205 203 203 0 0 197 193 0 185 177 0 0 155 0 0 136 133 139 146 0 0 152 151 0 0 159 0 0 0 0 196 0 0 196 197 197 0 0 0 198 0 197 0 198 198 198 0 197 198 0 198 198 0 197 0 0 198 197 0 198 198 0 197 197 0 198 0 197 0 197 197 197 197 197 0 196 0 0 0 0 197 196 196 0 0 0 196 0 0 196 196 0 0 0 0 196 196 196 196 0 0 196 0 195 195 0 194 0 193 193 192 0 0 0 191 190 189 188 187 0 0 0 177 0 0 167 166 165 0 162 160 0 157 155 153 0 151 149 148 148 148 0 0 0 138 134 0 133 0 132 132 132 0 133 133 133 134 135 0 0 136 0 137 0 138 138 138 138 138 0 0 140 0 0 140 0 0 0 0 141 142 0 143 144 146 0 150 151 152 0 0 0 153 0 0 153 0 0 152 0 152 0 0 0 0 151 151 0 151 151 152 0 152 152 0 0 0 0 151 0 150 150 0 150 150 151 0 0 152 0 0 156 0 0 0 0 156 0 155 155 154 0 154 0 154 154 0 150 148 0 0 0 145 145 0 0 0 143 0 0 0 0 0 0 139 0 0 138 138 138 0 140 0 141 0 142 142 144 146 149 156 0 166 0 0 189 210 0 0 0 237 0 0 0 191 183 183 183 183 184 184 185 186 187 188 193 197 201 0 0 0 0 0 0 208 0 0 0 0 186 182 183 185 0 0 188 188 188 188 0 186 183 0 175 173 175 0 180 182 185 0 190 0 0 0 0 199 0 199 199 199 0 0 0 0 0 158 145 148 0 0 143 129 135 0 0 0 153 153 0 0 0 140 142 0 0 0 0 150 145 152 0 0 0 133 119 110 107 0 0 0 105 104 112 0 0 133 0 0 0 0 130 0 0 0 127 127 0 128 0 0 126 0 127 0 122 118 117 0 0 115 0 0 0 116 0 0 0 0 111 0 112 0 0 109 0 108 108 110 0 117 0 0 121 0 123 0 0 118 116 117 120 0 119 123 0 0 0 117 117 0 121 125 0 128 0 0 0 121 120 121 0 120 122 0 126 128 0 0 0 0 0 141 0 136 0 149 158 0 161 160 0 0 145 152 0 156 161 0 165 174 181 0 0 197 0 0 200 200 0 0 0 0 210 211 214 215 217 221 0 0 225 0 0 227 0 222 222 224 221 0 0 222 0 0 214 0 0 0 0 212 0 211 211 0 0 0 0 0 212 212 0 213 
109 110 0 111 0 0 0 0 0 110 110 110 110 111 110 110 0 108 0 0 0 0 0 109 109 0 0 0 109 109 108 108 0 0 0 108 0 107 108 109 0 0 109 109 109 109 108 108 0 0 0 0 0 0 87 87 91 0 0 0 0 0 107 0 0 106 0 0 0 105 105 105 0 0 0 0 107 0 107 109 138 0 0 0 0 0 208 0 203 0 0 0 199 194 0 0 178 0 0 157 149 0 137 133 0 0 148 148 0 0 0 0 149 165 0 0 0 0 0 0 0 0 197 197 197 0 0 0 0 197 198 0 198 0 0 198 0 198 0 0 197 198 0 0 197 197 0 0 0 197 0 0 0 0 197 197 197 0 197 0 0 0 196 0 0 196 196 0 0 196 196 0 0 196 196 196 0 196 196 196 196 196 196 196 196 196 196 195 0 195 0 195 0 194 0 193 0 0 0 191 191 191 0 0 188 187 0 185 182 178 174 170 0 0 165 0 0 160 0 157 155 153 0 151 149 148 148 148 0 145 0 137 134 133 133 132 0 0 0 132 132 132 0 134 134 134 135 136 137 0 0 0 0 0 0 138 138 138 140 140 140 140 0 0 140 140 0 141 0 0 144 145 147 149 0 151 151 152 0 0 153 153 0 0 0 152 152 151 151 151 151 0 0 152 0 152 0 152 152 152 152 152 152 0 150 150 0 150 150 0 0 0 151 151 152 0 154 0 156 0 157 157 0 156 0 0 0 0 0 0 154 0 153 0 149 0 147 146 0 0 145 0 144 143 142 142 0 141 140 0 139 139 138 0 139 139 0 140 140 140 141 0 142 143 0 0 149 156 0 166 171 179 189 213 0 0 0 230 0 0 0 188 183 184 184 184 185 186 189 192 196 201 0 0 0 0 0 0 209 207 0 0 0 0 184 179 177 179 182 0 185 185 185 186 186 187 0 0 0 0 176 174 175 178 180 182 186 0 0 193 195 197 0 0 200 200 199 0 0 0 0 0 155 143 144 0 0 0 126 130 0 0 152 152 152 0 0 0 143 142 0 0 0 156 144 145 0 0 0 0 135 124 115 110 110 0 108 107 106 107 0 0 0 0 0 0 131 130 129 129 0 128 127 0 0 128 0 0 0 0 124 0 121 0 0 114 0 114 0 0 118 113 114 0 0 109 109 0 0 0 110 107 108 0 108 108 113 119 0 0 126 0 0 0 0 117 115 119 122 0 123 124 0 0 121 119 0 118 123 0 0 0 0 0 120 0 117 119 119 118 121 0 124 128 131 133 138 0 0 138 136 0 143 147 0 0 165 161 0 153 140 0 0 147 153 0 166 0 178 184 0 197 205 0 0 0 0 0 0 216 213 212 213 212 218 0 222 223 222 0 227 229 0 0 225 0 224 220 0 0 0 0 213 212 0 0 0 211 211 0 0 212 0 0 0 0 212 212 0 0 
110 110 110 0 0 109 109 110 109 0 109 109 0 0 0 0 0 108 0 107 108 0 0 108 0 109 109 0 0 108 0 108 108 109 109 108 108 0 108 0 0 0 0 0 0 0 0 0 0 107 0 0 0 96 92 87 86 92 97 0 104 0 0 0 106 106 105 104 0 105 0 104 0 0 0 0 107 107 106 106 124 0 0 0 0 0 0 0 203 203 0 0 0 196 0 0 180 173 165 156 152 0 142 133 134 0 0 0 150 149 147 141 136 157 0 0 0 0 196 0 0 0 197 0 0 197 197 0 0 0 198 0 198 0 0 198 198 197 0 0 0 198 0 198 198 197 197 0 197 0 0 197 197 0 0 196 196 197 197 197 196 0 0 0 196 196 0 0 196 196 196 196 0 196 196 196 0 0 196 0 196 0 196 196 196 196 0 195 0 0 195 0 0 0 193 0 192 192 0 191 191 0 0 0 188 187 0 0 0 0 174 171 0 0 165 0 0 0 159 0 155 153 152 151 0 148 0 0 0 0 0 137 133 133 0 0 132 132 132 131 132 133 0 0 0 135 0 136 0 0 0 137 137 137 0 138 138 0 0 0 0 140 140 0 140 140 0 141 142 143 0 144 145 0 0 0 151 0 152 152 152 0 153 153 153 0 152 152 0 0 150 152 0 0 152 152 0 152 0 152 0 152 0 0 151 0 150 0 151 150 0 0 0 151 151 153 0 0 0 0 156 0 156 155 155 0 0 0 155 0 154 154 153 150 148 147 146 146 146 145 0 0 0 142 141 0 0 140 140 139 139 139 139 0 139 139 0 0 140 140 141 0 0 143 145 0 149 156 0 166 171 178 188 210 0 0 0 224 0 0 0 187 185 185 187 189 192 197 201 0 0 0 0 0 0 0 207 205 205 0 0 0 189 183 178 177 177 180 0 0 185 184 184 185 186 188 189 0 187 183 178 175 177 179 181 0 188 0 192 194 196 0 0 199 0 0 0 0 0 0 0 153 140 142 0 0 0 127 124 0 0 0 151 0 0 0 151 147 150 0 0 0 151 142 145 0 0 0 0 139 126 118 115 0 0 109 107 107 107 108 113 0 0 0 0 0 131 129 127 128 0 127 126 0 0 128 126 123 123 0 123 0 0 116 113 111 0 111 117 0 116 112 113 113 0 108 108 0 0 0 109 107 0 107 107 0 0 0 0 0 0 0 125 0 120 118 117 0 0 0 0 125 126 0 120 0 120 121 0 0 0 0 0 120 116 115 117 0 116 118 0 123 126 128 130 132 136 140 0 135 133 136 145 155 0 0 162 0 0 143 137 145 0 148 153 0 0 0 176 181 188 197 205 0 0 0 220 0 219 216 0 0 0 216 0 0 220 0 222 0 0 0 0 0 223 0 0 217 222 0 0 0 211 210 214 0 214 209 210 212 0 212 212 212 212 0 212 212 212 212 
111 0 110 0 0 109 109 0 109 0 0 108 0 0 0 108 108 108 107 107 107 107 107 108 0 0 107 107 107 108 108 0 108 108 0 0 0 108 107 108 109 109 108 108 108 107 107 0 0 108 0 0 0 0 0 92 87 87 92 0 0 105 106 106 0 0 0 104 104 0 104 104 0 0 0 0 0 0 0 106 114 151 0 0 0 209 0 0 203 202 0 0 0 196 0 0 181 0 0 157 150 0 0 138 135 141 147 0 0 0 0 141 134 149 0 0 0 196 195 195 196 0 0 197 0 0 0 0 197 0 0 198 198 0 197 0 0 0 0 0 0 0 0 198 0 0 197 197 0 0 197 197 197 0 197 197 197 197 0 0 0 0 197 197 197 0 0 0 0 0 196 0 0 0 0 196 196 0 196 0 196 196 196 196 196 196 196 0 195 0 195 194 194 193 193 0 192 0 0 0 191 0 190 189 188 187 0 0 0 0 174 0 0 165 164 0 162 0 0 0 155 153 0 151 150 149 148 0 0 144 140 136 134 133 132 132 132 0 0 131 0 0 134 135 0 0 136 0 0 136 136 136 136 137 0 0 138 138 139 0 140 140 0 0 0 0 0 141 141 142 0 144 145 146 0 0 151 0 152 152 152 0 152 0 153 153 0 0 152 0 0 152 0 0 152 0 0 151 152 152 152 151 0 151 151 0 151 0 0 0 150 150 0 151 0 153 0 0 0 156 156 0 0 155 154 0 154 154 154 0 154 0 0 0 149 148 147 0 146 144 144 144 143 0 141 0 0 140 140 0 0 139 0 0 140 140 0 141 0 0 0 142 142 0 0 147 149 155 0 0 170 177 186 201 0 0 0 218 0 0 205 191 192 195 199 0 0 0 0 0 0 0 0 207 204 203 203 0 0 199 194 188 186 184 181 180 179 0 182 0 0 185 0 185 187 189 0 0 0 0 181 179 179 181 184 187 0 0 0 195 0 0 0 199 0 0 0 0 0 169 153 139 137 147 0 0 132 120 134 0 0 150 150 150 0 149 147 155 0 0 0 147 141 149 0 0 0 0 141 130 121 117 0 0 109 108 0 0 107 108 114 0 0 130 0 133 0 0 128 0 0 126 129 0 130 128 0 124 123 0 121 119 117 114 112 109 111 115 0 0 116 113 113 112 112 110 0 0 0 109 0 105 104 105 107 0 121 0 0 0 0 0 123 120 119 119 122 0 0 0 127 0 0 0 121 0 119 125 0 0 0 124 0 0 113 113 0 0 114 0 0 0 0 129 0 0 0 138 0 0 133 135 147 0 0 0 157 0 0 138 0 141 0 149 0 0 0 169 170 0 183 0 0 0 222 0 222 0 0 0 220 0 0 219 0 0 222 220 221 226 0 0 0 0 223 229 0 219 217 0 0 216 207 0 212 0 211 209 210 0 0 212 212 212 212 212 212 212 212 212 
0 0 0 111 109 109 109 108 108 0 0 107 108 109 0 0 0 0 0 107 106 0 0 0 0 0 108 107 107 0 108 0 107 0 108 0 0 108 108 0 0 109 108 108 0 0 106 108 109 0 107 0 0 0 0 0 91 86 88 97 0 0 0 107 0 0 104 103 104 0 0 104 104 105 0 107 106 107 0 107 109 134 0 0 0 0 0 205 203 203 0 0 0 196 0 0 0 174 0 0 0 0 148 142 135 140 0 0 153 156 0 0 141 147 0 0 0 0 0 0 0 0 196 196 197 0 0 0 197 197 197 0 0 0 197 0 0 0 197 0 197 0 197 197 198 198 0 0 0 197 197 197 197 197 197 0 0 0 197 196 196 0 0 197 0 0 196 197 0 196 196 196 0 0 0 196 0 196 0 196 196 196 196 196 196 196 196 0 195 195 195 194 194 0 0 192 191 191 0 0 190 190 0 0 0 187 0 185 0 0 174 0 0 166 0 0 162 160 158 156 0 153 0 0 150 149 148 147 146 0 0 136 134 133 132 0 0 0 0 132 0 133 134 135 0 0 136 0 136 135 135 135 0 137 137 137 137 138 138 0 0 140 0 0 0 140 0 0 140 0 0 0 0 145 147 0 150 0 152 152 0 152 152 0 0 0 153 0 152 152 152 0 0 153 0 152 0 0 0 0 152 0 0 151 150 0 151 151 0 151 0 150 150 150 0 153 154 0 156 0 0 0 0 154 0 0 153 153 153 0 153 0 0 0 149 0 0 0 0 146 0 144 144 143 142 141 141 141 141 140 0 0 139 140 0 0 141 0 141 140 141 0 142 0 145 0 149 153 0 164 170 177 186 195 206 212 212 212 0 0 209 206 0 0 0 0 0 0 0 209 207 204 202 201 201 201 200 199 0 196 192 189 188 0 0 182 181 181 183 0 0 187 0 187 188 191 0 193 0 0 182 182 183 185 187 0 191 0 0 196 197 0 199 199 0 0 0 0 166 154 140 134 141 0 0 0 120 125 0 0 0 0 148 148 149 147 153 0 0 0 145 143 0 0 158 0 0 0 133 123 118 0 112 110 109 108 108 107 106 108 115 0 0 131 0 0 132 130 129 0 0 128 0 0 0 0 0 0 123 0 0 0 114 113 111 109 112 0 0 0 117 114 0 116 0 114 0 0 110 107 0 103 102 106 112 118 0 0 0 0 0 0 0 117 117 118 0 0 0 124 126 0 0 0 121 118 122 0 0 0 124 120 0 115 112 113 0 0 114 0 0 0 0 0 0 0 0 0 0 0 139 139 149 0 0 157 0 0 140 136 139 139 0 143 0 0 0 166 166 0 183 0 0 0 223 222 222 223 0 223 222 221 220 0 0 222 0 0 0 225 230 0 0 0 227 0 0 219 212 220 0 0 207 0 0 0 209 208 211 0 0 212 0 0 0 212 0 0 0 212 
0 0 0 0 0 109 0 0 0 108 106 107 108 108 109 0 0 108 106 107 0 107 107 108 108 108 0 0 0 107 0 0 107 107 108 0 108 107 108 109 109 0 0 109 0 0 108 0 0 0 107 0 106 0 0 0 94 89 90 98 0 0 0 0 106 105 104 0 103 104 0 0 105 105 106 107 0 107 0 106 107 120 0 0 0 0 0 0 204 203 204 0 0 198 193 0 0 174 164 155 154 0 0 145 139 137 143 0 0 0 0 0 0 150 0 0 0 196 0 195 0 196 195 0 0 197 0 197 0 197 0 197 196 197 197 197 197 197 197 197 197 0 197 197 0 0 0 0 0 196 0 0 197 197 0 197 197 0 196 196 196 0 196 197 0 0 197 0 197 196 0 196 0 0 196 0 196 196 196 196 196 0 196 196 196 196 0 0 0 0 195 0 0 0 0 191 0 0 191 0 0 189 0 0 0 187 186 185 0 179 175 172 169 166 165 0 162 160 158 0 0 153 0 151 150 149 0 0 0 143 140 137 135 0 132 131 131 0 131 132 0 133 0 0 0 134 0 0 135 0 0 136 0 137 0 0 0 0 138 0 0 140 0 0 140 0 139 139 0 0 141 0 0 0 146 147 149 0 151 0 0 152 151 152 0 152 0 0 152 0 152 153 0 153 0 0 0 153 152 0 152 0 151 151 151 151 151 150 151 150 150 150 150 151 0 0 153 0 0 0 0 0 153 153 0 0 0 152 0 151 0 150 148 0 148 147 0 0 0 0 0 0 0 144 0 143 142 0 0 140 140 140 140 0 141 141 0 0 140 141 141 141 142 143 144 146 148 151 0 164 170 0 0 194 0 0 207 209 213 0 0 0 0 0 0 0 207 205 204 204 0 201 199 200 200 199 199 0 197 195 193 191 190 0 0 185 182 182 0 0 0 0 0 189 191 0 0 0 0 189 185 185 0 0 190 192 193 0 196 0 198 0 199 0 0 0 0 162 0 144 133 135 0 0 0 129 119 0 0 0 148 147 146 148 150 154 0 0 0 145 143 0 0 158 0 0 0 136 126 119 114 111 110 109 109 0 0 107 107 109 113 121 127 0 0 0 132 130 128 0 127 127 0 0 131 130 129 0 0 118 113 0 114 113 110 109 114 0 0 0 0 0 0 0 0 0 0 0 107 104 101 100 103 109 0 0 0 0 0 0 0 0 0 113 115 116 121 0 124 123 0 0 120 120 120 120 0 0 0 124 119 0 0 113 0 0 0 112 113 0 117 117 0 121 125 0 133 0 0 140 0 0 0 154 152 147 144 141 136 0 137 0 139 136 143 157 0 0 161 0 179 188 0 0 0 0 221 224 0 0 0 222 220 219 218 219 0 224 0 0 230 0 234 231 230 0 0 0 214 219 0 0 207 211 0 212 208 208 210 0 213 211 211 211 0 0 0 211 0 0 
0 0 111 0 0 109 109 109 0 0 106 0 108 0 109 0 108 107 0 0 106 0 0 0 106 107 0 0 0 107 106 107 0 0 107 0 107 0 0 108 0 0 0 109 0 107 107 109 0 0 107 106 0 0 0 0 96 93 94 0 0 0 0 107 105 105 104 0 103 104 0 105 105 0 106 0 0 107 106 0 106 113 146 0 0 0 207 0 204 203 204 0 0 0 193 0 0 175 166 158 151 154 0 0 144 139 144 150 155 0 0 0 0 147 163 0 0 0 0 0 196 0 0 196 196 196 196 197 0 197 197 197 197 197 197 197 197 197 0 0 197 197 0 0 197 197 0 197 197 196 196 0 197 0 197 197 197 197 0 196 196 0 196 197 0 0 0 0 0 0 196 196 0 196 196 196 195 195 196 0 0 196 0 196 196 0 195 195 0 0 195 0 0 192 0 192 0 0 191 0 190 0 0 188 0 186 186 185 185 181 176 172 0 167 165 0 162 160 158 156 155 153 152 0 0 149 0 0 0 143 140 137 135 0 133 131 131 131 131 132 132 133 134 135 135 134 0 0 135 135 0 0 0 137 0 0 138 138 138 138 139 0 0 139 139 0 139 0 140 0 140 141 0 144 145 145 0 0 0 151 0 0 0 0 0 152 0 152 0 0 0 153 0 152 0 0 152 0 0 0 152 0 151 151 151 151 151 0 0 0 151 0 151 0 0 0 152 153 0 153 153 0 153 0 0 0 152 151 0 150 149 148 148 0 0 146 145 145 145 0 145 145 0 0 0 0 0 0 0 0 0 0 0 0 141 0 142 0 141 0 0 142 0 143 0 0 0 152 0 164 170 0 0 0 0 0 206 207 210 0 210 208 207 207 206 204 202 200 200 200 199 198 199 199 0 0 199 197 196 195 193 193 0 0 0 0 184 183 185 188 189 190 190 191 0 0 0 0 0 190 187 188 0 0 0 0 196 0 196 197 0 0 0 0 0 176 160 154 0 136 130 140 0 0 0 120 125 0 0 148 147 146 147 150 156 0 0 0 145 142 0 0 158 0 0 0 140 129 119 114 112 111 0 0 0 0 107 107 0 108 113 0 129 0 0 134 132 0 0 128 126 128 0 131 129 0 0 0 0 113 109 0 0 0 113 114 0 0 118 0 0 0 0 0 0 0 109 0 0 101 100 0 106 0 0 0 0 0 118 115 113 112 109 111 0 117 119 0 0 121 0 0 120 0 121 0 0 0 123 120 0 0 111 112 0 0 109 109 109 0 114 114 0 117 118 123 130 0 137 137 0 0 0 151 0 141 142 142 137 0 138 0 135 135 143 147 156 0 161 167 173 183 0 0 212 0 0 0 0 0 0 0 0 220 216 213 0 220 0 225 229 0 0 229 230 0 0 0 222 216 0 0 205 210 0 212 207 0 0 0 211 210 0 0 0 210 210 0 0 211 
109 110 110 110 110 0 0 109 0 0 108 108 108 0 0 0 107 107 107 106 106 0 0 106 105 106 0 108 108 0 107 107 0 0 0 0 106 107 108 108 108 108 0 0 0 107 0 0 0 0 107 0 0 0 104 0 96 93 97 0 0 0 107 107 0 105 105 0 104 104 0 104 104 105 105 107 0 0 106 106 106 109 130 0 0 0 0 206 204 203 0 0 0 0 194 0 0 0 166 0 0 154 153 0 0 143 144 0 0 0 0 0 0 142 154 0 0 0 195 0 195 196 196 0 195 196 0 197 197 196 0 197 197 0 0 197 197 0 0 0 197 197 197 0 197 197 0 197 0 0 197 197 197 0 0 0 0 0 0 0 0 0 0 0 197 197 197 197 196 196 196 197 0 196 0 196 0 0 196 0 0 0 196 196 196 0 194 195 195 195 194 0 193 192 192 0 0 190 190 190 190 189 188 187 187 186 186 188 0 0 178 174 170 0 166 0 162 0 158 0 155 0 151 150 149 149 0 0 0 0 0 137 135 134 133 0 133 0 133 0 133 0 134 0 0 0 134 134 134 135 136 136 0 137 137 0 137 0 137 138 138 139 139 139 140 0 139 138 139 140 140 140 141 143 0 145 146 148 0 0 0 151 0 152 0 152 152 152 152 152 0 0 0 152 152 152 151 0 153 0 151 0 0 0 0 0 152 0 0 0 151 151 0 0 0 150 151 152 152 152 152 0 152 151 151 0 0 150 0 149 0 148 147 146 145 145 144 143 0 0 144 144 144 0 144 0 143 0 142 0 0 0 0 0 0 0 0 0 0 141 0 0 0 143 0 146 148 152 0 163 0 178 0 0 0 203 0 0 209 0 206 206 0 0 0 0 198 195 197 197 197 0 199 200 0 0 200 198 197 0 0 0 0 193 191 0 186 184 187 0 191 0 191 193 195 0 197 196 0 191 189 0 0 194 0 0 0 0 0 0 199 0 0 0 176 159 153 0 0 129 132 0 0 0 131 117 0 0 0 0 146 146 149 0 0 0 0 146 141 0 0 158 0 0 0 0 131 123 116 113 0 110 109 109 0 0 106 106 0 105 113 0 132 0 0 135 132 0 0 128 125 128 0 129 130 0 126 124 0 112 110 111 113 0 0 115 0 0 115 0 0 0 0 0 109 106 103 103 0 100 100 103 0 0 0 0 116 113 111 109 110 109 108 112 0 0 0 0 120 119 119 118 119 120 0 0 0 0 120 116 0 0 108 0 0 105 106 108 110 0 113 114 0 0 115 120 0 0 132 134 139 0 145 0 0 151 0 147 139 0 138 0 135 137 0 146 148 0 160 0 171 177 184 197 204 0 0 0 0 222 220 0 0 220 217 213 214 220 0 223 223 0 0 231 231 0 232 0 0 219 0 0 205 207 0 0 207 0 0 210 0 0 209 0 0 209 209 209 0 0 
109 110 110 110 0 109 108 108 108 107 108 0 109 0 108 106 106 0 0 106 106 106 105 106 106 0 107 107 0 0 0 107 107 107 0 0 107 107 0 0 0 0 108 108 108 107 107 108 109 108 0 106 106 0 0 0 97 93 97 0 0 107 0 0 106 105 0 0 105 105 104 103 103 0 106 0 107 106 106 107 106 106 116 154 0 0 0 0 0 203 203 0 0 0 195 191 0 0 165 155 151 0 0 151 0 0 148 147 148 0 0 0 0 140 149 0 0 0 195 195 0 0 195 0 0 196 0 0 0 0 0 0 197 197 197 197 197 0 197 0 197 197 197 0 0 0 197 197 0 197 0 0 0 195 196 196 196 196 0 0 0 196 0 0 196 0 0 196 0 0 0 0 0 197 0 0 196 196 0 196 196 0 0 196 0 195 195 0 0 0 194 193 192 192 192 0 191 190 190 190 190 0 0 187 188 188 189 195 0 0 181 174 171 0 166 164 162 0 0 156 155 0 152 0 150 0 0 0 0 142 139 0 135 134 134 134 134 0 0 0 0 0 133 0 135 0 134 134 0 0 0 0 0 137 0 137 137 137 0 0 138 138 0 0 0 140 139 138 0 0 0 0 141 142 0 0 0 147 148 0 0 0 151 151 151 151 152 152 152 0 152 152 0 0 152 152 152 0 153 0 151 151 0 152 152 0 0 152 152 0 152 151 0 152 0 151 0 0 151 0 152 0 151 150 150 0 0 150 149 149 149 0 147 0 0 145 0 144 0 144 0 143 143 143 143 0 142 142 141 0 142 142 0 141 141 140 140 140 0 0 141 141 141 142 144 0 148 151 157 163 170 177 184 191 0 0 0 0 0 0 207 0 0 203 200 197 194 193 0 197 0 0 200 200 201 0 0 0 199 197 0 197 0 0 0 189 188 187 189 0 0 0 193 194 0 0 0 0 0 191 191 0 0 0 0 198 0 0 198 0 0 0 0 176 158 153 0 0 134 127 137 0 0 0 122 120 0 0 147 0 146 147 154 0 0 0 148 141 0 0 156 0 0 0 0 135 125 118 113 112 110 109 108 108 0 106 105 104 104 107 116 124 0 0 0 138 134 0 131 0 125 126 0 0 0 0 125 120 0 0 0 108 110 0 114 0 0 0 109 0 108 105 105 105 103 100 99 100 100 99 99 101 0 0 112 0 0 108 106 106 0 0 0 0 0 114 0 0 117 0 117 118 119 121 0 0 0 0 117 114 112 110 110 0 105 104 0 110 111 111 0 113 116 116 116 119 124 124 125 0 0 0 138 143 0 0 0 0 140 0 135 131 135 0 0 0 149 150 156 162 0 0 180 0 0 204 211 0 0 0 0 220 0 222 217 215 216 218 0 222 220 0 230 0 0 232 231 0 0 0 0 212 206 207 0 0 207 0 0 0 208 0 0 0 0 208 0 208 0 208 
0 0 0 0 0 109 108 0 108 0 107 0 0 0 108 107 106 107 107 106 105 0 0 0 0 0 0 107 0 0 107 106 107 0 0 107 106 107 0 0 106 107 0 0 0 107 107 0 0 0 0 106 106 105 0 0 97 94 98 0 0 0 0 0 106 105 0 0 0 0 0 104 104 0 106 0 106 0 0 0 0 106 109 136 0 0 0 0 0 203 203 0 0 0 0 192 0 0 167 157 150 150 0 0 152 0 0 0 0 0 146 140 142 141 146 0 0 0 196 0 0 0 0 0 195 0 196 196 196 196 0 0 196 0 0 0 197 0 197 0 197 197 0 197 197 0 197 0 0 196 197 0 0 196 196 196 196 196 196 196 0 0 0 0 196 197 197 196 197 197 197 196 0 0 196 0 196 0 0 196 0 0 196 196 195 195 0 195 194 194 0 193 192 192 192 191 0 0 191 0 190 190 189 189 190 193 0 0 0 0 187 175 171 0 166 0 0 0 159 157 0 154 0 151 150 0 0 0 144 141 139 0 136 0 0 134 0 0 133 133 134 133 133 134 0 0 134 0 0 135 0 136 136 137 0 137 0 137 0 0 138 0 139 140 0 140 139 138 0 139 140 0 0 141 142 0 0 146 147 0 0 150 0 150 0 0 0 152 0 152 152 0 152 0 0 0 152 0 153 0 152 152 152 152 152 0 0 151 0 152 0 152 0 151 0 152 0 151 151 0 0 151 0 150 0 151 0 151 150 0 149 0 148 0 146 145 145 0 144 144 0 143 143 0 142 141 0 0 141 141 140 0 141 140 0 139 140 140 140 0 139 140 0 142 0 145 147 150 156 163 170 177 183 190 0 0 0 207 0 0 207 205 203 202 199 197 194 194 195 0 0 199 0 0 0 0 0 0 201 199 0 0 0 0 192 190 190 190 192 0 196 0 0 196 0 197 0 0 0 191 192 194 0 0 198 0 0 198 198 198 0 0 0 159 152 151 0 0 130 128 0 0 0 0 117 126 0 0 146 146 146 149 0 0 0 151 141 0 0 155 0 0 0 0 0 128 120 116 112 111 110 109 108 107 106 105 0 104 106 0 117 126 0 0 0 0 136 0 132 0 124 122 0 0 0 0 0 119 115 113 110 106 106 0 0 110 0 105 102 103 103 100 100 100 0 99 99 0 99 98 99 0 0 107 0 107 105 104 0 103 103 0 105 0 0 110 0 115 116 0 117 0 0 120 0 0 0 116 113 111 108 109 0 107 104 106 0 0 112 111 113 115 117 119 119 0 0 122 122 0 0 0 133 135 142 0 0 0 153 153 145 132 130 0 0 0 0 148 152 0 165 0 176 183 190 196 204 0 213 215 0 217 0 0 218 214 0 218 0 0 221 0 0 232 0 232 230 0 0 0 0 212 211 212 0 212 207 0 207 207 207 207 0 0 207 207 0 207 0 207 
109 109 110 109 109 109 109 0 108 0 107 108 0 0 0 0 0 0 107 0 0 105 105 105 105 105 106 0 106 0 0 0 0 0 0 107 107 107 108 0 107 107 108 108 107 107 0 0 0 0 0 0 0 104 0 0 96 96 0 0 106 106 106 0 105 0 105 105 105 105 0 104 0 105 105 0 106 0 0 0 0 105 106 121 0 0 0 0 204 202 203 0 0 202 0 193 0 0 0 157 0 0 155 0 0 151 150 0 149 148 141 137 0 0 148 0 0 0 0 196 0 195 195 195 195 0 195 196 196 0 0 0 196 196 196 196 196 0 196 196 0 197 0 0 196 0 0 196 196 0 197 197 0 196 0 196 0 0 196 196 0 197 197 0 197 0 0 0 197 0 196 196 196 196 0 0 0 0 0 196 0 0 196 0 0 195 195 0 194 194 194 0 193 0 192 192 192 192 192 192 191 191 192 195 0 0 199 0 0 0 0 177 171 0 0 164 0 161 159 0 0 154 152 151 149 149 148 0 144 141 0 0 135 0 0 134 134 0 134 0 0 0 0 134 134 0 134 135 135 135 135 135 0 136 137 0 0 137 137 137 137 0 138 0 140 0 139 0 0 139 139 140 139 140 141 142 144 0 146 147 0 0 150 150 151 151 0 152 152 0 0 0 152 0 0 153 0 153 0 0 0 0 152 152 0 0 152 0 152 152 0 0 152 152 0 152 0 151 151 151 151 150 150 0 151 151 0 0 151 0 150 149 0 0 0 146 0 0 144 144 144 0 143 0 142 0 141 141 141 0 140 0 140 140 0 140 0 0 139 139 0 0 140 141 0 144 146 149 155 163 0 179 184 191 0 0 0 206 207 0 0 0 203 0 0 0 194 193 194 0 0 199 0 0 203 0 0 0 0 200 0 0 0 194 192 191 0 0 0 196 0 0 196 0 0 196 196 0 193 191 192 0 0 0 0 0 198 198 0 0 0 0 161 152 150 150 0 0 126 130 0 0 0 131 115 0 0 144 0 146 147 155 0 0 0 140 146 0 152 0 0 155 0 0 130 121 116 114 111 110 0 0 0 0 0 0 104 105 108 0 119 130 0 144 0 0 140 135 133 0 123 119 0 127 0 0 0 118 113 0 0 107 106 0 0 107 105 101 98 99 0 100 99 98 0 100 0 0 0 97 99 0 102 0 104 103 101 100 101 100 100 101 103 105 105 105 109 0 0 0 0 0 117 0 0 0 0 110 108 108 0 0 108 105 107 108 0 0 0 113 114 117 0 0 0 0 124 124 124 126 130 132 134 137 138 144 153 0 0 0 0 142 130 134 135 141 0 0 0 156 162 0 172 176 187 0 201 0 209 209 0 214 0 0 217 215 0 220 0 0 221 225 227 232 0 233 231 232 0 0 0 217 0 213 0 0 206 205 205 0 0 206 0 0 0 0 0 0 0 206 
0 0 0 0 0 0 109 0 108 0 108 108 108 108 108 108 0 106 0 106 0 0 0 105 105 0 105 105 105 0 0 106 106 0 107 107 0 0 107 108 0 0 0 0 0 0 108 0 0 108 0 0 105 0 0 98 95 96 0 0 0 0 105 0 105 0 0 104 0 105 0 0 105 105 106 0 0 0 0 0 106 105 105 111 147 0 0 0 204 202 0 0 0 0 0 0 0 0 170 152 148 0 0 0 153 0 149 0 0 0 148 143 145 0 146 161 0 0 0 0 0 195 195 195 0 0 196 196 0 0 196 196 0 0 0 0 196 0 0 0 0 0 196 196 0 196 196 0 0 0 0 196 0 196 196 196 196 196 0 0 0 197 197 197 197 197 197 0 197 196 196 196 196 0 0 196 196 0 0 196 196 196 0 0 195 195 195 195 195 0 194 0 194 0 193 0 193 193 193 194 196 0 0 0 0 0 199 0 0 0 0 180 172 0 167 164 0 161 159 157 0 154 0 151 149 149 0 0 0 141 0 0 135 134 134 0 134 134 134 134 134 134 0 0 0 134 0 0 135 0 0 0 136 0 0 137 137 137 137 0 137 0 0 139 0 0 0 138 139 0 0 0 140 0 141 142 143 143 145 146 0 0 149 0 0 151 151 0 152 0 153 0 0 152 152 153 0 153 152 151 0 0 152 152 152 152 151 0 152 153 0 0 152 152 152 152 152 0 151 0 0 150 151 151 151 0 152 152 0 0 151 0 149 148 147 0 145 145 0 144 0 144 0 143 142 0 141 0 141 140 0 140 140 140 140 140 0 0 138 138 139 139 140 0 142 143 0 150 155 164 0 0 187 0 0 200 204 0 0 0 0 0 202 0 0 0 193 192 0 194 196 0 0 0 203 0 0 0 0 200 0 197 0 195 193 192 193 194 0 197 0 0 197 197 0 0 0 0 192 190 192 0 0 0 0 197 197 197 0 0 0 162 151 150 0 0 0 135 125 133 0 0 0 124 116 0 0 142 143 145 152 0 0 0 141 142 0 150 156 0 0 149 0 133 122 117 114 0 111 109 0 0 106 106 105 105 105 105 107 113 118 0 0 0 147 0 0 139 0 0 123 119 120 124 0 0 0 0 111 0 0 107 105 106 0 105 104 0 101 99 100 100 98 99 99 0 100 98 98 99 99 100 100 100 102 0 100 97 100 100 100 0 0 0 102 104 0 0 111 112 112 114 0 0 0 113 111 107 105 0 107 0 108 107 109 111 112 112 114 0 117 120 123 125 0 127 127 0 0 0 128 131 0 0 0 142 145 153 0 0 0 0 150 139 133 136 0 0 152 156 160 165 0 177 0 0 0 0 206 202 206 209 212 0 214 213 0 220 224 0 225 225 228 0 0 234 232 232 0 0 223 0 212 212 0 209 204 0 0 204 204 204 0 204 205 205 0 0 205 204 
0 0 0 0 0 0 108 0 108 0 108 0 108 109 109 109 108 107 106 105 104 104 104 105 105 104 105 0 106 0 0 106 105 0 107 107 106 0 0 108 0 108 0 107 107 0 107 107 0 0 0 105 104 0 0 0 95 96 102 0 0 0 0 106 0 105 105 105 105 0 104 103 0 0 0 106 105 105 0 107 106 105 105 107 131 0 0 0 204 203 204 0 0 0 0 0 0 0 0 155 149 150 154 0 152 151 151 150 152 0 0 0 0 145 142 154 0 0 0 195 195 195 0 195 0 0 196 0 196 195 196 0 0 0 0 196 197 0 0 196 196 0 0 196 0 196 196 0 196 196 0 196 196 0 0 196 0 0 0 196 0 0 197 0 197 0 197 0 197 196 0 196 196 0 196 196 0 0 196 0 0 0 195 195 194 195 195 0 0 195 195 194 195 195 195 197 197 197 198 199 0 0 0 0 0 199 199 0 0 189 0 0 173 170 0 165 163 161 159 157 0 154 0 151 150 0 0 146 143 141 0 137 135 133 133 0 134 0 0 0 0 133 133 133 0 134 0 134 135 0 0 0 135 136 136 0 0 137 137 0 136 0 0 138 139 139 139 138 0 0 0 0 140 140 0 0 142 143 0 0 0 147 148 0 0 151 151 0 152 0 0 0 0 152 152 0 0 0 152 0 0 152 152 152 152 0 0 151 0 0 0 153 152 0 0 0 152 0 151 150 0 151 0 0 151 0 0 152 0 152 152 0 150 148 0 0 146 0 0 145 0 0 144 0 143 0 0 142 141 140 140 139 140 140 140 139 139 139 138 0 138 139 0 140 141 143 0 149 155 167 0 0 189 192 0 199 0 0 208 208 207 205 202 200 0 195 192 0 0 193 195 0 0 0 0 0 0 0 0 0 0 0 0 0 0 0 193 195 0 0 0 0 0 196 0 0 0 0 191 189 0 193 0 0 0 195 0 0 0 0 164 151 149 149 0 0 0 132 126 0 0 0 0 121 118 0 0 140 0 149 0 0 0 144 137 0 148 152 0 0 0 0 0 0 0 116 113 112 0 109 0 0 105 0 104 105 105 107 0 113 117 0 0 149 149 0 0 143 136 0 126 121 119 122 0 0 0 0 111 110 0 107 104 103 0 105 0 0 0 101 102 0 101 100 0 0 0 100 99 100 102 0 103 103 103 102 100 101 0 0 100 100 101 102 101 102 107 108 108 108 112 0 0 113 111 0 0 105 105 106 107 0 110 110 111 0 115 117 119 121 122 124 126 128 129 130 131 0 0 0 132 132 135 0 0 0 143 145 151 158 0 0 0 0 147 137 139 0 0 154 0 162 0 176 182 193 0 0 0 204 199 202 207 0 210 209 216 0 224 0 0 225 229 0 0 0 234 0 0 218 220 0 212 209 0 206 201 201 0 0 202 202 0 0 0 203 203 0 203 0 
109 109 109 107 107 108 107 107 107 0 107 108 0 0 0 0 0 0 0 0 106 105 0 0 105 105 106 106 106 0 0 106 106 0 107 0 107 106 0 107 107 0 107 106 106 107 107 0 107 107 0 105 103 0 99 96 95 98 0 0 0 0 0 106 0 105 105 0 0 104 103 104 0 0 0 105 0 104 105 0 107 0 0 105 118 0 0 0 0 203 203 0 0 0 0 198 0 0 0 157 147 0 0 0 152 150 0 0 0 0 0 0 149 144 141 150 0 0 0 195 195 195 0 0 195 195 0 0 196 0 196 0 196 196 0 0 0 0 196 196 196 196 0 196 0 196 0 196 0 196 196 0 196 0 196 0 0 196 196 195 196 0 197 197 0 0 0 197 197 197 0 0 196 0 0 0 196 0 0 195 195 195 195 195 195 195 0 195 0 195 195 197 198 200 202 0 0 0 0 202 0 0 0 0 0 199 0 0 190 184 183 0 175 170 0 166 0 0 0 0 155 154 0 0 150 149 0 0 142 141 0 137 135 134 0 134 134 0 133 133 133 133 133 0 133 0 0 133 0 0 0 0 135 0 0 137 0 0 0 137 136 137 0 0 0 0 0 139 139 139 139 139 0 0 139 0 0 0 0 145 0 145 147 149 0 151 151 151 151 152 0 152 0 0 0 152 152 152 0 0 152 0 151 0 0 151 151 151 0 0 0 0 152 0 0 152 152 151 150 0 0 150 151 0 152 0 0 0 152 0 0 0 0 149 148 0 146 0 145 0 145 0 143 0 143 143 0 0 0 140 0 0 0 0 140 0 139 0 138 0 138 139 0 140 142 144 0 149 155 171 0 0 189 0 195 198 202 0 0 0 0 0 203 199 197 194 193 0 0 0 195 0 0 199 200 0 0 0 0 195 194 0 194 0 0 0 0 0 0 0 0 0 0 195 194 0 192 0 0 187 189 0 0 0 0 0 0 0 0 162 150 148 148 149 149 0 0 131 126 0 0 0 0 118 120 0 139 140 145 154 0 0 150 135 142 148 152 0 0 0 0 138 130 124 0 114 0 111 0 108 106 0 105 0 105 0 0 0 0 111 118 0 0 151 149 0 0 0 141 135 129 0 0 118 120 0 0 0 112 109 109 0 106 103 0 0 0 0 0 0 0 0 0 99 0 101 0 0 101 103 0 105 0 0 0 104 104 0 104 103 0 101 100 102 104 106 108 110 0 0 0 0 0 107 108 107 104 103 104 105 108 111 112 113 0 116 0 122 0 0 127 0 130 131 0 0 0 0 136 136 136 136 135 137 0 0 144 144 145 148 156 0 0 0 0 152 139 0 0 150 0 159 166 0 180 187 0 0 0 208 0 200 204 207 0 0 0 0 225 0 0 228 0 0 0 0 234 0 0 216 216 0 0 207 0 0 200 199 0 200 200 200 201 201 0 200 0 201 201 201 
0 0 0 0 0 107 107 106 106 106 107 108 0 110 110 110 109 110 109 0 0 106 106 106 0 0 107 107 107 107 107 107 106 107 107 0 108 108 0 107 106 106 107 0 0 0 107 107 107 107 0 105 103 101 97 95 95 0 0 0 106 0 106 105 105 105 105 0 105 0 0 0 104 105 105 105 0 104 0 0 0 0 106 105 110 142 0 0 0 203 203 0 0 0 203 199 0 0 0 162 148 147 0 0 0 0 0 0 0 0 0 0 0 143 141 146 0 0 0 0 195 195 0 195 195 195 195 195 196 196 196 196 196 196 0 0 196 196 196 0 0 196 0 0 0 196 196 196 196 0 0 196 196 0 0 196 196 196 0 0 195 0 197 0 196 196 197 197 197 0 0 196 195 196 196 196 196 196 195 195 195 195 0 0 195 0 0 194 194 194 197 0 0 0 0 0 0 0 207 206 0 0 207 0 0 197 192 189 185 182 181 0 176 172 0 166 163 162 160 0 0 154 0 151 150 0 0 145 142 0 0 137 134 134 134 134 134 0 0 0 0 133 0 0 133 133 133 133 0 135 135 135 135 0 0 136 136 137 0 0 0 0 137 138 0 139 139 0 139 139 139 139 139 139 139 139 140 0 0 143 144 0 0 147 149 0 0 151 151 0 152 152 152 0 152 0 0 0 0 151 151 0 151 0 0 151 0 152 0 153 152 152 151 152 152 152 152 0 150 150 0 150 151 0 152 0 0 153 152 152 152 0 151 0 0 146 145 0 145 145 145 0 0 0 143 143 0 0 141 139 139 139 0 0 139 0 139 0 0 0 0 139 139 0 0 144 0 149 157 0 0 0 190 192 194 198 202 0 0 0 209 207 0 201 0 0 0 191 191 0 0 0 0 196 0 0 0 0 0 190 190 190 191 0 0 0 0 0 194 0 0 194 0 0 0 0 190 0 187 186 0 0 190 191 0 0 0 0 161 151 147 148 0 0 149 0 0 132 127 0 0 0 0 117 122 0 138 141 0 0 0 0 138 137 0 152 0 0 0 0 139 130 123 118 115 112 0 110 0 0 105 0 105 104 104 106 0 0 109 109 125 0 0 0 152 0 0 0 0 0 131 124 0 0 114 115 115 114 113 112 0 0 0 105 104 105 104 0 0 0 0 0 0 102 101 101 0 102 103 0 0 109 0 110 0 110 0 0 0 106 0 103 102 104 106 0 0 0 0 0 0 112 110 107 107 106 106 106 106 107 0 0 0 115 118 121 0 126 0 0 0 0 0 135 0 0 137 138 0 0 139 0 139 138 140 0 0 145 145 145 148 155 166 0 0 0 159 148 145 148 0 161 166 174 179 184 195 203 0 0 0 0 208 206 201 206 212 0 221 220 225 0 0 226 231 0 233 0 0 0 212 212 0 211 202 200 198 197 197 0 0 0 0 0 0 198 0 0 0 0 
107 0 107 106 106 0 0 107 0 0 108 0 110 0 0 0 0 0 0 108 108 107 0 0 0 0 0 108 0 0 108 0 108 0 107 0 0 0 0 0 107 0 0 0 106 0 107 107 107 107 0 0 0 0 0 94 96 0 0 0 106 105 104 0 0 0 105 0 0 104 0 104 103 104 0 0 105 105 0 107 106 106 106 106 106 125 0 0 0 203 204 0 0 0 0 0 0 0 0 0 150 146 146 146 146 145 144 145 145 147 146 145 144 0 140 142 157 0 0 0 195 195 0 194 0 195 0 0 0 0 0 196 0 0 196 0 196 195 196 0 0 196 196 0 0 196 196 196 196 196 196 196 196 196 0 0 0 196 0 196 196 0 197 0 196 196 0 0 0 0 197 196 195 195 196 196 196 196 196 0 0 0 0 0 195 0 195 194 195 197 201 0 0 0 211 0 212 0 0 209 0 0 207 0 0 0 188 185 183 182 181 0 0 0 170 166 164 0 160 158 156 154 0 0 0 0 147 144 142 0 0 0 135 134 0 0 0 0 133 132 132 133 133 132 132 0 133 0 0 135 0 0 0 0 135 136 0 0 0 135 135 0 0 0 0 139 139 0 0 0 139 139 0 0 0 139 139 140 0 142 143 0 0 146 0 0 0 0 150 151 0 0 0 151 151 151 151 0 151 151 0 151 151 151 151 151 0 152 0 0 153 0 152 152 152 0 152 0 150 150 0 151 151 151 0 152 153 153 0 0 152 0 151 0 0 0 0 145 145 145 145 0 144 0 0 143 0 0 0 139 0 139 140 0 0 139 139 139 139 138 139 0 139 140 142 144 146 151 160 0 0 192 191 0 194 0 0 0 0 211 0 0 0 202 0 0 0 0 0 0 0 0 0 0 0 0 0 189 0 186 0 187 188 0 0 0 190 0 0 0 0 0 0 0 0 0 0 0 185 183 0 0 0 0 0 0 169 156 151 148 147 148 149 0 148 0 0 135 129 0 0 0 0 116 122 0 137 143 0 0 0 142 134 145 152 0 0 0 0 0 133 124 118 115 112 111 0 0 107 105 105 0 104 104 105 106 107 108 108 117 0 0 0 154 0 154 0 0 0 0 135 125 123 0 116 113 113 0 0 0 0 0 108 107 0 0 0 106 107 0 108 0 106 104 103 103 103 103 105 0 0 111 112 0 0 0 0 0 0 0 106 105 106 0 108 0 0 112 0 0 112 110 0 0 0 0 0 0 108 0 0 116 118 119 123 0 128 0 0 134 135 136 0 0 0 140 0 0 0 141 0 0 0 141 140 0 0 0 0 147 147 149 154 167 0 0 0 167 147 148 156 160 0 0 182 186 193 0 0 0 0 0 0 0 209 208 209 213 0 218 0 224 221 224 0 0 233 232 0 0 207 205 0 0 0 199 195 195 195 195 195 195 0 0 0 0 0 0 0 195 
0 107 107 0 106 106 107 106 108 0 109 110 111 111 0 0 110 0 0 110 0 108 107 107 0 0 0 108 0 0 0 0 0 0 108 0 109 0 108 108 107 107 107 107 106 107 106 0 0 107 0 0 0 0 97 94 97 101 0 0 0 0 104 104 104 0 104 104 0 104 104 104 104 0 0 0 0 0 105 0 0 106 0 0 105 113 150 0 0 0 204 0 0 0 0 203 0 0 0 165 145 140 143 145 145 144 144 145 147 147 146 145 143 0 137 135 144 0 0 0 0 195 0 194 195 0 0 0 195 195 0 196 196 0 196 0 196 196 0 196 0 0 196 195 196 196 0 0 196 196 195 0 196 0 196 0 196 196 0 0 0 0 196 196 0 0 196 196 0 197 197 0 196 0 196 0 0 0 0 196 196 196 0 195 195 194 195 195 197 199 0 0 0 0 0 212 0 0 0 0 0 0 0 0 0 189 186 184 183 0 0 0 0 0 171 167 164 0 0 158 156 154 152 151 0 0 146 0 142 141 139 136 135 133 0 0 133 133 133 0 0 133 133 0 0 0 0 133 134 135 0 0 135 135 135 0 0 135 0 135 134 135 136 137 0 0 139 0 0 0 139 0 138 137 138 0 139 0 140 141 142 143 144 145 0 0 148 0 150 0 151 151 151 0 0 151 0 151 0 150 0 0 0 151 0 0 0 152 153 0 153 0 0 0 152 0 151 0 0 0 0 151 0 151 0 152 152 0 0 0 0 0 151 0 148 146 0 0 145 145 0 0 143 143 143 0 142 141 140 140 0 140 139 140 139 139 139 0 0 139 0 139 139 140 142 143 146 151 165 0 0 191 0 0 195 199 204 0 0 0 0 0 0 0 0 0 184 181 182 0 0 185 186 0 0 0 184 183 182 181 182 0 184 185 185 0 186 0 186 186 186 0 186 185 0 185 0 0 0 181 181 183 184 0 0 165 149 149 149 147 0 148 0 0 147 0 0 0 130 131 0 0 0 117 122 0 137 0 0 0 0 135 142 0 0 0 0 0 144 0 126 119 115 113 0 109 0 107 106 106 0 104 103 104 0 0 107 109 115 0 0 0 0 154 0 0 0 149 0 0 135 0 0 120 116 115 114 113 113 112 111 0 108 109 0 0 0 107 108 109 0 0 0 0 107 0 105 105 108 0 0 112 0 0 0 0 110 110 0 108 107 108 0 0 110 109 109 111 0 113 0 110 0 0 108 105 106 0 109 113 117 119 121 125 0 0 0 134 0 0 138 139 0 141 0 142 0 0 142 143 0 0 0 0 142 141 0 145 0 0 0 148 150 155 0 0 0 0 0 156 160 162 169 0 0 0 194 195 202 208 0 0 0 0 0 0 0 0 217 218 0 0 222 224 0 0 0 231 228 221 209 196 0 0 0 0 194 192 0 0 191 192 0 0 192 0 0 0 0 0 
106 106 0 0 107 0 108 108 108 109 110 111 112 0 0 0 111 110 0 0 0 108 107 0 106 106 106 0 108 107 108 0 0 0 0 0 108 0 108 108 0 0 0 0 0 0 108 0 0 107 106 104 101 0 95 94 98 0 0 0 0 0 0 0 0 104 0 105 0 0 0 104 0 0 105 105 105 0 105 105 106 0 0 0 106 109 134 0 0 0 204 204 206 0 0 0 0 0 0 0 147 142 0 0 147 145 146 148 0 0 153 147 143 142 142 141 140 157 0 0 0 195 195 195 195 0 196 0 195 195 0 0 195 195 196 196 196 196 196 195 196 0 196 0 0 196 0 196 0 196 196 196 196 0 196 195 196 0 196 196 0 196 196 196 196 196 0 196 196 0 0 0 196 196 0 196 0 0 0 0 196 196 196 0 0 195 0 196 0 201 0 208 210 0 0 212 0 0 0 0 0 204 0 0 191 186 185 183 0 0 0 174 0 0 171 0 165 163 161 159 0 155 0 0 0 0 145 142 0 0 0 137 135 134 133 133 0 0 0 133 133 133 0 133 133 132 132 133 0 134 135 134 135 135 135 0 0 135 0 0 134 134 135 136 137 0 0 139 0 139 138 138 138 0 138 138 0 0 0 140 141 0 142 0 145 146 0 0 0 0 0 0 0 150 150 0 150 150 0 0 150 150 150 150 0 152 152 152 0 0 152 0 152 0 0 151 150 151 0 150 0 150 0 151 0 0 152 152 152 0 0 151 0 149 0 146 0 145 0 145 144 144 143 143 0 142 142 0 140 0 0 140 0 0 0 139 0 0 0 139 0 138 0 0 0 144 147 153 0 0 0 190 191 193 196 199 0 0 0 212 211 0 0 201 0 185 177 173 174 0 0 0 180 0 0 179 0 0 177 177 0 0 181 181 181 181 181 182 182 182 182 183 0 181 182 182 181 181 0 179 179 0 0 0 0 147 145 147 0 147 147 0 0 0 146 0 0 0 132 129 0 0 0 118 122 0 140 0 0 0 139 139 0 0 0 0 0 0 136 126 119 116 113 0 110 109 0 107 0 0 0 103 104 0 0 105 108 117 125 0 0 0 0 158 154 0 0 149 145 0 0 0 0 119 117 119 119 116 114 112 109 109 0 111 111 111 110 109 0 0 110 0 0 0 0 0 107 107 0 0 110 0 0 0 0 111 108 0 0 108 0 0 0 0 110 0 0 0 0 0 110 108 108 0 0 107 107 110 114 118 0 124 127 0 0 0 0 137 0 0 0 0 0 143 0 0 144 0 0 0 145 0 145 0 0 0 143 144 146 147 0 148 148 149 155 0 0 0 0 0 176 175 174 180 0 192 196 198 202 207 207 207 207 0 0 212 0 0 216 217 0 0 223 224 230 0 0 230 0 0 0 190 186 0 0 196 0 190 188 0 189 189 0 0 188 0 189 188 0 186 
106 107 108 108 0 0 0 0 0 110 0 0 0 0 0 112 0 111 0 109 108 0 107 0 106 105 105 106 107 0 0 0 108 0 0 108 0 0 108 0 0 108 109 109 109 0 0 0 0 106 0 0 101 0 95 94 98 0 0 106 0 105 104 104 104 105 0 0 0 105 0 104 105 0 105 105 105 0 105 105 105 106 0 0 106 106 121 0 0 0 0 205 0 207 0 0 0 0 0 0 147 143 151 0 149 146 148 154 0 0 0 0 144 143 0 0 148 149 0 0 0 195 0 195 195 0 195 0 0 195 195 195 195 0 0 0 0 196 0 196 196 196 196 0 0 196 0 0 196 0 196 0 0 196 196 195 196 0 196 196 0 196 196 196 196 196 0 196 196 0 0 196 196 0 196 196 0 0 196 0 0 0 196 0 196 0 197 0 199 202 0 0 0 0 0 211 0 0 205 202 202 201 0 193 188 186 0 0 0 0 0 159 0 0 0 169 165 0 0 0 0 155 0 152 150 0 144 140 140 0 0 0 135 0 133 133 0 0 133 0 133 133 0 134 134 0 133 133 0 0 0 134 0 0 0 0 135 0 134 134 133 0 134 0 136 0 137 0 139 0 0 0 0 138 138 138 0 138 139 139 140 0 141 142 143 0 146 147 148 0 0 150 0 150 0 150 150 0 151 0 0 150 150 0 0 151 0 152 152 152 152 0 0 152 0 151 0 0 0 150 150 150 150 150 151 151 0 151 151 0 0 150 0 0 147 146 0 0 145 0 0 0 143 142 0 143 0 0 0 141 0 140 139 140 0 140 0 0 139 139 0 139 140 141 142 144 149 159 0 0 0 0 190 193 0 199 0 0 0 213 0 0 0 0 0 181 171 166 165 167 0 173 174 0 174 173 173 0 172 173 175 0 0 178 0 0 179 0 0 0 0 180 0 0 0 0 179 0 0 176 176 177 0 0 150 142 0 147 0 148 148 0 0 0 0 142 0 137 0 130 0 0 0 121 121 0 146 0 0 146 135 0 0 0 0 0 149 139 129 120 115 113 112 110 109 108 107 107 0 0 102 103 0 0 106 108 116 124 133 0 0 0 0 0 159 0 0 0 141 133 0 0 119 120 0 0 0 0 0 0 114 0 0 112 0 112 0 111 111 0 111 0 0 0 110 0 0 108 108 108 109 0 0 0 0 107 106 0 0 110 0 0 0 111 109 112 0 0 0 111 108 107 108 0 0 109 112 115 0 123 126 0 0 0 0 0 0 0 0 0 0 0 0 144 145 0 0 145 0 146 146 0 146 146 0 145 0 145 145 0 147 148 148 147 148 154 170 0 0 0 0 191 181 179 189 0 200 0 208 212 0 0 204 202 205 207 212 215 215 215 217 219 0 0 0 0 0 231 0 0 0 190 182 193 0 193 0 0 185 185 0 186 0 186 185 0 185 185 0 183 
0 0 0 109 0 110 0 110 110 0 0 0 113 0 0 112 0 110 0 109 108 0 0 106 0 0 104 105 0 0 107 106 0 0 0 108 108 108 108 0 108 108 0 0 109 108 107 107 0 0 0 0 0 97 94 94 0 0 0 105 0 105 103 104 0 105 0 105 104 0 104 0 104 0 0 0 104 0 104 0 105 104 0 0 105 105 112 145 0 0 0 0 207 0 0 0 0 0 0 0 149 147 0 0 155 146 149 0 0 0 0 0 144 142 147 0 149 144 162 0 0 0 195 195 195 0 195 195 0 195 195 195 0 0 0 195 0 195 196 0 0 0 195 195 195 196 0 196 196 196 196 0 0 0 0 0 196 0 196 196 197 0 0 0 196 196 196 196 0 0 196 196 196 0 0 0 0 0 196 196 0 196 196 0 196 197 0 0 199 202 0 0 0 0 0 0 206 201 200 0 0 0 0 190 188 187 0 0 0 0 155 147 0 0 0 0 166 0 161 0 0 0 153 0 0 146 143 141 140 0 0 0 134 0 133 0 133 133 133 133 133 134 0 135 0 0 134 133 134 0 0 0 134 0 133 133 0 0 134 134 134 133 134 0 135 136 137 0 0 0 137 137 0 0 138 0 0 138 0 139 139 140 140 141 0 0 144 145 0 0 148 0 0 150 0 0 150 0 0 151 0 150 150 0 151 0 0 152 151 152 0 152 0 151 151 150 0 0 150 149 0 0 0 0 150 0 0 149 0 0 149 149 0 147 146 145 145 0 0 144 144 143 143 0 0 0 0 142 0 141 0 140 140 0 0 140 139 139 139 0 138 139 0 141 142 145 150 165 0 181 185 186 190 0 196 203 0 0 0 0 0 0 0 0 188 177 169 164 161 161 164 167 0 169 0 0 169 167 167 0 171 0 0 175 175 0 176 176 176 177 0 177 177 177 177 0 0 0 0 173 173 0 0 157 139 142 0 147 0 0 0 0 0 0 143 141 0 137 0 131 131 0 0 124 123 0 0 0 0 136 139 0 0 0 0 0 0 131 123 118 0 113 111 110 109 108 108 0 0 103 102 0 0 105 106 115 0 131 0 0 0 0 0 0 163 0 0 0 0 130 124 120 122 0 0 0 0 0 0 0 0 115 114 113 113 113 113 112 112 113 113 0 111 111 111 110 0 0 107 0 108 108 0 0 106 104 105 0 0 0 0 110 0 0 0 0 0 113 112 110 0 109 108 107 109 113 118 0 0 127 131 0 0 0 141 0 0 0 0 0 145 0 146 146 0 147 147 146 0 147 0 0 147 0 0 146 146 0 145 146 0 0 0 0 148 148 153 173 0 0 0 0 192 181 191 0 0 0 0 220 0 219 207 202 200 206 212 0 216 216 216 217 220 222 227 232 0 232 232 0 0 200 0 191 0 191 0 0 184 182 183 182 0 184 183 0 182 182 0 181 
0 0 0 109 0 111 0 110 109 111 112 0 0 112 0 111 110 109 0 0 108 0 105 105 105 105 105 105 106 106 106 0 107 107 108 108 108 0 107 107 107 0 0 109 109 0 0 106 0 105 105 0 100 96 94 96 0 0 0 0 105 0 0 103 104 0 0 0 0 104 104 104 105 0 105 103 104 0 105 105 0 104 105 0 105 106 107 128 0 0 0 0 207 0 0 208 0 0 0 0 153 152 0 0 160 148 149 0 0 0 158 148 143 0 0 0 0 146 155 0 0 0 194 0 195 0 0 0 195 195 0 0 195 0 195 0 0 0 195 0 196 0 195 0 0 195 0 0 196 0 196 196 0 196 0 197 197 197 0 0 0 0 197 196 0 0 196 196 0 0 196 0 0 0 196 196 0 0 0 196 0 196 196 196 0 0 198 199 200 202 206 0 0 0 207 0 200 200 0 0 0 194 191 189 0 0 0 0 0 160 145 141 152 0 0 0 166 164 162 160 158 0 153 151 0 0 144 142 0 139 138 136 134 133 133 0 133 133 133 0 134 0 135 0 136 0 135 0 0 0 134 0 0 133 133 133 133 134 0 0 0 134 134 134 0 135 136 0 0 0 0 137 137 0 137 0 137 137 138 0 0 0 140 140 140 141 142 143 144 146 147 148 0 0 149 149 0 150 0 151 0 150 0 0 0 150 151 0 0 152 0 0 0 151 0 150 150 150 150 150 0 0 149 149 149 149 149 149 148 0 148 148 0 0 0 0 144 0 144 0 0 143 0 0 142 141 141 141 141 141 0 0 0 0 140 0 0 139 0 138 137 138 0 0 143 145 152 0 0 181 0 185 0 0 197 0 0 213 0 0 0 0 0 0 185 177 169 163 160 159 160 163 164 165 166 166 0 165 166 166 167 0 0 172 172 172 173 173 174 174 0 0 174 174 174 174 173 173 172 171 172 0 0 145 137 0 0 147 148 0 0 148 0 144 140 139 0 137 0 133 131 132 0 125 126 0 0 0 143 133 145 0 0 0 0 144 0 124 119 116 114 112 111 0 0 0 0 0 103 101 0 0 104 104 112 0 0 136 0 0 0 0 0 0 0 0 0 0 132 125 121 124 0 0 0 0 126 124 122 0 118 116 115 0 0 0 0 0 0 0 115 114 113 113 0 111 108 107 106 0 107 107 107 106 104 104 0 0 107 108 0 105 106 0 0 108 110 0 0 0 0 110 109 111 116 0 0 0 131 132 136 0 0 142 0 0 0 146 146 146 146 0 147 0 0 0 148 148 0 148 0 0 148 0 147 147 0 146 146 146 146 0 0 0 0 148 150 157 0 0 0 0 0 189 191 201 0 0 222 227 0 0 0 0 212 212 0 0 220 0 0 219 222 225 227 0 0 236 234 0 0 208 0 196 183 181 185 0 181 180 181 181 0 0 180 179 179 179 0 178 
109 109 109 109 110 0 111 111 111 111 111 0 112 111 111 110 0 109 108 108 108 0 107 0 105 105 105 106 0 106 106 0 106 107 0 0 0 0 107 107 0 0 107 0 0 0 106 105 105 105 0 0 99 96 93 97 0 0 0 0 105 0 0 0 104 104 104 104 0 0 0 105 0 105 104 0 104 0 0 0 0 0 105 0 0 0 106 116 0 0 0 0 0 0 0 0 0 0 0 0 157 158 0 0 0 152 146 0 0 0 153 144 142 0 0 0 0 148 148 0 0 0 195 195 195 195 195 195 195 195 195 195 0 195 0 0 0 0 195 0 195 0 195 0 0 0 195 195 0 0 196 0 0 196 196 0 0 198 198 0 0 0 196 0 0 0 0 0 0 0 197 0 0 196 196 196 196 0 196 196 0 0 0 196 196 0 0 199 200 203 0 0 0 205 202 200 200 0 0 0 192 190 189 0 0 0 0 0 0 147 140 137 142 0 0 0 167 0 0 160 158 0 153 151 0 146 0 0 141 139 0 135 133 132 132 133 133 133 133 0 134 0 135 0 0 136 135 0 0 134 134 134 133 132 133 133 133 134 134 0 134 0 134 134 0 135 0 136 136 137 0 0 137 137 137 137 137 136 137 138 0 0 0 0 140 140 0 0 143 144 0 147 0 0 0 149 0 150 0 150 150 150 0 150 0 150 151 0 152 152 0 0 0 150 150 150 150 150 150 0 0 149 0 148 147 148 0 0 148 0 147 147 0 0 0 144 0 143 143 143 0 143 142 142 0 0 141 141 0 0 140 0 140 140 0 0 138 139 0 0 139 0 0 141 0 145 155 0 0 0 0 189 0 197 203 0 0 212 209 207 0 0 0 192 184 0 169 162 159 159 160 161 162 0 164 165 165 165 165 165 167 0 170 0 170 170 171 0 172 172 0 172 172 172 0 172 171 170 0 169 0 0 152 138 139 0 146 146 0 0 148 0 0 0 138 137 0 0 0 0 132 131 0 126 131 0 0 0 134 138 0 0 0 0 0 135 126 119 116 114 113 112 111 111 0 0 0 105 102 0 0 103 101 107 0 0 134 0 0 0 0 0 0 0 0 0 145 131 122 121 123 0 0 126 127 126 0 124 121 121 119 118 117 0 116 115 117 117 117 117 117 0 116 0 0 112 108 107 105 0 0 0 104 0 0 0 103 103 103 0 0 101 103 103 103 106 0 110 111 0 111 111 113 117 0 0 0 0 0 0 0 0 0 145 0 146 0 0 0 148 148 148 148 149 0 0 0 149 0 149 0 0 149 149 149 0 148 0 0 147 146 146 148 0 0 149 149 151 161 182 0 0 0 205 193 202 211 0 0 0 0 0 0 0 0 217 0 0 222 0 0 222 0 0 0 0 0 0 0 0 0 218 0 0 182 180 179 179 179 179 179 182 0 182 178 177 177 0 176 175 
108 109 109 110 0 0 0 0 0 0 0 0 111 110 0 0 0 108 107 107 107 107 0 0 104 0 0 0 0 106 0 0 0 0 0 107 0 0 0 107 106 106 107 0 0 107 0 0 105 0 0 0 0 95 94 99 0 105 0 105 104 104 105 0 0 104 103 0 105 0 105 105 0 0 0 0 104 104 104 104 104 0 105 105 0 106 105 109 137 0 0 0 0 209 0 209 0 0 0 0 160 156 0 0 0 152 144 144 0 0 0 143 140 142 0 0 0 150 143 158 0 0 0 195 195 195 195 195 195 195 195 195 195 195 0 195 0 0 0 0 195 0 0 0 0 0 0 0 195 195 195 196 195 196 0 0 0 198 0 0 197 196 196 0 197 197 197 197 0 196 197 0 197 196 0 0 196 0 0 196 195 195 196 196 0 197 0 0 199 0 0 0 0 202 0 0 0 0 195 192 189 189 0 187 185 0 0 0 149 140 138 136 137 150 0 0 167 0 0 160 158 156 0 0 0 146 145 143 0 0 138 0 134 133 0 0 133 0 0 133 134 0 135 0 0 0 0 136 0 134 134 0 0 0 0 0 0 134 134 134 0 0 0 0 0 135 0 0 135 136 0 0 137 136 0 0 0 0 137 138 0 139 139 139 0 140 141 0 0 143 144 145 0 147 148 0 0 149 149 149 0 150 0 150 150 0 151 0 0 0 0 151 151 150 149 0 0 0 0 149 149 0 148 147 147 0 147 0 147 0 146 146 0 145 143 143 0 143 142 143 0 0 142 141 0 0 0 141 0 140 140 140 0 0 0 0 139 0 138 139 0 0 141 141 144 147 159 0 185 0 0 193 0 197 0 0 214 0 209 207 204 0 196 0 0 0 167 162 159 160 161 161 161 163 164 164 164 164 165 165 167 167 169 0 170 170 170 171 171 171 171 171 171 171 171 170 0 169 166 167 0 0 141 136 142 0 146 0 0 148 0 0 143 0 138 136 0 134 134 0 133 130 130 129 140 0 0 141 131 147 0 0 0 0 140 129 121 117 115 114 0 113 0 0 0 0 106 103 103 0 0 100 101 112 0 130 139 0 0 160 165 0 0 167 163 156 144 132 126 125 125 125 126 126 125 127 126 0 124 0 0 0 119 118 0 0 120 120 121 120 120 0 0 0 0 0 111 107 104 104 104 103 103 102 0 0 100 0 101 0 100 100 0 100 104 106 0 110 111 111 111 116 0 0 0 133 0 139 0 0 0 145 146 0 0 148 148 149 0 0 150 150 150 150 0 150 0 150 150 149 150 0 0 0 0 0 148 148 148 0 0 147 148 0 149 0 148 149 153 167 0 202 0 0 209 206 212 0 0 0 0 0 231 225 0 218 0 0 225 225 0 220 221 225 230 0 0 0 0 0 0 223 207 0 181 178 0 0 178 178 177 0 0 181 176 0 0 0 174 172 
0 0 110 110 111 0 111 0 111 111 0 0 0 111 0 110 109 107 107 106 0 106 105 104 104 104 105 0 106 105 105 106 105 105 106 107 107 107 0 0 106 106 105 107 107 106 0 0 0 104 103 101 97 95 96 100 0 0 0 105 105 105 0 0 0 0 0 105 0 105 105 105 0 0 0 104 0 0 104 0 105 105 105 105 0 105 0 107 123 0 0 0 0 0 0 209 0 0 0 0 163 152 158 0 0 149 143 142 145 0 0 142 140 139 148 0 0 0 139 145 0 0 0 0 0 195 195 0 0 0 0 0 195 0 0 195 195 195 0 195 0 195 0 0 194 195 0 0 195 195 195 0 196 196 197 0 0 197 0 197 195 196 196 0 197 197 197 197 0 0 0 197 0 0 196 196 196 196 196 0 0 0 196 196 0 0 0 199 199 0 0 203 201 0 0 200 198 195 193 191 0 0 187 185 0 0 0 150 140 138 138 136 136 141 0 0 167 164 0 0 0 0 0 151 0 0 0 0 142 0 0 0 0 133 133 133 133 133 0 134 134 135 0 0 137 137 0 136 0 0 0 133 133 133 0 133 0 0 134 0 134 135 0 134 133 134 0 0 134 135 136 136 0 0 135 136 136 0 137 137 0 0 139 139 139 0 140 141 0 142 143 144 0 0 0 148 0 148 0 149 149 149 150 0 150 150 0 151 151 151 151 151 0 150 0 0 0 149 149 148 148 148 0 147 146 0 0 0 146 0 0 145 0 0 143 0 0 0 0 142 0 143 0 142 0 141 141 141 0 140 0 0 0 0 140 0 139 139 139 0 0 0 141 0 143 148 162 0 0 0 195 196 0 199 0 0 212 211 0 0 203 0 193 0 182 0 167 162 163 162 0 0 163 164 164 165 166 165 165 167 0 167 169 170 170 170 0 171 0 171 171 0 171 171 170 169 169 169 0 0 0 145 135 138 0 0 146 0 0 0 0 144 141 138 136 135 135 0 0 0 0 132 131 134 0 0 0 132 137 0 0 0 0 142 132 124 119 116 115 0 0 0 0 0 0 0 103 103 0 0 100 97 106 0 0 134 0 152 0 163 167 0 0 0 0 156 0 0 0 0 130 128 129 129 129 0 128 0 0 125 124 0 0 121 121 122 0 0 0 0 0 0 120 119 117 116 114 0 105 103 102 103 103 101 0 99 98 98 98 100 0 99 99 102 0 0 0 109 112 115 120 124 0 0 134 137 0 143 0 0 147 147 148 0 149 0 0 0 151 0 0 0 0 0 0 0 151 151 0 0 151 0 0 0 0 0 149 0 0 0 0 148 148 0 149 148 147 147 149 155 173 0 0 0 0 216 215 220 228 0 0 0 0 225 220 219 223 0 0 224 0 220 220 222 228 0 0 242 0 0 0 0 193 180 175 176 176 177 177 180 179 0 0 176 175 174 174 173 172 172 
111 0 0 0 111 111 0 0 111 110 111 0 0 0 0 0 0 0 0 0 106 0 104 103 103 103 104 0 0 0 105 106 106 0 106 0 0 0 105 106 0 0 107 0 0 107 106 105 105 105 0 101 96 93 0 0 0 0 105 0 0 106 0 106 105 104 0 0 0 105 105 105 0 104 104 104 0 104 0 0 105 0 0 105 105 105 105 105 112 149 0 0 0 209 210 210 0 0 0 0 164 150 152 0 149 147 0 0 149 143 141 139 138 137 144 0 0 0 137 133 159 0 0 0 194 0 0 0 0 0 0 0 195 0 0 0 0 195 194 195 195 195 0 0 194 0 195 195 0 0 0 0 197 0 0 197 197 197 197 0 195 196 0 0 0 0 0 0 197 197 0 196 197 0 196 196 0 196 196 0 195 196 0 0 197 197 198 0 0 0 0 201 200 199 199 199 0 0 191 0 188 187 0 0 0 0 150 140 138 0 0 0 136 136 153 0 0 164 161 0 156 153 151 150 0 0 146 143 0 0 139 0 0 134 134 0 132 0 134 0 0 135 0 0 136 0 0 0 136 135 134 132 133 0 0 133 133 133 133 0 135 135 0 134 0 134 134 0 135 135 135 136 136 0 135 136 136 136 0 137 0 0 0 0 139 139 0 140 0 0 0 0 0 146 0 147 147 148 0 0 0 149 0 150 0 0 0 151 0 0 0 0 150 0 0 149 149 0 148 148 0 147 147 0 146 146 146 146 145 145 145 144 0 144 144 0 143 142 142 142 142 142 0 0 142 0 141 0 0 0 0 0 140 140 0 139 139 0 139 139 140 0 141 142 143 149 162 0 0 0 195 0 200 206 0 0 211 0 0 0 202 197 192 0 181 0 169 166 166 0 0 167 167 167 167 0 0 0 0 0 0 170 170 171 171 171 172 172 171 171 172 172 0 171 171 0 170 169 0 0 149 137 133 0 0 146 147 0 148 147 0 0 139 137 134 133 134 0 0 0 0 132 133 140 0 0 143 134 0 0 0 0 144 133 126 120 117 116 0 114 113 0 0 109 0 104 101 0 0 0 96 98 109 0 129 0 0 0 0 0 0 0 0 0 0 0 149 0 0 0 136 0 0 0 0 0 0 130 0 127 126 124 123 124 124 125 0 128 0 0 0 126 124 0 121 0 0 0 110 108 0 0 0 101 100 97 98 0 0 0 0 97 98 0 0 106 107 109 116 0 0 0 0 0 137 141 0 0 0 148 0 0 0 0 150 150 151 0 151 0 152 152 152 0 0 0 152 0 0 0 0 0 151 151 0 149 149 149 0 149 149 148 148 148 0 0 0 148 148 149 157 0 192 0 0 0 220 221 0 231 235 0 0 227 221 0 224 0 0 225 0 220 219 0 0 0 0 0 242 0 0 0 199 180 176 177 178 178 178 0 0 184 178 175 174 174 0 173 172 172 
111 111 111 111 0 110 0 0 0 0 0 0 0 110 109 108 107 107 106 106 0 105 0 0 103 102 103 104 0 0 0 0 0 106 106 0 0 0 106 0 0 0 0 0 108 0 106 0 0 0 0 0 0 93 93 96 0 0 0 0 0 106 0 106 105 104 104 103 104 0 0 105 105 104 103 104 104 104 0 104 104 0 104 104 105 0 0 105 107 133 0 0 0 0 0 211 0 0 0 0 169 149 145 0 145 150 0 0 0 146 138 137 136 136 138 144 0 0 137 127 146 0 0 0 194 0 195 195 195 195 195 0 0 195 0 196 0 195 195 195 0 0 195 195 195 195 195 195 196 196 0 0 0 197 0 196 196 0 197 0 196 196 0 197 196 196 196 0 197 197 197 197 0 0 196 0 0 0 196 0 0 196 196 197 0 0 197 198 199 199 200 201 199 199 0 0 0 0 190 188 187 0 0 0 0 151 138 137 0 0 0 0 0 134 144 0 0 169 162 160 155 150 148 0 0 0 0 144 143 0 137 135 134 0 0 0 134 134 134 0 134 0 0 136 0 0 0 136 0 0 134 133 133 0 0 0 133 0 0 0 0 135 0 134 134 134 134 0 135 135 135 0 0 0 136 0 0 0 136 136 136 0 137 138 0 139 139 139 138 140 141 142 0 0 0 0 0 0 0 148 148 149 0 0 150 150 150 0 0 150 150 150 150 150 0 149 149 0 0 0 147 146 0 0 145 0 0 0 145 145 0 0 144 0 0 143 0 141 142 0 0 143 0 143 142 0 141 140 140 140 140 0 140 139 0 139 0 0 139 138 139 0 141 142 145 149 163 0 0 193 194 0 201 0 0 213 210 209 0 0 201 196 0 185 0 174 170 0 0 0 0 170 0 170 0 171 171 171 0 0 172 172 172 0 173 0 0 0 0 0 0 0 0 173 172 0 171 0 0 0 139 132 133 0 0 146 147 0 0 146 0 142 139 136 134 133 0 0 0 0 0 131 135 0 0 0 139 148 0 0 155 146 139 131 124 120 0 0 0 0 113 0 110 0 0 101 101 0 0 95 94 103 112 0 133 0 0 0 0 0 0 0 0 0 159 151 148 0 144 0 0 139 0 137 0 0 134 132 130 0 0 127 0 0 127 0 0 131 132 0 0 129 0 0 125 0 0 119 116 0 0 107 0 101 101 100 100 100 99 0 96 98 101 103 104 105 110 117 0 0 0 136 138 140 142 0 0 0 148 149 150 151 151 0 0 0 152 0 151 152 0 153 153 153 153 153 153 0 152 152 151 151 151 0 0 150 149 0 149 0 0 0 0 147 0 0 0 0 147 147 149 162 0 190 0 0 0 220 0 234 235 0 0 224 219 0 0 0 0 221 0 219 214 216 222 229 0 0 0 0 0 0 206 0 184 0 0 178 179 0 0 182 175 0 174 174 174 173 173 173 
0 0 0 0 0 109 0 110 110 110 110 110 110 0 109 108 0 107 106 106 0 105 105 0 103 102 103 104 105 0 0 106 0 106 106 106 0 106 0 106 106 0 108 108 108 0 0 106 106 105 0 101 98 94 90 90 97 0 104 104 105 104 105 0 0 0 104 103 103 104 0 0 105 0 104 104 104 105 0 105 0 0 104 0 105 0 0 105 106 118 0 0 0 0 0 0 0 0 0 0 0 150 140 140 143 0 0 0 0 145 137 138 139 138 136 137 0 0 0 129 137 0 0 0 0 0 195 195 195 195 195 0 195 195 0 0 0 195 0 0 195 195 195 0 0 195 195 196 0 0 196 196 0 0 196 195 195 0 197 0 196 196 196 197 197 0 196 0 197 0 0 197 197 0 0 0 196 0 196 196 196 195 197 0 0 0 197 197 198 0 0 0 0 0 0 0 0 191 188 0 0 0 0 0 151 137 134 135 137 0 0 136 134 133 136 0 0 0 169 0 156 147 147 0 0 0 0 147 144 141 136 133 133 0 0 135 0 0 0 134 133 133 134 0 0 0 135 135 0 0 135 134 133 0 134 0 0 133 134 134 0 135 135 0 134 134 0 135 135 135 0 0 136 0 136 136 135 136 0 136 135 137 0 138 0 0 0 0 137 139 0 0 142 143 144 145 146 0 0 147 0 149 149 149 0 0 0 0 0 149 0 0 0 0 0 149 148 0 0 147 0 0 145 0 145 144 145 145 0 145 0 144 144 144 143 143 0 142 142 0 143 0 0 0 142 0 141 0 140 140 140 140 0 0 0 138 138 138 0 0 139 140 141 0 145 151 165 0 0 193 0 199 205 0 0 0 0 209 0 0 0 0 0 183 179 175 171 171 0 172 0 0 0 173 173 0 0 173 174 174 174 174 0 0 175 0 0 175 0 0 175 175 175 0 173 173 173 0 0 145 135 131 135 0 0 146 147 0 146 145 0 0 0 136 134 133 0 0 132 132 132 131 139 0 0 143 143 0 0 0 0 0 139 131 125 122 120 118 0 113 0 0 108 0 103 101 0 0 96 92 96 0 115 125 0 0 0 0 167 0 0 0 0 160 152 148 147 0 145 143 0 142 0 141 140 139 0 0 0 130 130 129 129 0 0 0 0 0 0 0 133 133 0 130 128 0 125 0 0 0 110 106 106 105 103 103 103 102 102 101 101 102 104 105 108 113 120 0 0 0 0 0 142 0 0 147 0 149 0 0 151 0 0 152 0 153 0 153 153 153 0 0 0 0 0 0 0 0 0 0 0 151 151 0 0 0 0 0 149 0 148 0 147 147 148 0 148 147 146 146 147 151 164 176 197 0 0 224 0 0 236 0 0 222 215 220 0 0 0 221 0 0 213 213 218 225 233 0 242 0 0 0 202 0 0 0 0 178 181 0 0 182 176 176 177 176 175 174 174 174 
109 0 109 109 109 108 0 109 0 110 0 110 110 0 0 108 0 107 0 106 105 0 0 0 103 0 0 0 0 0 0 106 106 106 0 106 0 106 106 106 107 0 0 108 0 0 106 106 0 105 103 102 0 94 89 88 93 0 0 0 0 0 104 0 0 104 0 104 103 0 105 0 105 0 0 0 0 0 0 0 104 104 0 0 105 0 0 106 106 109 143 0 0 0 211 0 0 0 0 0 0 153 140 137 140 0 0 0 0 141 139 0 0 0 136 134 134 136 0 133 130 156 0 0 0 195 195 195 195 195 195 0 195 195 0 195 195 195 195 0 0 195 195 0 196 0 0 0 196 196 196 196 196 0 196 0 195 0 0 197 0 0 196 0 0 197 197 197 197 0 197 197 197 0 196 0 196 196 196 196 196 197 0 0 0 198 0 197 198 199 200 0 197 195 192 191 190 188 0 0 0 0 0 151 137 133 134 135 0 0 136 135 134 134 134 145 0 0 0 0 0 147 145 0 0 0 150 0 0 142 137 133 0 134 0 135 0 0 0 0 0 0 132 133 134 0 134 135 0 136 0 135 134 134 134 0 133 0 134 134 134 0 135 0 135 134 135 0 0 0 0 134 135 0 136 0 136 136 136 0 136 0 0 138 0 138 137 138 138 0 0 141 0 142 143 143 145 146 146 147 0 148 0 149 0 0 149 148 149 149 0 0 149 149 0 148 0 0 146 146 0 146 0 144 144 0 0 144 144 0 144 0 0 0 143 142 0 0 142 142 0 143 0 142 0 0 141 0 140 140 0 139 0 139 0 138 0 0 0 138 139 0 141 143 145 153 0 0 188 0 0 200 0 0 0 0 0 208 0 0 0 191 185 181 0 175 172 173 0 0 174 0 175 175 0 0 0 176 0 0 176 176 176 0 0 0 177 177 0 177 0 0 176 176 0 175 0 0 155 139 133 131 139 0 147 146 147 0 145 144 142 139 137 136 134 133 0 131 130 131 131 133 0 0 0 136 148 0 0 0 0 0 139 132 127 123 0 0 114 111 0 0 0 0 100 99 0 96 93 93 100 108 117 128 0 0 0 0 0 0 0 0 161 155 150 149 148 0 146 0 144 0 0 144 0 0 0 137 135 133 132 131 0 132 0 134 0 0 137 0 0 0 0 0 131 0 128 0 0 115 108 112 0 0 112 110 108 108 108 108 108 110 113 113 117 0 0 0 0 0 0 144 145 0 0 149 0 150 0 0 152 0 153 153 0 154 154 0 0 0 0 154 154 0 154 0 153 0 152 152 0 150 0 0 149 0 0 148 148 0 147 147 147 147 0 0 148 0 147 146 0 147 154 163 178 0 0 0 0 0 236 0 0 222 212 0 222 226 0 220 222 0 213 212 216 223 0 0 0 0 0 0 195 189 0 0 183 181 183 0 0 180 179 0 0 0 176 175 175 175 
106 0 107 0 0 0 0 0 0 0 0 110 0 0 108 107 107 0 0 106 105 105 0 0 103 101 0 103 104 105 104 0 0 105 0 0 106 105 105 0 0 0 0 107 107 107 107 0 106 105 0 0 0 95 89 86 90 0 0 0 0 0 105 105 0 105 105 0 0 104 104 0 105 105 105 105 105 105 105 104 0 0 0 104 103 105 0 0 105 106 127 0 0 0 211 0 0 0 0 0 0 158 143 139 140 141 144 0 0 136 142 0 0 0 141 134 134 135 0 0 130 143 0 0 0 195 0 195 195 195 195 195 195 0 0 0 195 195 0 196 196 0 196 196 196 0 0 0 196 0 196 196 0 196 0 0 196 196 0 197 0 197 197 0 0 0 0 197 197 0 196 197 0 196 196 196 196 0 0 195 0 0 0 199 199 0 198 198 0 0 0 0 193 191 190 189 188 0 0 0 0 0 151 136 132 133 134 135 0 137 0 136 135 0 135 137 157 0 0 0 0 153 143 146 0 0 150 0 0 0 138 134 0 132 0 0 135 135 0 132 131 132 132 132 133 133 0 0 0 136 0 0 0 134 0 0 132 0 0 0 0 0 135 0 0 0 0 0 135 0 0 135 135 135 136 0 136 0 136 135 136 0 137 138 0 138 138 138 138 137 139 140 0 141 0 143 144 0 0 0 148 0 0 0 149 149 0 148 0 149 0 148 148 0 0 147 0 0 0 0 0 145 0 144 144 0 145 144 0 0 144 0 144 0 143 142 142 0 0 142 0 142 142 0 0 141 141 0 140 139 0 0 0 0 138 138 138 0 138 137 138 0 141 0 147 155 0 0 188 0 199 206 0 0 212 210 208 206 0 0 0 187 182 180 177 175 175 0 175 175 0 0 0 0 177 0 0 0 0 0 0 0 0 177 178 178 178 0 0 178 0 177 0 177 0 0 0 0 147 136 132 130 0 0 0 146 146 0 145 0 141 139 0 0 135 134 133 131 130 0 132 137 0 0 145 144 0 0 0 0 0 0 0 132 127 0 0 0 112 110 0 0 0 100 99 0 96 93 92 96 103 0 120 130 141 0 0 0 0 0 0 163 155 151 151 0 0 0 0 0 146 146 0 0 0 144 142 0 137 135 0 134 134 134 135 137 138 139 139 139 139 0 137 135 133 0 0 0 119 112 116 0 0 121 0 0 0 0 116 117 0 0 123 0 0 0 0 0 0 143 145 0 0 0 0 0 151 151 0 152 152 0 153 153 0 0 155 0 155 155 0 154 0 0 0 153 0 152 0 151 0 0 149 148 147 147 0 147 147 147 0 0 0 0 146 146 0 0 147 145 0 146 148 154 161 186 0 0 0 232 231 0 0 223 212 218 0 0 0 226 227 0 220 0 216 220 231 0 240 0 0 0 189 188 185 0 183 182 183 0 188 183 0 0 0 0 177 176 0 0 
105 104 0 104 0 0 106 107 107 0 109 0 0 109 108 106 107 0 0 0 0 105 0 0 103 0 101 0 0 0 0 0 105 0 0 106 106 0 0 0 107 107 107 107 0 0 0 0 106 0 105 0 0 97 92 86 87 0 0 103 0 105 104 0 0 0 0 0 104 104 0 0 0 106 0 0 0 0 104 104 104 104 0 0 104 105 0 105 105 105 114 0 0 0 0 0 212 0 0 0 0 163 151 0 0 0 139 135 134 136 0 0 0 0 0 0 136 136 138 0 130 133 0 0 0 195 195 0 195 0 195 195 195 0 195 195 0 195 0 0 0 0 0 0 196 196 0 0 196 196 0 196 196 196 0 196 0 196 0 197 197 0 0 198 198 198 0 197 0 196 197 0 0 196 196 196 196 196 195 196 0 0 0 199 0 0 199 0 0 0 0 193 191 190 0 0 0 0 0 0 0 149 135 131 132 133 134 136 0 0 0 0 136 0 135 135 144 0 0 174 0 0 147 142 0 0 0 0 0 0 0 134 132 131 132 0 0 135 0 132 131 0 0 132 0 133 0 0 136 135 0 135 135 135 0 133 133 133 133 0 134 0 134 134 134 0 134 134 0 135 0 135 0 135 0 0 136 136 136 136 136 136 136 137 0 0 0 0 138 138 138 139 139 140 0 142 143 0 146 147 0 148 148 0 0 0 0 0 0 0 148 147 147 147 146 147 147 147 0 146 145 145 0 145 0 0 144 0 0 0 143 143 143 0 0 0 0 142 142 142 0 142 142 0 141 0 0 0 0 0 139 139 0 0 138 0 0 138 138 0 138 139 141 144 149 161 0 0 189 0 201 0 0 212 0 208 0 0 0 0 189 184 181 178 177 176 0 0 176 176 177 0 0 0 178 0 0 178 0 0 179 179 0 0 0 179 0 179 179 178 178 0 178 178 0 0 0 0 141 133 129 130 0 0 0 145 0 0 144 142 0 139 138 0 0 0 0 0 130 130 132 0 0 0 147 0 0 125 115 118 138 0 137 131 0 0 119 0 110 0 0 0 101 97 97 0 94 93 94 99 105 0 122 132 143 0 0 0 0 0 0 157 153 151 0 0 0 149 147 147 0 0 148 0 0 0 0 0 0 137 137 137 0 0 138 0 141 142 0 0 0 0 0 137 136 0 0 124 117 123 0 0 0 127 0 0 124 0 125 0 0 0 132 0 0 0 0 0 144 145 148 0 0 150 151 151 152 0 152 0 153 0 0 153 154 155 0 155 155 155 155 0 154 154 0 0 0 0 150 149 0 148 148 147 147 0 146 0 0 146 146 146 146 0 0 146 0 0 146 144 145 146 146 150 153 161 0 0 0 231 227 229 231 0 217 221 0 228 0 0 229 0 0 220 217 221 0 0 0 0 0 206 192 0 184 184 184 184 0 0 184 181 181 179 177 178 177 177 176 0 
0 103 103 102 103 104 104 105 0 0 108 0 109 0 0 107 107 106 106 0 0 104 0 104 0 0 102 102 103 0 105 105 105 0 0 105 106 0 0 0 0 0 106 106 0 0 0 106 105 105 0 105 103 0 0 89 85 89 0 0 0 0 0 0 0 105 104 0 104 105 106 107 0 0 105 0 103 0 0 0 104 104 0 0 0 0 0 0 104 104 108 139 0 0 0 0 212 0 0 0 0 167 154 0 0 0 138 132 131 135 0 0 0 0 0 141 137 0 0 0 129 126 153 0 0 0 194 194 195 0 195 0 195 195 195 195 0 195 0 0 0 196 196 196 196 196 0 0 196 196 0 0 0 0 0 196 0 0 197 197 0 0 0 0 0 0 0 197 196 0 0 197 197 0 0 196 0 196 196 0 0 0 199 199 0 0 0 0 195 193 192 190 0 0 0 0 0 0 0 0 148 135 131 131 0 133 135 0 0 0 0 0 136 135 134 133 136 154 0 0 171 0 0 143 142 0 0 0 0 140 136 133 132 0 132 133 0 0 0 0 0 132 131 132 0 133 0 0 0 135 135 135 0 0 0 133 132 0 0 0 133 133 0 134 134 0 133 134 134 134 135 135 0 134 135 135 136 136 136 0 136 135 0 137 0 0 0 138 138 0 0 138 0 0 0 141 0 144 145 0 0 147 147 147 148 0 0 148 148 148 147 0 0 0 0 0 0 0 0 0 145 145 145 0 144 0 0 145 0 144 143 142 143 0 143 0 0 0 142 142 0 142 0 141 140 140 140 140 0 0 139 0 138 137 0 137 137 0 138 138 0 139 141 145 151 0 0 189 192 199 206 0 0 210 208 206 0 0 0 190 185 181 179 0 0 177 0 0 0 177 178 0 0 178 0 179 0 179 179 0 180 180 0 0 180 0 0 0 0 0 179 0 0 0 0 0 0 153 138 131 127 131 0 0 0 146 0 0 142 140 139 138 0 0 0 0 133 132 130 129 133 0 0 0 0 0 111 102 105 124 0 0 135 0 0 120 116 112 109 0 0 101 97 96 0 0 92 93 96 101 108 0 123 0 0 0 0 0 0 0 157 152 151 152 152 152 0 150 148 0 0 149 0 0 0 0 145 143 0 0 139 139 0 141 142 143 0 0 0 0 144 142 140 140 0 0 129 123 128 0 0 0 0 131 0 0 129 0 0 0 0 0 0 0 142 143 0 146 147 0 0 0 151 151 152 0 0 0 153 153 0 0 0 154 0 155 0 0 0 155 0 0 154 0 152 151 150 149 148 147 0 0 0 0 0 0 0 0 0 145 145 0 146 146 0 146 0 146 145 144 0 0 146 147 149 150 175 0 0 0 231 0 0 0 222 218 0 229 0 0 227 0 0 216 219 225 0 0 0 0 0 0 0 0 0 0 0 0 0 184 180 179 179 0 178 178 178 0 0 0 
0 103 103 0 104 0 104 105 0 107 0 108 0 0 107 0 0 106 106 0 105 104 0 104 103 101 101 101 0 104 104 0 0 0 105 105 0 0 106 0 106 106 106 106 0 106 106 0 0 105 0 0 0 0 0 92 86 87 0 0 0 0 0 0 105 104 104 0 0 0 106 0 0 105 104 104 103 0 103 103 0 0 104 103 103 0 105 104 103 104 107 124 0 0 0 0 212 0 0 0 0 171 151 151 0 0 137 133 130 132 136 145 0 0 0 138 139 0 0 0 129 120 139 0 0 0 194 194 0 195 195 0 195 195 195 195 195 195 0 196 196 196 0 0 0 196 0 0 196 196 0 196 0 196 0 196 0 0 0 197 0 198 198 197 197 197 0 0 0 196 0 0 0 0 196 196 0 197 0 0 0 0 0 0 0 0 0 0 192 190 189 189 188 0 0 183 181 177 164 148 136 131 131 132 0 134 0 0 137 137 137 0 0 135 134 134 133 140 0 0 0 0 0 148 140 141 0 0 0 135 132 132 0 131 131 132 0 0 134 0 0 132 131 0 0 133 0 136 0 0 136 136 135 136 0 134 132 0 132 132 132 132 0 0 133 134 134 133 0 0 0 135 0 135 0 0 0 136 136 0 136 136 0 136 136 137 0 138 0 0 136 0 138 139 140 141 0 0 143 144 0 0 0 147 0 148 148 0 0 0 0 0 147 146 0 146 146 0 0 145 0 0 0 144 144 144 0 0 0 0 143 143 143 0 142 141 142 142 142 142 142 0 141 141 0 140 140 139 139 0 138 0 138 0 137 137 0 137 138 138 139 140 142 146 154 0 0 192 196 201 0 0 212 0 0 0 0 0 189 184 181 180 180 0 178 178 178 0 178 0 0 179 179 179 0 180 180 180 0 0 0 0 0 0 180 180 180 180 180 0 180 180 180 0 0 0 0 146 136 130 126 133 0 0 147 146 0 0 140 139 138 137 0 0 135 0 0 0 130 130 137 0 0 0 0 112 100 106 0 0 0 137 0 0 123 118 114 110 109 0 0 97 96 0 0 92 92 94 97 103 0 118 126 136 0 0 0 0 0 157 153 153 151 153 0 0 0 150 149 148 148 0 0 150 149 148 0 145 0 0 141 142 143 144 0 0 0 147 0 0 0 0 0 0 0 132 127 0 0 0 0 0 0 0 0 135 136 0 0 0 140 0 0 143 144 0 0 148 0 0 0 0 152 0 153 0 0 154 154 0 154 154 0 0 155 155 0 154 0 154 0 0 0 152 150 0 148 0 146 146 146 146 145 145 145 0 144 144 144 0 145 0 0 146 146 146 0 0 145 144 144 0 145 146 147 147 156 0 0 0 0 0 0 0 224 215 0 0 0 0 224 0 0 216 221 227 0 236 0 0 196 0 187 182 182 182 183 0 0 181 180 179 179 179 0 0 0 178 178 178 
102 104 104 0 0 104 104 104 106 107 107 0 0 106 107 0 106 105 105 0 105 105 105 0 0 101 100 102 0 0 103 0 104 105 105 105 106 0 105 106 0 0 106 106 106 106 106 0 0 106 106 106 105 103 0 94 88 86 91 0 0 104 0 105 0 0 103 103 104 105 105 107 0 0 0 0 105 104 103 103 104 0 104 102 103 104 0 0 0 0 107 114 152 0 0 0 212 0 0 0 0 0 152 142 138 137 0 132 129 129 131 0 0 0 0 136 137 0 0 0 0 120 128 0 0 0 0 0 0 195 195 195 195 195 195 195 195 195 195 0 196 0 0 0 0 196 0 0 196 196 0 0 0 197 197 197 0 0 197 197 198 0 198 0 0 0 0 197 0 196 0 196 0 196 195 0 197 0 0 0 0 0 195 193 193 193 191 190 190 188 0 0 0 0 182 181 183 0 0 140 131 131 131 132 0 134 0 137 0 137 137 0 135 135 0 0 133 134 147 0 0 0 0 0 0 136 133 132 131 130 130 0 0 130 130 130 132 0 0 0 0 0 132 132 132 133 134 0 0 0 0 137 136 136 0 0 133 0 132 131 132 132 133 0 134 0 0 134 0 0 0 134 135 135 135 136 136 136 136 136 136 136 136 136 0 0 137 137 0 0 136 137 138 138 0 0 0 142 142 143 144 0 146 0 0 0 147 147 0 147 0 147 0 146 146 0 0 0 145 144 144 144 143 0 143 143 143 0 0 143 143 143 0 0 142 0 0 0 142 0 141 141 141 0 0 0 0 0 138 138 138 0 138 0 0 0 0 0 138 0 139 140 143 148 158 0 0 194 199 0 0 0 209 0 0 0 195 190 186 184 183 182 182 181 180 0 0 178 0 0 179 0 0 0 0 0 180 0 0 181 181 181 181 0 0 0 0 0 0 0 180 0 180 0 0 161 152 0 134 128 126 135 0 0 146 0 0 142 139 138 137 136 135 0 134 0 0 0 129 132 141 0 0 0 124 104 106 0 0 0 134 130 0 124 120 116 111 109 0 0 98 95 95 0 92 91 94 0 100 105 113 121 129 138 148 0 0 0 161 157 156 154 0 0 154 0 0 150 0 149 149 0 150 150 0 0 0 146 0 143 143 144 0 147 148 0 0 148 147 146 146 146 0 0 135 129 0 0 0 0 136 136 136 136 137 139 0 0 0 0 142 0 0 145 0 0 148 150 0 152 152 0 153 0 153 154 0 0 0 154 154 154 155 0 155 155 0 0 0 0 153 0 0 150 148 0 0 146 146 0 0 145 144 144 0 143 142 143 144 0 145 145 145 0 0 145 145 0 0 144 143 0 0 146 146 146 148 172 0 0 0 0 230 0 0 221 0 227 227 0 224 0 0 218 0 0 0 0 0 209 188 185 181 181 183 0 0 0 181 180 179 179 0 179 0 0 178 178 178 178 
104 0 106 106 106 105 106 0 107 107 108 108 107 107 106 105 0 105 0 0 105 0 0 0 0 0 0 0 0 103 103 0 0 0 105 105 105 0 105 0 106 0 0 106 106 0 106 107 0 106 106 0 0 0 0 96 91 87 88 95 0 0 0 104 104 0 0 104 104 0 0 0 0 0 106 106 0 0 0 0 0 0 104 0 0 104 0 104 104 105 0 107 134 0 0 0 0 0 0 0 0 0 154 139 134 0 0 0 128 128 128 130 134 0 0 133 134 0 0 0 0 127 119 150 0 0 0 195 0 0 0 195 195 195 195 195 0 195 0 0 0 196 0 196 196 0 196 196 196 196 196 197 197 197 0 0 197 197 0 0 0 0 0 197 0 198 0 197 196 196 0 196 196 197 197 0 198 0 0 196 194 192 191 191 190 189 189 189 0 187 185 185 184 182 181 187 0 0 0 140 131 0 131 0 0 134 136 0 0 0 137 136 0 135 0 0 131 131 135 144 0 143 140 138 134 132 129 128 128 129 0 129 0 130 0 129 0 0 0 0 0 0 132 0 0 133 135 0 0 138 0 0 137 137 0 135 134 0 132 0 132 132 133 0 0 0 0 0 0 135 0 135 135 0 0 0 0 0 0 0 0 0 0 0 136 136 0 137 0 0 136 136 0 0 139 0 0 140 0 0 0 0 145 146 0 0 147 147 147 147 146 146 0 0 145 0 145 0 0 144 143 0 144 0 143 143 142 143 0 142 0 0 0 142 141 0 141 0 141 0 141 141 0 140 140 0 0 0 138 0 0 138 0 137 137 0 137 0 0 138 0 141 144 151 163 0 0 195 201 0 0 207 206 205 202 199 192 188 188 187 186 185 0 183 182 181 0 0 179 179 179 0 179 179 180 0 180 0 181 181 181 181 181 181 181 181 181 181 0 180 0 0 0 0 162 150 0 0 133 127 126 0 0 0 144 0 0 140 138 137 0 0 132 131 0 132 0 130 129 133 0 0 0 0 114 105 124 0 0 0 130 125 123 120 0 0 109 0 0 101 96 94 0 93 92 93 95 98 103 109 116 124 132 141 0 0 0 161 160 0 0 0 0 0 0 154 152 151 150 0 0 150 0 0 0 150 0 147 146 145 145 145 0 0 0 0 150 149 148 147 146 0 0 139 133 0 0 0 137 137 136 137 0 140 0 0 0 143 143 144 0 0 146 0 0 148 0 0 0 152 152 153 154 0 154 154 154 155 0 154 0 155 0 0 0 0 0 0 153 0 151 0 149 148 146 146 146 146 146 0 145 0 0 0 143 142 142 143 144 0 0 144 145 0 0 144 143 144 0 144 144 0 0 0 0 145 145 154 0 0 0 0 222 223 0 0 0 0 224 0 224 0 0 217 0 0 0 0 0 0 0 185 184 0 0 0 182 181 180 0 178 179 0 179 0 178 0 178 178 0 
0 0 108 0 0 0 0 0 0 0 0 0 0 0 105 105 0 104 104 104 0 0 0 0 103 101 101 102 103 103 103 103 104 0 0 105 105 0 105 0 106 106 0 107 0 107 107 107 106 105 105 0 0 104 0 98 93 89 88 92 98 0 103 104 104 105 0 0 105 104 0 106 0 106 105 106 0 105 105 0 0 104 104 104 0 104 0 104 103 104 105 105 119 0 0 0 0 212 0 0 0 0 160 143 134 131 0 0 126 0 0 0 129 130 131 130 131 133 136 0 0 0 115 135 0 0 0 0 194 194 0 195 195 195 195 0 195 194 0 195 195 0 196 196 196 0 196 196 196 196 0 0 0 197 197 0 0 197 0 197 196 197 197 198 198 198 198 0 0 196 197 0 0 0 0 0 0 0 194 193 192 191 0 0 189 188 188 0 0 0 0 183 182 186 196 0 0 0 0 140 132 131 0 133 0 135 136 0 0 138 137 136 135 0 133 131 129 130 130 132 130 126 126 126 127 128 0 0 127 0 128 129 0 129 0 0 130 131 0 132 0 0 132 132 133 134 0 0 137 0 0 0 0 0 137 136 0 0 0 133 132 132 0 0 133 133 0 0 133 135 0 134 0 0 135 0 135 136 0 135 135 135 135 0 135 136 0 137 137 0 137 137 0 0 138 0 0 139 140 0 0 0 0 0 145 0 0 147 147 0 146 146 0 145 145 0 143 144 0 0 143 0 0 144 0 0 0 0 142 142 142 0 142 141 141 141 141 0 141 140 0 0 0 140 139 139 139 138 137 138 138 137 0 137 137 137 137 137 0 139 140 142 147 152 171 0 192 195 0 0 207 205 205 204 202 199 197 194 192 190 0 188 186 0 0 182 181 180 179 0 179 0 0 179 180 0 0 0 181 181 181 181 181 181 181 181 181 0 0 0 180 0 0 0 145 146 0 139 130 126 127 0 0 146 143 0 0 139 138 136 0 134 132 130 130 131 130 0 129 134 0 0 0 131 108 115 0 0 135 128 123 122 120 117 0 0 109 0 0 98 95 93 92 92 0 95 0 100 0 111 119 0 135 0 0 0 0 0 159 158 158 158 157 157 0 154 0 151 0 150 0 150 150 0 0 150 0 148 0 0 147 148 150 0 0 0 151 0 0 0 0 0 0 134 0 0 0 138 137 0 138 139 0 0 0 0 144 144 145 0 0 0 147 148 148 0 0 0 151 152 153 0 0 0 154 0 0 0 0 155 155 0 0 0 155 0 154 153 151 150 149 148 147 146 145 144 145 0 0 0 145 0 144 142 142 0 0 0 0 0 0 144 145 0 0 0 141 144 0 144 143 0 0 145 0 145 144 148 176 0 0 0 224 216 220 0 0 223 223 0 225 225 222 218 0 0 0 0 0 0 188 185 0 0 183 181 181 0 180 0 179 179 179 179 178 0 0 178 178 0 
110 0 110 109 110 0 109 109 0 0 0 0 0 106 105 104 0 0 103 0 101 102 103 103 102 101 100 101 0 0 0 0 104 104 104 105 0 0 106 0 0 106 0 0 107 0 0 0 106 104 104 105 105 103 0 0 0 90 88 92 0 0 0 0 104 105 0 0 0 105 105 0 0 106 0 106 106 105 0 104 0 0 0 104 0 105 0 104 0 0 0 105 111 149 0 0 0 212 0 0 0 0 164 144 131 124 125 124 122 122 124 124 0 0 0 0 0 129 132 0 0 0 114 124 0 0 0 194 193 194 0 0 0 0 195 0 195 195 195 195 195 0 196 0 196 196 196 0 0 0 196 196 0 197 197 197 0 198 198 0 197 0 0 198 0 198 197 0 0 0 198 198 0 0 0 0 194 192 191 191 0 190 0 189 188 0 0 0 0 183 181 181 187 0 0 0 0 0 172 138 132 132 0 133 134 135 0 0 0 138 0 0 0 134 131 130 129 129 129 129 128 124 122 0 124 125 0 0 0 126 127 0 129 129 129 129 129 129 130 131 132 0 0 0 132 134 0 0 0 138 138 138 137 138 0 0 0 135 134 0 133 132 132 133 133 133 0 0 135 135 0 0 135 135 135 135 135 135 135 0 134 134 134 0 135 0 0 0 137 0 0 138 0 137 137 137 138 138 138 0 0 141 0 0 144 0 0 0 0 147 146 0 145 144 0 0 143 143 143 143 143 143 0 0 0 143 142 0 0 142 142 0 0 0 0 141 141 0 0 0 0 140 0 0 138 138 138 137 137 137 0 0 0 137 0 137 0 137 137 138 0 144 147 157 0 0 194 202 0 0 204 205 0 0 0 203 0 0 0 0 193 0 189 187 185 0 0 0 179 179 0 0 0 180 0 0 181 181 181 181 181 181 181 181 181 181 181 0 180 180 0 0 0 146 139 0 0 0 129 126 128 0 0 145 142 0 141 139 0 0 0 0 0 130 130 0 0 128 128 138 0 0 0 122 107 0 0 0 128 125 0 0 117 114 0 110 0 0 101 95 0 0 90 92 94 97 100 103 108 0 0 129 0 145 0 0 0 0 0 0 159 0 0 0 0 154 0 151 0 149 149 150 150 151 151 149 149 148 148 149 149 0 0 153 153 0 153 0 152 0 0 0 135 137 0 137 137 138 138 0 141 143 0 0 0 0 145 146 147 0 0 148 148 149 151 0 153 0 0 153 154 0 0 0 154 0 154 155 155 155 0 0 155 155 0 0 153 0 0 149 148 147 146 145 144 0 0 0 0 145 0 0 0 0 143 143 143 143 143 0 0 144 145 0 145 143 141 0 0 0 143 0 0 145 0 0 144 146 161 0 0 0 0 216 210 218 0 223 222 0 0 0 222 218 0 217 0 0 194 191 183 182 182 182 182 181 181 0 180 180 0 0 179 179 179 179 179 178 178 179 
111 0 0 0 111 0 110 109 108 107 0 107 0 0 0 104 103 0 103 102 101 0 0 0 0 0 0 0 0 0 102 103 0 104 0 0 105 0 0 0 105 105 106 0 107 0 0 107 106 0 105 0 105 104 0 0 97 92 88 89 0 0 0 0 105 105 0 106 106 105 0 0 105 105 0 107 0 0 104 103 103 103 103 103 0 0 0 104 0 103 103 105 108 132 0 0 0 0 0 0 0 0 165 141 128 125 0 123 121 121 120 119 118 119 120 122 0 0 128 131 0 0 116 115 0 0 0 0 193 0 194 0 194 0 194 195 0 195 195 0 195 0 196 0 196 196 196 196 0 0 197 0 0 196 197 0 198 0 0 198 197 198 198 198 198 198 198 198 199 0 0 0 0 0 0 193 191 191 0 190 0 189 188 0 0 186 185 184 182 181 185 194 0 0 0 0 0 0 167 136 132 132 0 133 134 135 136 0 0 0 0 0 0 0 132 131 0 129 0 129 0 0 122 122 122 122 124 125 0 125 126 0 0 0 128 128 0 129 129 130 0 0 0 133 133 134 136 0 0 139 0 138 138 0 0 0 137 136 0 0 0 133 133 0 0 0 0 135 0 0 135 0 0 0 0 134 0 135 135 134 134 0 133 0 0 136 137 137 137 137 0 0 137 137 137 137 137 0 138 138 139 139 141 142 142 143 144 145 0 0 147 145 144 0 0 143 143 143 143 143 0 142 0 143 0 142 142 142 142 0 0 141 141 141 141 141 0 0 0 0 139 139 139 0 0 138 0 0 0 137 0 0 137 137 0 136 137 0 0 139 141 145 151 167 0 0 200 0 0 203 204 0 0 0 0 0 0 0 0 0 0 194 191 189 0 184 182 181 0 178 0 178 179 0 0 0 0 0 181 181 0 0 0 181 181 181 181 0 0 0 0 0 149 137 138 0 0 137 128 125 130 0 0 145 143 0 0 138 0 0 0 0 131 130 0 129 0 128 129 0 0 0 0 117 109 0 0 0 124 122 0 117 112 112 0 110 0 0 97 93 0 91 91 0 0 98 0 106 111 117 124 131 0 0 0 0 143 145 0 0 0 159 0 0 155 0 152 0 0 150 149 150 0 0 0 150 149 149 150 151 0 0 0 0 0 0 0 153 152 0 0 136 135 0 0 136 137 139 140 142 144 0 0 0 147 146 146 147 0 0 148 148 150 0 0 0 153 0 153 153 0 0 0 156 155 0 154 155 0 155 0 0 155 154 0 153 152 151 0 148 147 146 0 144 144 145 0 146 0 0 0 144 0 144 143 0 0 143 143 142 0 0 145 0 0 0 143 0 0 0 143 0 0 0 146 0 145 146 153 0 0 0 0 0 207 0 0 0 0 0 0 0 0 218 0 204 203 0 185 186 0 184 182 183 182 181 181 181 181 0 180 179 0 180 0 179 0 0 0 0 
0 0 113 112 112 0 0 0 0 0 0 0 0 105 104 103 0 0 0 0 0 0 101 101 0 100 99 99 0 102 102 0 0 0 105 105 105 105 106 0 105 105 106 0 106 0 106 106 0 106 106 0 0 0 104 0 99 94 89 87 91 98 0 0 0 104 105 106 106 0 106 106 106 106 0 0 0 105 103 103 103 0 104 104 0 0 0 105 104 103 104 0 107 119 0 0 0 0 0 0 0 0 169 143 128 125 0 123 121 120 0 119 118 118 118 117 117 119 0 0 0 0 115 108 134 0 0 0 193 0 194 194 194 194 194 0 0 195 0 0 194 195 196 0 196 196 196 196 0 0 197 0 197 0 197 0 0 198 0 0 0 0 0 0 0 0 0 0 0 0 0 0 0 193 192 190 190 0 190 189 0 188 187 0 0 184 183 181 183 194 0 0 0 0 208 0 0 0 165 135 131 0 133 0 0 0 0 136 137 136 136 135 135 134 0 0 130 130 130 130 0 0 125 122 0 122 0 123 0 124 124 0 0 0 0 0 0 128 129 130 0 131 132 0 0 134 0 137 0 139 0 139 139 0 0 139 0 0 0 135 134 133 133 134 0 135 135 135 0 134 135 0 0 0 0 133 134 0 0 134 134 0 134 0 135 0 0 0 137 0 0 137 136 136 0 0 137 0 0 0 139 139 141 142 0 143 143 144 146 0 0 146 144 143 142 142 0 143 143 0 0 142 142 142 142 142 0 0 141 141 0 140 0 141 0 141 0 141 0 140 0 139 0 0 138 138 137 0 0 0 0 137 136 0 0 136 0 138 0 139 142 145 154 0 0 199 0 0 206 202 0 0 207 207 0 207 0 204 202 0 0 0 0 0 188 0 183 181 0 178 0 179 0 180 0 180 180 0 181 181 0 180 0 181 0 0 0 0 180 0 0 153 138 135 139 0 0 135 128 125 133 0 0 145 142 0 0 0 135 134 133 0 0 128 0 0 0 128 133 0 0 0 0 113 113 0 129 0 124 122 0 116 113 112 0 110 0 0 96 93 92 92 93 94 97 100 0 109 114 120 128 0 0 0 0 138 132 127 138 0 0 0 157 155 155 154 0 152 151 150 0 151 0 0 0 152 151 151 0 0 0 156 156 156 155 155 0 154 0 0 139 131 0 0 135 137 138 141 0 0 0 0 0 148 0 148 0 150 0 0 149 151 153 0 154 153 153 153 154 155 0 0 0 0 0 0 155 0 156 156 156 0 0 154 0 0 0 150 0 147 146 145 144 143 143 0 0 0 146 0 145 0 144 0 0 0 143 0 0 142 143 0 0 0 0 0 142 0 0 0 142 0 0 147 0 0 145 146 150 175 0 0 0 0 209 199 209 0 0 214 216 216 213 0 0 199 193 0 187 183 0 0 0 0 0 183 182 182 182 0 181 181 0 181 0 0 0 0 181 181 
115 0 113 113 0 0 110 109 108 106 105 0 105 104 0 103 0 102 100 101 100 0 101 0 0 99 99 100 101 102 102 102 0 104 105 0 0 106 106 0 105 0 0 0 106 107 107 107 0 0 0 0 105 0 0 0 0 0 92 89 91 95 0 0 0 104 105 0 0 0 0 0 106 0 0 106 0 0 0 0 104 0 0 0 105 105 105 0 0 0 104 105 106 112 145 0 0 0 0 0 0 0 0 147 130 126 0 0 0 120 0 119 118 117 0 0 116 115 118 123 0 0 116 106 121 0 0 0 0 0 0 194 194 0 194 194 194 194 0 0 194 195 0 0 196 0 0 0 196 196 0 0 197 0 196 197 0 197 197 197 0 197 198 0 0 0 0 0 0 0 0 194 193 192 191 190 190 0 0 0 0 187 186 0 183 181 181 189 0 0 0 0 213 0 209 213 0 0 161 134 131 132 133 0 134 135 0 137 0 136 135 0 135 134 132 0 130 130 0 131 0 0 0 122 121 0 0 0 122 122 123 0 125 125 0 0 128 0 0 0 0 130 130 131 0 134 135 0 138 0 139 139 140 140 0 139 138 0 0 136 134 134 134 0 0 135 0 135 134 134 134 0 135 135 134 134 0 0 135 134 134 0 134 0 0 135 0 0 136 0 0 0 136 136 136 136 137 138 138 0 140 0 0 142 143 0 0 144 144 146 147 148 145 143 142 0 142 0 143 0 142 142 142 0 0 0 0 141 0 140 140 0 0 0 0 140 0 0 140 139 0 138 0 138 138 0 137 137 137 137 137 136 136 0 0 137 0 138 139 141 144 148 161 0 0 0 0 0 202 203 0 0 207 0 0 0 0 0 203 201 0 0 0 0 0 0 0 181 179 179 179 0 0 180 180 180 0 0 181 181 0 0 0 0 0 180 0 180 0 0 160 140 135 136 140 0 0 133 126 126 137 0 0 143 0 138 136 0 134 0 0 0 0 126 0 128 126 127 136 0 0 0 132 116 125 0 122 0 0 0 120 118 0 113 0 108 0 0 97 91 91 92 94 96 99 0 106 112 121 129 0 0 0 128 125 131 0 120 118 132 0 0 157 0 0 154 152 152 0 151 151 151 152 153 0 153 154 0 0 0 0 157 0 0 0 0 155 0 0 0 129 133 0 136 135 137 140 0 0 0 0 149 148 0 148 149 0 0 0 150 151 0 0 0 0 154 153 154 0 0 157 157 156 156 156 155 155 156 0 0 155 0 154 0 0 0 0 148 0 0 0 144 143 142 142 144 145 146 146 0 145 0 144 144 144 143 142 143 0 142 0 144 0 143 144 143 141 143 0 142 142 145 0 0 147 146 145 146 148 158 0 0 0 0 0 196 203 0 0 211 0 0 199 0 0 0 191 0 184 184 184 185 0 0 0 0 0 183 183 0 182 182 0 181 0 0 181 0 182 0 
115 0 0 0 0 0 0 0 108 106 105 105 0 0 0 103 102 0 100 100 100 100 0 0 99 98 0 0 101 0 0 0 0 0 105 106 0 0 0 106 0 0 0 0 0 0 0 107 107 107 0 106 104 105 105 0 0 0 94 91 89 93 0 0 0 105 105 105 0 0 107 106 105 0 0 105 0 0 105 104 104 0 104 0 0 0 104 104 103 102 104 104 106 108 129 0 0 0 0 0 0 0 0 154 132 125 0 0 122 120 0 0 0 116 116 116 116 116 117 119 124 0 0 108 112 0 0 0 0 193 0 0 194 0 193 0 194 194 0 0 194 0 0 195 195 0 195 195 0 196 196 196 0 0 0 0 0 0 0 0 196 197 0 0 0 0 196 195 193 192 192 191 191 191 190 0 0 0 188 187 0 0 0 183 181 183 193 0 0 0 212 212 0 0 212 212 0 0 157 133 132 0 133 134 0 135 136 0 0 137 0 0 136 0 132 131 0 130 131 132 0 0 0 128 121 120 119 120 121 121 122 123 124 124 0 0 0 128 128 128 128 129 129 130 0 0 136 0 138 139 140 0 0 0 140 0 0 0 0 0 136 135 135 135 135 0 135 135 134 0 133 134 0 0 0 134 0 0 0 0 134 0 133 133 134 134 135 0 136 136 137 0 0 136 136 137 0 138 0 0 0 0 0 0 0 0 0 143 143 144 147 0 0 145 142 0 142 0 143 142 142 142 142 0 141 141 140 140 0 140 140 0 0 140 140 140 140 0 139 139 0 138 138 0 0 0 137 0 137 137 0 136 135 136 136 0 137 138 140 143 148 155 0 0 0 0 0 200 200 203 0 0 207 0 0 208 207 0 204 0 0 0 0 191 189 186 183 181 179 0 0 179 179 0 0 180 0 0 0 0 0 0 0 179 180 180 180 0 0 0 149 138 0 137 141 0 0 132 126 128 0 0 0 137 135 135 0 134 0 0 128 126 125 0 0 0 127 127 137 0 0 0 127 129 0 0 117 0 124 0 121 0 0 115 110 106 103 0 0 93 92 0 95 97 100 105 111 122 0 0 146 150 143 128 129 134 0 118 110 113 129 0 0 0 155 154 154 153 0 152 151 151 152 0 154 155 156 0 0 0 0 0 157 156 155 0 0 0 0 127 125 0 0 136 136 139 143 0 0 0 0 149 0 148 149 150 0 0 151 151 154 0 0 155 0 0 155 156 0 0 157 0 0 157 0 156 156 156 0 155 154 0 0 0 148 146 145 146 0 0 0 143 142 141 142 143 0 0 146 0 0 144 0 0 0 0 143 143 143 143 0 143 0 0 0 0 142 143 142 143 0 145 0 0 148 0 146 146 147 150 0 0 218 0 0 207 196 202 0 205 0 0 189 191 193 187 185 185 184 184 184 0 185 186 185 185 185 0 0 183 183 183 0 0 0 0 182 183 184 0 
116 0 0 0 111 0 0 0 0 0 0 105 105 104 104 104 103 102 101 100 99 100 100 0 98 97 97 0 0 0 102 0 103 104 105 0 0 0 0 106 106 105 105 0 0 0 0 107 106 0 0 106 0 0 105 104 0 0 0 91 88 91 0 0 0 105 105 105 106 0 0 106 104 105 105 105 0 0 0 0 0 0 0 104 0 0 103 103 103 0 0 104 105 106 117 0 0 0 0 0 0 0 0 161 136 125 0 0 123 121 0 0 0 118 117 0 116 0 117 119 125 0 0 113 107 135 0 0 0 193 193 0 0 0 0 0 194 194 194 0 194 0 195 0 0 0 194 0 195 0 0 0 195 0 0 195 196 0 196 0 0 0 0 0 195 194 0 193 191 191 191 190 190 0 0 189 188 187 186 0 0 183 182 181 186 0 0 0 0 211 211 213 0 0 0 212 0 0 151 132 0 0 0 134 0 136 0 0 0 138 0 0 0 0 133 132 0 131 131 133 135 138 0 0 128 120 119 0 0 121 0 0 0 124 0 126 0 127 0 0 128 0 129 129 130 133 0 0 140 140 0 141 140 140 140 140 0 0 138 138 0 0 135 135 135 136 136 135 0 134 133 134 134 0 0 0 134 134 134 134 134 133 0 133 133 134 134 135 0 135 136 0 137 136 0 0 0 137 0 139 0 0 141 0 0 141 141 142 0 142 144 0 0 0 142 141 142 0 0 0 0 0 0 0 141 0 140 0 0 140 140 0 140 140 0 140 140 0 139 139 139 139 138 137 137 0 136 0 0 0 0 0 135 136 136 136 137 139 141 146 154 167 0 0 0 0 203 199 200 202 0 206 0 207 0 0 0 0 204 0 200 0 0 0 0 0 182 0 0 178 178 178 0 0 179 0 180 0 0 180 180 0 0 179 0 0 179 0 0 0 141 136 135 137 0 0 138 130 124 130 0 0 0 130 130 0 0 0 0 0 126 123 121 122 0 0 126 128 0 0 0 129 133 0 0 0 116 0 124 0 121 0 0 113 108 105 104 0 0 94 92 93 96 99 103 113 0 0 143 150 0 0 0 0 0 0 128 115 108 112 113 128 0 0 0 156 0 0 153 0 0 152 153 0 0 0 157 0 0 159 0 157 0 156 155 0 0 0 132 120 130 0 135 135 138 0 0 0 0 0 150 149 149 149 0 0 0 152 152 0 0 0 154 154 154 154 156 0 0 157 157 0 0 0 157 157 0 0 0 154 153 0 0 0 0 141 141 144 145 144 142 141 0 140 141 0 146 0 0 146 145 144 144 144 0 143 0 143 143 0 143 143 143 143 0 143 143 0 0 0 0 0 0 0 0 0 146 0 147 148 164 0 202 0 0 0 194 195 0 197 199 0 0 0 186 185 185 185 185 185 185 0 0 0 0 0 0 0 0 184 184 184 184 184 0 183 184 0 0 0 
0 0 111 0 110 109 108 108 0 0 0 0 0 0 0 0 0 0 0 0 0 100 99 99 98 97 97 99 0 101 101 0 0 0 105 104 105 106 0 0 0 0 106 106 0 0 108 0 0 105 106 106 106 0 105 104 103 101 0 94 90 89 95 0 0 105 0 105 106 0 0 0 105 105 0 0 0 104 105 103 103 103 104 103 0 0 103 103 0 0 0 0 104 105 109 143 0 0 0 0 0 0 0 0 141 126 125 0 124 122 120 0 0 0 0 0 0 117 118 127 0 0 0 116 106 122 0 0 0 193 193 192 193 193 0 193 0 0 0 194 194 0 194 0 194 194 193 193 194 0 195 195 195 195 195 195 0 0 0 194 194 0 194 194 192 192 192 0 191 0 0 0 0 189 0 188 187 0 0 0 183 181 184 192 0 0 0 211 210 211 212 214 216 0 0 0 0 0 146 132 131 133 0 0 0 136 0 0 0 0 138 137 136 0 133 0 0 0 131 133 136 140 0 0 0 127 119 119 0 120 0 0 0 123 123 125 0 127 0 0 127 128 129 129 131 133 0 0 0 0 0 141 0 0 0 141 140 139 139 0 139 138 137 136 136 0 0 0 0 134 134 0 0 134 0 134 134 134 134 134 134 134 0 133 134 0 0 134 135 136 137 0 137 0 0 137 0 137 0 138 138 0 138 0 0 0 140 0 0 140 139 142 144 142 0 141 0 0 140 141 0 141 141 0 141 0 0 0 140 0 0 140 0 140 0 140 0 139 140 140 0 0 0 0 136 136 136 136 0 135 136 0 135 0 0 0 138 141 145 151 160 0 0 0 0 207 200 201 201 202 204 205 0 207 0 0 0 0 203 201 0 0 0 190 0 0 181 0 177 177 177 177 177 0 0 0 178 0 179 0 0 178 178 178 0 0 177 0 0 152 137 134 133 136 0 0 135 127 124 130 0 0 136 125 125 0 0 129 0 0 125 121 120 121 0 0 127 132 0 0 131 135 0 0 0 0 117 0 0 0 120 0 0 112 106 104 105 0 0 95 93 0 97 101 110 0 0 0 141 0 0 0 0 0 0 0 127 110 110 0 117 119 131 0 0 0 0 156 154 153 0 0 154 155 0 0 158 158 158 0 0 158 158 0 157 0 0 0 118 121 0 0 134 136 141 0 0 0 152 151 150 150 0 150 0 0 154 153 155 0 0 155 154 0 154 155 0 0 158 158 0 0 158 0 158 0 157 156 0 152 0 0 0 143 139 137 139 143 0 0 142 140 0 140 141 0 0 0 147 146 145 0 0 143 0 143 0 0 0 0 143 0 0 143 0 143 142 144 0 0 144 143 146 0 148 147 146 147 0 149 155 0 198 206 0 0 211 196 0 190 192 194 0 0 0 188 0 0 187 0 0 186 0 0 0 186 186 186 186 0 0 185 0 185 185 185 0 0 187 187 
0 0 0 0 108 0 106 105 107 107 106 0 0 106 105 104 103 102 101 101 0 0 0 0 0 0 0 98 0 0 0 0 0 0 0 0 104 105 0 0 0 107 106 0 107 107 0 0 107 106 106 0 106 0 0 0 0 0 0 0 90 88 93 98 0 0 0 105 105 0 0 106 106 106 0 0 105 105 0 104 103 0 0 103 104 0 104 0 0 103 103 102 103 104 105 127 0 0 0 0 0 0 0 0 145 127 124 0 124 0 121 0 118 0 117 116 116 118 123 0 0 0 0 120 105 112 0 0 0 0 0 192 0 0 0 192 0 0 0 0 0 0 194 194 194 0 193 0 194 0 194 0 0 0 194 194 194 193 192 192 193 193 0 0 191 191 191 0 190 0 0 189 188 188 0 0 0 0 183 181 181 186 0 0 0 0 210 210 210 0 213 0 217 0 0 0 0 175 141 131 132 0 0 134 135 0 136 136 136 137 0 0 0 134 132 130 129 129 130 133 137 141 150 0 0 0 124 119 0 118 0 0 121 0 123 0 0 127 0 127 127 128 0 0 131 133 0 0 0 0 0 0 0 0 0 0 0 141 0 0 0 139 138 0 0 137 0 136 135 134 134 134 134 132 133 133 134 0 0 0 0 0 134 133 0 135 135 0 0 0 138 138 0 137 136 136 136 136 0 137 137 0 137 138 0 0 139 0 139 138 138 139 139 140 0 141 0 141 140 140 141 141 141 0 140 0 0 140 140 0 0 140 140 140 140 139 139 139 0 0 0 0 140 0 0 0 136 136 0 135 135 136 0 137 0 139 140 143 149 156 172 0 0 0 0 205 205 0 204 204 205 206 207 207 207 0 0 0 0 0 0 0 192 0 185 181 178 176 176 0 0 0 176 0 177 177 177 177 177 0 177 177 0 176 0 175 175 0 0 142 133 132 132 136 0 0 132 126 124 130 0 0 0 124 121 123 125 127 0 0 124 120 119 120 121 125 128 0 0 136 138 0 129 123 0 0 117 0 125 123 120 0 118 110 106 0 0 0 0 97 94 96 98 103 117 0 134 130 143 0 0 180 0 0 167 0 0 116 116 0 0 125 125 135 0 0 0 0 0 155 154 154 0 156 157 158 0 159 159 0 0 0 159 0 0 0 0 120 116 126 0 0 134 138 0 0 0 0 0 0 0 151 150 151 154 0 154 155 0 0 156 156 0 155 155 157 0 0 0 0 158 157 157 158 0 0 0 0 0 151 0 0 143 139 136 136 139 0 0 0 142 139 138 139 0 0 0 0 0 146 145 0 143 143 0 0 0 143 143 0 143 0 0 143 0 0 142 0 0 145 143 142 0 147 0 0 146 147 0 148 149 0 0 181 0 0 0 194 189 189 0 185 188 0 191 189 188 0 0 0 0 186 0 0 186 0 187 0 0 0 187 187 0 186 0 187 187 0 188 188 
0 109 106 105 0 0 106 106 0 0 0 106 0 105 104 0 102 102 101 100 0 99 98 97 96 0 95 96 98 99 100 100 101 102 103 104 0 0 0 107 107 107 0 106 106 107 0 108 0 107 0 0 106 107 107 106 105 0 0 0 92 89 91 0 0 0 0 105 105 106 106 0 0 106 106 105 105 0 0 0 0 0 103 0 103 0 0 104 103 103 103 0 0 104 105 117 0 0 0 0 0 0 0 0 151 130 125 125 124 122 121 120 118 118 0 116 116 122 131 0 0 0 0 0 107 106 134 0 0 0 192 191 192 0 192 192 0 193 193 193 0 193 193 0 0 193 193 0 193 0 0 0 0 193 193 193 0 192 191 0 0 192 0 191 190 0 190 0 189 188 0 0 187 0 0 0 184 182 181 186 193 0 0 0 208 208 209 210 211 212 213 0 0 0 0 0 0 173 139 132 132 0 133 134 0 135 136 136 136 135 136 0 0 0 132 131 130 129 130 133 137 143 153 0 0 0 0 120 117 118 0 0 0 0 0 124 125 0 0 0 127 0 0 130 130 132 136 0 0 0 143 143 142 0 143 0 0 0 0 141 0 0 0 0 0 137 136 0 0 134 134 134 134 134 0 133 134 0 135 134 0 0 0 0 135 0 136 0 0 0 0 0 0 0 0 0 135 135 135 136 0 136 136 136 0 0 139 139 0 0 138 138 0 0 0 0 0 0 0 0 141 0 141 0 140 0 140 140 0 141 141 0 0 0 140 0 140 140 142 0 0 0 0 136 136 136 136 0 0 135 135 136 0 136 138 140 143 147 154 164 185 0 0 0 211 208 209 208 0 0 0 0 0 208 0 0 202 199 198 0 0 0 189 0 0 179 176 175 173 0 174 174 0 175 0 175 0 0 176 0 176 0 0 174 174 173 0 0 153 134 130 129 130 0 0 135 130 125 120 126 0 0 0 124 120 119 122 125 0 0 0 120 119 119 120 122 128 0 0 0 0 133 117 114 0 0 118 0 0 0 121 0 115 108 106 106 0 0 0 100 95 0 100 107 0 0 132 130 142 0 176 0 0 0 160 0 0 128 120 0 0 0 0 132 136 0 0 0 0 157 0 156 156 0 0 0 0 0 0 160 160 0 0 0 0 0 124 113 120 0 0 134 135 0 0 0 0 152 152 152 0 152 152 154 0 156 156 0 0 157 156 0 0 156 157 0 0 158 0 0 158 157 0 158 0 0 156 0 0 149 0 0 139 135 134 136 140 0 0 144 141 0 139 139 0 0 147 147 147 146 0 0 143 0 0 144 143 143 142 143 0 143 143 143 0 0 141 143 0 145 0 0 146 0 148 0 147 146 0 147 148 171 0 174 186 0 0 206 186 185 184 184 186 186 0 0 190 187 186 187 187 187 187 187 187 0 0 0 187 0 188 0 0 188 0 189 189 190 190 190 
0 108 105 0 105 0 106 106 106 107 0 106 105 0 103 102 102 0 0 0 98 97 0 96 95 94 95 0 0 0 0 0 0 0 0 0 0 0 0 0 0 0 0 106 105 0 0 108 0 0 106 107 0 0 0 0 0 104 103 0 96 92 89 94 0 0 0 0 105 106 0 0 106 106 106 0 0 105 0 0 0 103 103 103 104 0 0 103 103 103 0 104 0 103 104 110 144 0 0 0 0 0 0 0 158 133 127 0 125 122 122 0 119 118 118 117 117 127 0 0 0 0 0 0 110 104 123 0 0 0 191 0 0 0 192 0 192 192 192 192 0 192 0 0 193 192 0 0 192 0 0 192 192 191 192 192 0 0 191 0 191 190 0 0 189 0 189 0 188 187 0 0 0 184 183 182 181 184 191 0 0 0 0 0 208 0 0 210 0 213 215 217 0 0 0 0 0 0 138 130 0 0 132 0 0 0 0 0 0 0 0 135 133 133 0 132 131 131 132 134 138 146 155 0 0 0 137 124 117 117 118 119 0 120 0 0 123 124 0 0 0 0 128 0 0 132 135 0 142 0 0 0 0 143 142 142 142 141 141 141 0 141 0 139 139 0 136 135 0 136 0 0 135 135 0 0 0 135 0 135 135 135 135 0 136 0 136 136 136 0 137 137 0 137 136 135 135 135 135 135 0 136 135 136 136 0 0 0 0 138 137 0 0 138 138 0 140 0 140 0 0 0 140 0 0 0 0 140 0 141 0 0 0 140 140 140 0 0 0 0 141 139 137 135 0 135 135 0 135 135 0 0 0 137 138 141 145 152 161 180 0 0 0 216 212 213 0 0 0 0 210 0 0 0 0 0 200 197 0 193 191 188 0 0 179 176 174 0 173 172 173 173 173 173 174 174 0 174 0 0 174 174 173 173 0 172 0 0 142 129 128 129 0 0 0 132 127 123 119 124 0 0 130 125 121 119 121 0 126 0 0 120 118 0 120 119 124 0 0 0 0 134 121 115 0 0 118 0 0 122 120 0 112 107 0 106 0 0 0 0 97 0 102 113 0 0 133 132 143 0 0 0 0 161 156 150 0 132 121 0 0 134 0 136 135 138 148 0 0 0 0 0 156 155 158 0 0 159 159 0 0 159 159 0 0 130 113 115 123 0 0 134 138 0 0 0 0 153 153 153 152 153 154 0 0 157 0 0 157 157 0 156 156 157 0 0 158 158 0 0 0 0 158 158 0 0 154 152 149 0 0 0 135 132 133 136 141 0 0 0 140 139 139 140 0 0 147 0 0 146 145 144 144 0 144 0 0 143 143 0 0 0 0 0 144 0 142 143 0 0 0 145 146 0 0 0 147 146 146 147 148 159 0 186 171 0 0 0 195 185 185 0 186 186 187 0 0 0 190 189 188 188 187 188 188 0 0 188 188 189 189 189 189 190 191 0 0 0 0 0 
0 0 0 0 104 105 105 0 0 0 0 0 0 104 0 0 0 0 0 0 98 97 0 95 95 94 0 0 0 97 0 0 0 102 102 102 103 103 0 106 106 106 105 0 0 107 0 108 0 107 0 0 0 107 107 0 106 0 0 0 98 0 89 92 0 0 0 0 106 106 0 0 0 0 0 0 105 105 0 105 104 0 0 0 0 104 104 0 0 104 0 104 0 103 103 106 130 0 0 0 0 0 0 0 165 140 129 130 129 125 123 121 120 119 118 120 126 131 0 0 0 0 0 0 112 103 113 0 0 0 191 0 191 191 0 191 191 0 0 191 191 191 192 0 0 192 192 192 191 191 0 191 191 191 0 191 190 190 0 0 0 189 189 0 188 0 187 187 0 0 0 184 0 181 181 184 191 0 0 0 0 207 207 208 208 209 210 211 212 214 216 0 0 0 0 0 0 0 129 121 0 0 0 0 0 0 135 135 135 0 0 0 133 133 0 0 132 132 0 136 140 147 0 0 0 0 127 120 0 118 118 0 119 119 120 0 122 122 0 0 124 126 127 128 0 133 0 0 0 0 0 144 0 0 142 141 0 142 142 0 141 141 0 0 0 0 137 136 136 0 0 136 0 0 0 0 0 135 0 0 135 135 0 0 0 0 136 136 136 136 136 136 0 136 0 135 135 0 0 135 0 0 0 136 136 0 137 137 137 0 0 137 137 137 138 139 140 0 0 0 140 140 140 140 0 0 0 0 0 0 140 140 140 0 140 140 140 140 141 0 139 137 135 0 0 0 135 0 135 134 0 0 137 137 140 143 149 158 177 0 0 0 220 215 216 217 0 0 216 0 211 209 207 207 0 0 0 194 191 0 0 0 181 179 175 173 173 172 0 172 172 0 0 173 173 0 0 173 0 173 173 0 172 172 171 172 0 0 135 128 129 130 133 0 0 130 0 122 118 123 0 0 129 125 0 121 120 123 0 0 0 121 118 119 0 121 126 0 0 0 0 0 129 123 0 0 117 0 0 122 118 0 110 108 107 106 107 107 0 0 98 0 106 0 0 0 135 133 142 0 158 159 0 0 0 148 0 129 122 0 0 0 0 141 141 140 139 146 0 0 158 0 0 158 158 0 159 159 160 0 159 159 0 0 0 114 112 119 0 0 134 135 140 0 0 152 153 0 0 0 153 154 0 0 159 0 0 158 0 0 157 0 157 0 0 0 158 0 0 158 158 0 0 0 0 0 152 0 0 0 140 135 133 132 132 136 0 0 0 0 140 0 137 0 142 0 0 0 0 0 0 144 0 0 143 143 143 0 0 0 143 0 144 0 144 0 142 143 0 0 0 144 146 0 0 0 0 146 146 0 147 150 0 0 164 183 0 0 0 189 187 187 0 188 0 188 190 0 0 0 192 191 190 191 190 189 0 190 190 0 0 191 0 0 0 0 194 194 193 194 
0 106 0 0 0 105 105 105 105 106 106 105 0 0 103 103 0 102 101 100 99 98 97 0 0 93 95 96 97 97 0 99 101 0 102 102 103 0 0 105 0 0 104 105 0 106 107 0 0 106 106 105 106 0 106 106 106 106 105 0 0 94 89 90 95 0 0 0 0 0 106 107 107 107 106 105 103 104 0 0 0 0 103 103 103 103 0 0 104 104 0 0 103 103 103 105 118 0 0 0 0 0 0 0 0 150 143 0 0 0 132 128 124 121 118 124 0 0 142 145 147 0 0 0 113 104 107 137 0 0 0 0 190 0 0 190 0 191 191 0 0 191 191 191 0 191 191 0 0 191 0 0 0 0 0 190 190 0 0 189 188 188 188 0 187 186 0 185 0 0 182 181 181 182 189 0 0 0 0 0 207 0 208 0 208 0 210 0 213 0 0 0 0 0 0 0 0 0 114 105 105 109 0 0 0 0 134 133 134 134 135 0 134 0 0 132 132 0 134 138 142 149 0 0 0 0 117 107 0 0 118 118 118 0 119 0 121 122 0 124 124 126 127 128 130 133 136 0 0 0 144 144 0 144 0 0 0 143 0 0 0 141 140 141 0 0 138 137 136 136 0 136 136 136 0 0 136 136 136 136 0 136 136 0 137 0 0 0 0 135 0 0 135 135 135 0 0 135 135 135 135 135 0 0 0 0 134 135 0 135 136 136 136 0 138 0 139 0 0 0 140 140 140 140 140 140 140 141 141 140 140 140 0 140 0 140 139 0 0 0 0 0 135 0 0 0 135 0 135 135 135 136 137 140 0 148 154 170 0 0 0 0 219 219 0 0 0 0 0 0 212 209 206 205 0 0 0 190 186 184 182 180 178 176 174 172 172 0 0 173 173 172 0 172 173 173 173 173 0 172 172 172 172 173 0 0 0 0 131 128 129 131 0 0 0 128 124 120 119 123 0 0 0 124 0 0 120 0 0 0 0 0 118 118 0 0 132 0 0 143 0 0 136 130 0 0 116 0 0 122 117 112 109 108 0 0 107 0 0 0 99 102 110 0 0 0 135 135 137 0 149 151 0 0 0 145 0 127 127 0 0 144 146 0 0 0 140 137 144 0 0 0 0 0 159 157 158 0 0 160 159 0 0 0 118 110 114 121 0 0 0 138 0 0 0 153 154 155 0 0 153 155 0 0 0 0 158 157 157 0 157 157 157 0 0 157 158 0 158 157 158 158 0 0 0 152 149 147 0 0 136 132 130 130 132 137 0 0 0 143 140 138 136 139 0 0 0 148 148 147 0 145 0 144 143 143 143 143 143 0 143 0 144 144 144 0 143 142 142 143 144 145 146 0 0 147 146 146 146 147 148 148 174 0 170 163 0 0 0 198 189 189 189 189 0 191 191 192 194 0 0 0 0 0 0 191 0 0 191 192 0 193 194 195 0 0 196 196 0 196 
0 104 103 104 0 0 0 105 0 106 0 105 0 0 0 102 0 0 101 0 100 100 0 98 0 95 94 96 0 0 98 99 0 101 101 0 0 104 105 105 0 105 0 104 105 0 0 0 0 0 0 105 106 0 107 0 0 0 0 104 0 97 92 89 91 0 0 104 0 105 0 0 0 0 0 105 104 104 105 0 0 104 0 103 0 102 102 103 103 0 103 0 103 103 103 105 111 146 0 0 0 0 0 0 0 157 149 0 0 0 0 0 0 130 124 127 135 0 0 144 146 0 0 0 115 103 104 126 0 0 0 190 0 190 190 190 0 0 0 190 190 0 190 191 0 191 190 0 0 0 190 0 189 189 189 0 0 189 0 188 0 0 0 186 0 185 0 0 183 181 181 182 188 0 0 0 0 206 0 207 207 0 0 208 209 210 211 212 0 217 0 0 0 0 0 0 0 120 102 98 97 98 101 111 0 0 0 0 133 0 0 0 134 133 132 132 131 132 135 139 144 151 0 0 0 0 110 99 103 0 0 118 118 0 0 119 0 121 122 123 0 0 127 128 129 132 136 0 0 0 144 0 144 144 0 0 0 143 0 142 142 0 0 141 0 0 140 138 137 137 0 137 0 0 136 0 0 0 136 0 0 0 136 137 0 137 136 136 136 135 0 0 135 135 0 134 134 134 0 135 135 0 0 135 135 0 134 134 135 135 0 0 0 137 137 138 138 139 0 0 0 0 140 140 140 141 0 142 0 140 0 140 0 0 0 140 139 139 0 138 136 135 0 135 135 135 135 0 135 0 136 0 138 142 146 152 161 185 0 0 0 222 221 222 0 0 0 0 0 0 0 210 207 205 202 199 195 188 182 181 179 177 175 174 173 0 171 172 173 0 0 0 173 173 0 173 173 173 173 172 173 0 0 0 0 0 0 142 129 128 0 131 133 0 0 127 123 119 119 122 126 0 0 125 123 122 120 120 123 125 0 0 117 117 121 126 0 0 143 143 0 0 0 135 0 0 116 0 0 0 115 110 0 109 0 108 108 0 0 104 101 105 119 0 0 0 138 137 136 139 0 141 145 145 142 0 130 126 0 0 0 149 0 0 0 0 0 139 137 143 0 0 0 160 0 159 157 158 0 0 0 0 0 127 111 111 117 123 0 0 135 139 0 0 0 0 0 0 155 0 154 156 0 0 0 158 157 156 157 157 156 157 0 0 0 157 0 0 158 157 158 0 0 0 0 0 147 0 0 137 133 131 130 130 133 138 0 0 0 0 139 137 136 139 0 0 0 148 0 0 146 0 145 144 0 143 0 143 142 143 0 143 144 144 144 0 143 142 143 0 0 145 146 147 0 147 147 147 147 0 0 149 160 0 0 156 176 191 0 0 194 192 0 192 0 193 0 0 195 196 196 0 0 0 0 194 194 0 193 194 0 194 0 197 0 198 0 198 0 0 
102 101 101 101 103 103 105 105 0 0 106 105 104 103 103 103 103 0 102 0 102 0 0 0 97 95 95 0 97 98 99 100 0 100 101 0 103 104 0 0 105 105 105 105 105 105 106 106 0 0 0 105 106 0 0 0 105 104 0 104 0 0 94 89 87 94 0 0 104 104 105 105 106 106 0 0 105 104 0 0 105 0 103 103 0 102 102 102 103 0 0 0 104 0 104 0 106 131 0 0 0 0 0 0 0 162 149 148 0 141 143 0 0 0 0 0 134 0 0 145 146 0 0 0 121 104 102 116 0 0 0 0 0 190 0 0 0 190 190 190 190 0 190 0 0 0 190 190 0 189 189 189 0 188 0 188 188 188 0 0 0 186 185 0 0 183 182 181 181 183 189 0 0 0 0 0 206 206 207 0 207 0 208 209 0 0 212 214 216 0 0 0 0 0 161 132 112 101 100 0 96 96 95 98 107 0 0 0 132 0 0 0 0 134 133 0 132 133 0 139 145 0 0 0 0 0 102 94 96 105 0 0 117 117 118 119 0 0 0 0 0 0 0 128 129 131 0 0 0 0 144 144 144 144 0 145 144 143 143 142 142 0 141 0 141 141 0 0 0 138 0 137 0 136 136 0 137 137 0 0 0 136 0 137 0 0 136 0 0 136 135 135 135 135 135 134 0 0 0 135 135 0 135 134 134 134 134 0 135 135 135 136 136 136 0 0 138 138 138 139 140 0 0 141 141 142 0 0 0 0 0 140 0 0 0 0 0 138 0 136 135 135 0 0 134 0 0 134 134 135 0 0 140 143 150 157 177 0 0 0 224 224 0 0 225 0 0 0 0 0 0 211 208 0 202 0 194 188 181 178 177 176 175 173 173 172 172 173 174 0 174 174 174 174 174 174 173 174 175 0 0 0 0 0 158 150 145 136 129 0 0 131 132 0 0 126 0 120 120 120 123 0 0 126 124 0 121 120 0 0 0 122 118 118 121 128 0 0 141 142 0 0 0 139 0 0 114 0 0 0 114 111 0 109 109 108 109 0 0 103 102 108 0 0 0 139 139 0 0 137 135 136 137 136 134 129 125 136 0 0 0 0 0 0 0 0 0 0 140 137 140 0 0 0 0 0 159 157 158 0 0 0 0 113 110 113 119 0 0 0 136 141 0 0 0 0 155 0 155 155 155 0 0 159 158 157 156 157 0 0 157 157 158 0 158 158 0 158 0 0 158 0 0 0 151 148 0 0 137 133 131 0 129 130 134 140 0 0 0 141 138 137 138 140 143 146 0 0 0 147 146 145 0 0 144 143 0 0 143 143 0 0 0 0 0 0 0 142 0 0 0 146 145 0 0 148 0 0 0 149 0 149 152 0 0 160 161 175 190 0 202 194 0 0 194 195 196 0 196 0 197 197 196 197 196 196 196 195 195 196 0 0 0 0 199 200 200 200 200 200 
0 0 0 0 0 0 0 0 105 106 0 106 105 0 103 103 0 0 0 102 0 0 0 0 96 95 94 0 96 97 0 0 0 101 0 101 102 104 0 0 0 105 0 105 105 105 0 105 0 106 0 105 106 106 0 106 105 104 0 0 0 100 0 90 86 90 0 0 0 0 104 105 0 105 106 0 105 104 104 103 0 0 104 103 103 103 0 0 103 103 0 104 104 0 104 105 106 119 0 0 0 0 0 0 0 169 150 146 146 144 0 0 144 142 0 0 135 135 0 0 148 149 0 0 0 106 102 108 139 0 0 0 189 189 0 189 189 189 189 0 0 190 0 189 0 189 0 189 0 188 188 188 0 0 187 187 187 0 0 0 0 184 0 183 182 181 182 186 192 0 0 0 0 0 0 206 0 0 207 0 207 207 0 209 210 211 213 0 0 0 0 0 0 142 116 105 101 98 97 0 96 96 96 95 96 104 0 0 0 0 0 0 0 0 0 0 133 135 0 140 145 0 0 0 0 120 96 92 95 99 109 0 0 117 117 0 119 120 121 122 124 0 127 128 129 131 0 0 0 143 0 144 144 0 145 145 0 0 0 143 0 142 141 141 141 0 0 0 0 138 138 137 136 0 137 137 137 137 137 137 137 136 136 137 137 136 0 0 0 136 136 0 0 0 0 0 0 0 0 135 135 135 135 0 0 134 0 0 0 0 0 0 136 0 137 137 0 0 138 139 139 141 142 143 0 0 0 0 140 0 140 140 140 0 140 140 0 138 0 135 135 0 134 134 0 133 0 0 134 134 136 138 143 148 156 173 0 0 0 225 0 225 225 226 0 227 227 226 0 0 0 0 207 0 0 199 0 0 182 0 0 176 0 0 173 173 173 174 175 0 175 0 175 175 0 175 175 0 0 0 0 163 157 150 141 137 0 133 129 129 0 129 0 0 128 125 122 120 119 121 123 0 0 126 124 123 122 121 121 124 0 0 119 118 123 0 0 142 142 143 0 0 0 142 0 0 113 0 0 0 116 113 0 0 110 109 109 0 0 103 102 115 0 0 139 139 140 0 139 137 134 136 137 133 128 128 136 0 0 0 0 0 154 152 0 149 0 0 0 140 135 137 0 0 0 0 0 158 0 0 0 0 119 108 111 116 0 0 0 133 138 143 0 0 153 0 0 155 155 154 0 0 159 158 158 0 0 0 158 0 0 158 0 158 157 158 0 0 0 0 158 0 0 0 0 145 0 0 133 130 128 128 128 131 135 141 0 0 0 140 137 137 138 141 144 0 148 148 0 147 146 145 145 0 144 0 0 0 143 143 143 0 0 144 143 143 142 142 144 0 0 0 145 0 147 0 0 148 0 0 0 148 148 177 0 175 153 163 165 0 0 197 196 0 197 0 0 0 0 0 0 0 198 0 0 0 0 0 197 0 0 199 199 200 0 0 0 202 0 0 
98 97 98 0 0 0 102 103 0 106 0 0 0 0 104 0 103 0 0 0 102 102 0 98 95 94 95 0 97 0 0 0 0 0 0 0 102 103 0 0 0 105 0 0 0 105 105 106 0 106 106 106 0 106 0 106 0 0 105 0 104 0 0 92 87 87 93 99 0 104 0 105 105 105 0 105 0 104 0 0 0 0 104 104 104 0 0 103 103 103 103 104 104 0 104 104 106 112 147 0 0 0 0 0 0 0 153 146 148 149 0 148 145 0 0 136 133 130 137 0 0 0 0 0 0 108 102 105 126 0 0 0 188 0 0 188 188 188 0 0 189 0 0 188 0 0 0 0 188 0 187 187 0 186 0 0 0 0 184 0 182 182 182 183 186 189 0 0 0 0 0 0 0 0 0 206 0 0 207 207 207 208 0 0 210 212 0 0 0 0 0 158 126 108 102 100 99 98 96 95 0 0 0 0 93 95 100 113 0 0 0 133 133 133 132 133 134 0 0 142 147 0 0 0 0 118 97 93 95 97 101 111 0 0 117 118 119 0 120 0 123 0 126 0 0 130 0 0 0 0 0 144 0 0 145 0 0 144 0 0 0 0 0 0 141 141 0 0 140 139 0 0 137 0 0 0 0 136 136 0 0 137 137 0 0 136 136 0 136 0 0 136 135 134 135 135 134 134 0 0 0 0 0 0 0 134 0 134 134 134 134 135 0 136 0 137 137 138 139 140 141 142 144 0 0 0 0 142 139 0 140 140 140 139 140 0 138 137 0 0 0 134 0 133 133 133 133 132 133 135 0 142 147 155 172 0 0 0 221 222 0 0 0 227 228 0 0 0 0 219 213 209 207 0 204 199 0 189 182 180 179 177 177 175 175 175 0 176 0 0 0 0 176 176 177 0 0 0 0 162 155 150 144 137 132 134 0 130 129 128 128 128 0 0 127 124 0 119 119 0 124 0 0 127 125 123 0 0 120 123 0 0 119 119 131 0 0 142 142 144 147 0 0 144 0 0 113 0 0 121 117 115 0 0 0 110 110 0 0 104 104 0 0 0 139 140 141 0 0 139 139 0 0 139 136 140 0 0 0 0 0 0 152 151 0 149 0 0 0 0 138 135 134 145 0 0 0 160 0 0 0 126 111 110 0 0 122 127 131 134 139 0 0 0 154 0 0 0 155 157 0 0 158 0 0 158 0 0 158 0 158 0 0 0 157 0 158 158 158 158 0 0 0 149 145 0 138 134 131 128 127 127 129 131 135 0 0 0 144 140 138 136 138 0 0 0 0 149 0 0 0 145 145 0 143 143 143 0 0 143 143 143 0 143 142 0 142 142 144 0 0 144 144 0 146 147 0 146 146 0 0 147 147 159 0 0 152 155 154 181 0 202 198 0 0 0 199 199 199 0 0 0 199 0 199 199 0 0 198 0 0 200 0 0 0 0 0 203 0 204 
97 97 97 97 98 99 101 102 0 0 0 0 105 0 104 0 0 103 0 0 102 101 99 96 94 94 95 0 0 0 98 98 0 0 101 0 102 103 104 0 0 105 105 0 0 0 106 106 0 107 0 106 106 0 0 106 0 105 0 0 0 0 0 0 91 87 91 0 0 103 0 0 104 0 0 105 104 103 102 103 104 0 104 0 0 0 0 103 102 0 0 0 103 103 103 104 105 107 132 0 0 0 0 0 0 0 155 147 0 0 0 0 146 0 0 136 131 130 132 138 0 0 0 0 0 111 102 104 116 0 0 0 0 188 0 187 0 187 0 188 188 0 188 187 0 0 0 0 0 0 186 0 0 0 184 184 183 183 182 181 183 187 190 0 0 0 0 0 0 205 205 205 205 205 205 0 206 0 207 207 208 208 209 210 0 0 0 0 0 0 141 115 104 102 101 0 98 0 0 0 0 96 95 94 93 93 93 99 0 0 0 131 0 0 132 133 133 135 138 142 0 0 0 0 0 123 102 97 97 98 99 105 114 0 0 119 118 119 119 121 0 0 125 0 0 129 131 0 0 0 0 0 0 144 0 0 144 144 144 143 142 142 142 0 0 141 0 141 0 140 0 138 138 0 137 0 0 0 136 136 0 137 0 0 136 0 0 0 0 0 136 0 0 134 0 0 0 134 0 0 134 134 0 134 134 134 0 134 134 133 133 135 135 0 0 137 139 139 141 142 0 0 0 0 0 143 142 140 139 139 140 141 141 0 0 0 137 136 135 134 0 134 133 0 133 0 0 132 133 136 139 143 153 170 0 0 0 216 218 0 0 226 0 0 0 0 0 0 0 218 212 209 207 0 0 0 0 190 185 181 180 0 0 0 0 177 177 178 178 178 178 0 177 178 0 0 0 0 154 148 143 139 133 129 128 132 0 129 127 127 127 0 0 0 125 123 121 118 119 121 126 0 0 0 125 124 123 0 120 122 0 0 122 125 0 0 141 140 142 144 147 0 0 145 0 0 115 119 0 121 118 116 0 0 112 111 0 0 0 104 110 0 0 139 0 141 142 0 0 141 145 0 0 147 147 0 0 0 0 0 155 153 151 150 149 148 0 146 143 140 0 0 133 132 142 0 0 0 0 0 0 113 109 112 0 119 123 128 0 136 140 0 151 0 154 0 157 157 157 0 0 158 157 0 158 158 0 158 158 0 157 0 0 157 157 0 158 157 0 0 156 0 0 0 142 139 135 132 130 0 127 0 129 132 136 0 0 0 143 140 137 137 139 0 145 0 0 0 0 148 147 145 145 0 144 143 143 0 0 143 143 0 142 0 142 0 142 142 0 0 0 143 143 0 0 0 0 144 0 0 146 146 146 151 0 0 157 148 149 160 0 0 199 199 199 199 0 0 200 200 200 200 200 0 0 199 199 199 199 0 200 201 0 0 0 0 204 204 205 0 
98 97 97 97 98 99 0 103 0 0 105 104 104 0 104 104 0 0 0 103 102 0 0 95 94 94 0 95 96 97 0 98 99 100 100 101 102 0 104 0 0 0 0 105 105 106 0 107 0 0 106 105 106 0 0 106 105 104 105 105 0 0 0 0 93 87 89 0 0 0 104 0 105 0 0 0 0 0 103 103 0 0 104 104 103 103 103 103 0 0 0 0 103 0 103 103 104 106 121 0 0 0 0 0 0 0 161 144 151 0 0 151 147 0 0 137 133 133 134 135 141 0 0 0 0 112 102 103 109 141 0 0 0 188 0 187 186 0 0 0 187 0 0 0 186 186 0 0 186 185 183 184 184 183 182 184 184 185 187 190 0 0 0 0 0 0 0 204 204 0 0 0 205 205 205 206 206 0 207 0 0 209 0 0 0 0 0 0 156 127 110 103 102 0 0 99 98 0 0 96 95 0 0 0 0 0 91 93 103 0 0 0 0 132 0 0 135 135 137 142 0 0 0 0 0 0 114 103 101 102 102 105 110 118 0 0 120 118 119 120 0 0 123 124 126 128 129 133 136 137 0 0 0 143 0 0 0 0 0 0 0 143 0 143 0 141 141 141 141 0 0 139 138 0 137 137 0 137 136 136 136 0 0 136 0 135 135 0 133 135 135 0 0 134 0 0 134 0 0 134 133 134 0 133 133 0 134 134 0 134 135 0 136 136 138 140 0 0 0 0 0 143 143 143 142 141 141 141 141 141 142 0 0 0 0 136 135 0 134 133 0 133 0 0 0 132 0 133 134 137 141 149 169 0 0 0 212 212 216 0 0 0 0 0 0 0 0 0 222 217 213 210 209 0 0 0 0 190 187 185 183 181 0 0 0 0 0 0 0 179 179 179 0 0 0 0 156 149 145 0 134 131 128 127 128 0 0 127 0 126 126 0 0 127 124 0 0 118 120 123 0 0 129 127 124 124 0 0 121 121 0 124 124 0 0 142 139 140 142 144 147 0 0 146 0 0 118 117 0 121 117 117 0 0 114 112 111 110 0 105 118 0 0 140 0 0 0 144 144 147 0 0 152 152 0 0 0 0 0 0 153 151 150 0 148 147 0 0 142 141 0 0 136 133 133 142 0 0 0 0 121 111 111 113 117 0 125 0 0 138 143 0 152 0 155 0 157 158 0 0 158 157 157 0 158 158 0 0 157 0 157 0 158 158 0 158 0 0 157 0 0 0 148 144 140 137 134 131 128 127 126 127 129 132 137 0 0 0 142 139 137 137 139 0 146 0 149 149 149 0 0 146 0 0 0 0 0 0 0 143 143 0 142 141 141 142 0 141 0 0 145 143 144 0 0 144 142 141 141 0 0 0 146 147 167 0 176 148 148 149 0 0 204 199 199 199 200 0 0 200 0 0 0 200 200 0 0 199 200 200 201 202 202 203 0 0 0 0 0 0 
102 99 97 97 99 100 102 103 0 0 105 104 0 0 0 0 0 103 0 0 0 0 97 94 93 93 0 0 95 96 0 0 0 100 100 100 101 0 0 104 105 0 105 0 106 0 0 0 0 0 106 0 0 0 0 0 106 0 0 105 105 104 102 0 0 89 88 0 0 0 0 104 105 104 104 0 104 0 0 102 103 0 0 0 103 102 103 0 0 104 104 104 0 0 103 103 0 104 112 150 0 0 0 0 0 0 169 149 157 0 0 152 150 0 0 138 135 136 0 0 137 0 0 0 0 114 102 101 105 127 0 0 0 187 0 0 0 185 0 0 185 0 185 185 184 184 184 185 184 185 185 186 187 188 191 0 0 0 0 0 0 0 0 0 204 203 204 0 203 204 0 0 205 0 206 0 0 207 207 0 208 210 0 0 0 0 0 139 117 107 103 102 100 0 0 98 0 0 95 95 94 0 94 93 0 91 90 91 94 103 0 0 0 131 0 0 0 137 0 143 0 153 155 153 147 0 0 112 108 0 107 107 111 118 126 0 131 123 119 120 121 0 123 0 0 127 129 132 135 136 138 139 0 0 0 0 0 144 0 0 0 143 143 0 0 0 142 0 141 141 141 140 139 137 137 0 0 0 0 136 136 0 136 135 0 135 134 134 0 135 135 135 135 135 0 134 133 0 0 0 0 0 0 133 133 0 134 134 135 0 0 0 0 137 0 0 0 0 0 143 142 141 141 0 141 141 0 0 0 0 0 0 0 0 137 135 135 0 0 132 0 132 0 131 0 132 132 133 136 140 148 170 0 0 0 207 208 0 215 0 0 0 0 0 0 0 0 0 220 0 0 214 0 0 0 0 196 190 189 0 0 183 181 181 0 0 0 181 181 0 0 0 0 0 157 150 146 141 136 131 128 126 126 126 127 0 0 127 126 126 126 127 127 126 0 0 120 118 121 124 0 0 0 0 124 123 124 0 0 122 0 125 131 0 0 140 138 140 0 0 148 0 0 148 0 0 122 114 0 120 118 0 0 0 0 113 111 0 109 110 0 0 0 140 142 0 145 147 0 0 0 0 0 0 0 0 0 0 0 152 150 0 0 0 0 145 0 0 141 0 0 0 0 135 133 134 139 0 0 128 117 115 114 116 119 122 126 0 135 140 145 0 0 0 0 157 157 0 0 158 0 157 0 157 0 0 157 157 157 0 157 157 0 158 0 158 158 157 0 0 153 0 0 141 138 135 0 130 128 0 125 0 128 132 139 0 0 0 141 138 137 138 140 0 0 148 0 0 0 0 0 0 145 144 144 144 0 142 142 143 0 143 0 0 141 142 0 141 0 0 0 0 144 0 0 143 141 139 139 0 0 0 146 146 153 0 0 152 147 146 165 0 0 200 0 0 0 201 201 201 201 0 0 0 201 0 0 0 0 201 0 0 0 204 0 0 0 207 207 207 
0 0 101 100 101 103 104 0 0 0 0 0 0 103 101 102 101 102 102 102 0 0 96 93 92 92 0 0 0 95 0 0 99 0 0 0 0 0 103 103 104 104 105 0 0 0 106 106 106 106 106 106 105 105 0 107 107 0 106 0 0 0 0 0 0 92 87 89 96 0 103 104 0 0 0 0 104 103 0 103 103 0 104 0 104 103 0 0 0 102 0 0 103 103 0 103 103 102 106 136 0 0 0 0 0 0 176 160 0 0 159 153 0 0 143 136 137 0 0 136 135 138 0 0 0 118 103 101 103 119 0 0 0 187 186 185 185 185 184 185 184 184 185 186 188 190 192 194 0 0 0 0 0 0 0 0 0 0 0 0 202 202 0 0 0 204 204 0 203 203 204 0 0 206 0 0 0 207 208 0 209 0 0 0 0 0 129 110 105 102 101 0 98 97 97 0 0 94 0 94 94 0 0 0 91 90 0 90 90 93 103 0 0 0 133 135 0 0 0 143 0 0 0 0 0 0 0 124 115 0 113 111 117 126 137 0 0 142 127 121 120 121 122 0 124 126 129 0 0 138 137 136 138 141 0 0 0 0 0 144 0 144 142 143 0 142 0 0 0 0 0 0 0 139 138 137 137 137 137 0 0 0 136 0 0 0 135 0 135 0 0 0 0 0 0 133 133 133 133 133 0 0 133 0 0 133 0 0 135 136 137 0 0 138 0 140 140 140 141 140 140 0 141 141 0 142 143 0 0 144 0 0 0 138 135 0 0 0 0 132 132 0 131 130 131 0 134 136 139 149 173 0 0 0 202 203 207 0 214 217 0 0 0 0 0 0 223 220 218 0 0 0 0 0 207 201 197 195 0 0 0 187 184 182 183 183 0 182 0 0 0 0 160 151 145 0 136 132 128 126 125 125 125 125 126 0 0 128 126 125 0 0 126 0 0 122 120 119 122 0 0 128 0 0 125 124 0 0 0 122 122 125 0 0 142 138 139 141 144 146 148 0 0 0 147 0 128 112 0 0 120 117 116 0 0 114 0 110 109 116 0 0 0 140 143 145 145 149 0 0 155 0 0 155 0 155 0 0 152 150 149 148 147 146 145 144 0 142 141 0 0 140 138 0 136 135 132 134 132 124 120 119 118 119 0 124 0 132 136 141 0 0 0 156 157 157 159 0 159 158 0 157 157 0 157 0 157 157 0 156 0 156 157 158 158 158 0 0 0 0 0 0 143 139 135 0 131 129 0 0 125 126 128 132 0 0 0 144 140 137 136 137 141 0 0 0 0 149 149 149 148 146 145 145 145 0 144 143 143 143 0 143 142 142 0 0 141 141 0 0 0 144 142 0 0 0 0 140 140 142 144 145 0 146 147 172 0 167 148 145 154 0 0 203 201 201 201 0 0 0 201 0 0 201 201 0 0 201 201 0 0 203 0 204 205 0 0 207 0 0 
0 0 100 101 0 106 107 0 0 0 0 0 0 103 102 0 103 0 0 102 100 98 94 92 92 92 94 0 94 95 96 98 99 0 100 99 101 0 103 0 0 103 0 0 105 105 105 106 0 0 0 106 105 106 107 0 107 0 106 106 0 0 0 0 0 0 88 87 92 0 0 0 0 0 0 0 0 104 103 0 0 0 104 0 0 0 0 0 104 103 0 0 103 0 0 0 0 101 104 124 0 0 0 0 0 0 0 166 0 0 158 156 0 0 143 137 138 140 0 0 0 135 141 0 0 121 104 101 103 112 147 0 0 196 196 196 198 199 201 0 0 0 0 0 0 0 0 0 0 0 0 0 0 0 0 0 0 202 201 201 0 201 202 202 204 204 0 0 0 0 205 0 206 206 206 206 207 207 0 0 0 0 0 0 150 123 110 104 101 100 99 97 97 96 96 96 95 94 94 94 0 0 92 92 0 0 0 0 91 91 94 105 0 0 0 135 137 139 141 144 149 0 0 0 0 0 0 0 124 120 117 121 129 141 0 0 0 0 150 134 126 122 122 122 0 125 128 0 0 0 143 139 139 140 141 142 142 143 0 145 0 0 0 143 0 142 142 0 142 142 0 0 141 0 0 137 137 0 0 137 137 0 136 135 0 0 135 0 135 0 0 0 133 133 0 132 132 0 132 132 0 133 133 0 0 133 133 134 0 0 135 136 136 0 0 139 138 139 140 140 139 140 0 0 0 0 0 0 144 145 0 142 138 135 134 133 132 132 132 132 0 131 131 131 131 133 135 140 151 175 0 0 0 197 199 201 0 0 212 0 0 220 222 0 0 0 218 216 216 216 0 0 0 0 206 201 199 0 0 0 0 0 188 185 185 0 0 0 0 0 162 152 146 142 138 0 128 126 125 124 125 0 0 0 126 0 0 0 125 124 0 0 0 0 123 121 120 120 123 0 0 127 126 0 125 124 123 123 0 0 122 129 0 0 140 137 139 0 0 0 0 0 0 0 148 0 0 115 121 0 121 0 118 117 0 0 111 110 111 0 0 0 0 0 0 146 0 0 0 155 0 0 0 153 153 0 0 151 149 0 0 0 145 0 143 142 0 0 141 0 0 0 139 139 139 138 137 136 0 129 126 123 123 123 125 127 130 134 138 144 0 0 0 157 158 0 0 159 158 157 0 0 157 0 0 156 157 157 0 156 156 156 157 0 158 158 0 0 155 0 149 145 141 137 135 133 131 129 0 125 125 126 128 132 0 0 0 0 140 138 136 0 141 0 0 0 149 0 0 0 0 146 0 0 0 0 0 0 143 0 143 143 142 142 0 142 142 142 0 0 0 143 143 0 145 0 0 142 0 142 0 0 0 0 146 155 0 0 152 145 147 181 0 208 201 201 201 0 0 0 201 201 0 201 201 201 201 0 200 201 0 203 0 0 205 206 207 0 208 208 
106 103 102 105 0 0 0 109 108 106 105 104 103 103 0 0 0 0 0 0 0 0 93 90 92 93 94 94 95 0 0 0 98 99 99 100 0 0 103 104 103 103 104 105 105 105 0 106 107 0 107 0 105 0 107 0 107 0 106 0 105 104 104 0 0 0 90 87 90 0 0 0 104 104 104 0 0 0 0 0 0 102 0 105 105 105 105 104 104 0 103 0 0 0 0 103 0 102 104 114 0 0 0 0 0 0 0 163 156 156 157 0 0 0 144 139 140 0 142 140 0 134 135 0 0 0 107 101 102 108 140 0 0 0 0 0 0 0 0 0 0 0 0 0 0 0 0 204 202 202 201 201 201 201 201 201 201 201 0 0 0 0 202 0 0 0 204 0 0 0 0 206 206 0 0 0 207 0 0 0 0 0 0 135 116 109 105 0 99 98 97 0 0 96 0 95 0 94 0 94 94 0 0 92 0 91 91 91 0 0 92 95 0 0 0 0 137 139 0 0 0 0 0 0 0 0 0 0 0 125 122 0 0 0 0 0 0 0 0 162 149 135 126 122 123 124 126 132 0 0 0 0 144 142 141 141 141 0 0 144 0 0 144 0 143 142 142 142 142 142 141 0 141 0 0 138 138 0 0 0 0 136 0 135 0 0 134 134 134 0 133 132 132 0 132 132 132 132 0 131 132 132 0 0 0 0 0 0 134 0 134 135 135 137 138 0 139 0 0 140 140 0 0 142 142 143 143 143 0 0 0 139 135 0 133 132 132 0 0 0 0 131 0 131 132 134 140 152 0 0 0 198 192 194 0 199 0 207 210 0 216 218 0 0 0 216 214 213 0 215 0 0 0 210 206 202 201 201 0 0 0 0 0 0 0 0 0 0 163 153 147 143 139 135 131 128 125 124 124 124 0 0 125 0 127 0 129 126 125 124 124 125 0 0 123 0 121 121 123 0 0 125 125 0 0 124 123 0 124 124 124 136 0 0 139 137 0 0 0 0 0 0 0 151 0 0 0 121 118 0 123 121 0 0 0 115 0 111 113 0 0 0 0 142 144 0 0 0 152 0 0 153 152 0 0 0 0 0 147 0 145 0 143 0 0 142 0 142 142 142 0 141 141 0 0 0 0 0 0 0 131 128 127 127 129 0 132 135 0 0 0 0 0 158 0 0 159 158 0 156 157 157 157 0 157 156 0 0 0 0 156 156 0 0 158 0 0 0 154 0 147 0 139 137 0 0 0 0 127 125 124 126 128 133 140 0 0 0 140 138 137 0 0 0 0 149 0 149 149 0 0 147 146 146 0 145 0 143 142 143 0 0 0 142 142 142 0 142 0 0 0 0 144 0 0 0 144 142 141 0 144 145 145 0 146 148 0 0 164 145 144 162 0 0 202 0 0 0 0 0 200 200 0 0 0 0 0 0 200 201 0 203 0 204 0 205 0 0 208 0 
104 105 107 0 0 0 0 0 0 106 104 0 0 0 102 102 0 103 103 0 0 0 94 92 0 0 0 0 95 0 0 97 0 0 0 0 0 0 0 0 0 0 0 105 0 0 0 0 0 107 0 0 107 0 107 107 107 0 105 105 105 0 104 103 100 0 92 88 87 93 0 0 103 0 104 104 104 104 103 103 103 103 0 105 0 0 105 0 0 0 104 103 104 104 0 102 103 0 104 108 141 0 0 0 0 0 0 158 146 153 0 0 0 152 145 141 143 0 0 0 138 136 133 0 0 0 109 100 102 105 128 0 0 0 0 0 0 0 209 207 206 204 203 202 201 201 201 201 201 200 200 200 0 200 0 201 201 0 0 201 0 201 202 0 204 204 204 204 205 0 206 206 0 207 207 207 0 0 0 0 0 148 123 110 105 104 101 0 98 0 95 96 96 95 95 0 94 0 94 94 0 0 0 0 91 91 91 90 91 0 90 90 96 0 0 0 0 0 141 0 0 0 0 0 150 147 146 0 0 133 128 0 0 0 0 172 176 0 0 0 0 0 148 132 124 124 124 127 0 0 0 0 0 146 143 141 140 0 0 0 0 0 0 0 0 0 0 0 0 0 141 0 0 0 0 139 0 137 137 0 0 135 0 0 133 0 0 0 0 133 132 0 0 0 0 131 0 0 131 132 0 0 0 0 0 134 133 134 134 134 134 135 0 137 138 139 139 139 0 140 0 141 0 142 0 143 0 0 0 0 139 135 134 0 132 131 131 0 131 130 0 130 130 132 133 138 151 0 0 0 194 188 189 191 0 0 201 0 0 0 0 0 0 0 212 212 212 212 0 0 0 0 212 209 0 204 203 0 0 201 199 0 0 0 0 0 163 154 147 143 140 136 0 128 126 125 124 124 124 0 0 126 126 0 128 0 0 125 0 0 122 0 0 0 123 0 0 122 124 0 0 124 123 0 0 124 123 0 124 125 128 0 0 143 137 138 0 144 0 149 151 0 0 0 149 0 0 0 115 0 0 122 0 120 0 0 0 110 114 0 0 0 0 0 146 0 0 151 152 0 0 151 150 149 0 0 0 0 0 142 142 0 0 141 141 141 0 141 142 143 0 143 142 143 143 143 0 0 0 0 0 134 132 132 0 0 0 137 143 149 0 155 158 0 0 0 157 157 156 156 0 0 156 0 156 156 0 0 156 0 0 0 0 0 158 0 0 0 0 0 144 140 138 136 0 132 130 0 0 125 125 126 127 134 0 0 0 143 140 138 138 140 143 0 148 0 0 149 149 0 148 147 146 0 145 144 144 0 0 0 0 143 142 0 0 142 0 142 0 145 0 0 144 0 0 0 0 142 0 0 0 0 0 145 145 146 160 0 0 149 143 151 0 0 205 200 200 200 200 199 199 200 200 200 199 200 0 200 200 0 0 202 0 0 0 205 0 207 0 0 
105 0 0 0 0 0 0 0 108 105 0 0 0 0 101 100 101 102 0 0 0 96 94 92 92 93 94 0 0 95 95 96 97 98 98 100 101 101 103 104 0 0 104 105 0 106 106 106 107 0 0 0 0 106 106 0 0 0 0 0 105 0 0 0 0 0 94 89 85 89 0 0 0 0 0 103 0 0 103 103 0 0 0 104 0 0 105 104 104 104 104 104 104 104 103 103 103 0 103 104 130 0 0 0 0 0 0 161 146 150 0 0 0 150 145 146 0 0 147 144 139 137 134 138 0 0 112 101 101 102 114 153 0 0 203 201 201 200 199 200 200 200 200 0 200 0 200 200 200 0 200 200 0 200 0 201 201 201 201 201 0 202 202 0 204 0 204 204 0 205 206 0 0 207 0 0 0 0 0 0 134 116 107 104 102 0 98 98 96 96 0 0 95 95 0 94 0 93 93 0 0 93 92 90 91 0 91 91 0 90 0 90 90 102 0 0 0 137 140 143 145 0 0 149 148 148 148 148 0 0 140 146 0 0 0 174 176 0 0 0 0 0 0 0 144 130 125 124 132 0 0 0 0 0 146 142 139 138 138 139 140 140 0 140 141 0 0 0 0 0 0 0 0 141 0 0 138 137 0 135 135 0 0 133 132 0 133 0 133 132 0 131 131 130 0 130 0 131 0 0 0 0 133 133 134 134 0 0 0 134 135 135 0 138 0 0 0 140 0 141 0 0 142 143 0 144 0 0 0 0 134 132 132 132 132 0 0 131 130 129 0 130 130 133 140 149 170 0 0 198 193 190 189 189 192 196 199 0 0 0 0 0 0 209 207 208 211 212 0 0 214 213 211 208 0 0 204 0 0 0 0 0 0 0 164 153 146 141 139 0 133 129 127 123 123 0 123 123 0 124 0 126 0 0 127 0 0 125 0 122 121 0 0 0 122 121 121 122 124 0 0 123 121 124 125 124 0 0 124 126 135 0 0 142 137 137 141 144 0 0 0 0 0 0 0 147 0 0 120 119 0 0 122 121 0 0 115 110 112 0 0 0 0 0 0 0 0 149 0 0 148 0 0 0 0 145 143 141 0 0 140 139 139 140 0 140 0 142 142 143 0 0 144 0 145 144 145 0 0 142 0 0 0 0 136 136 138 142 0 0 0 157 0 0 0 0 156 0 0 156 156 156 156 0 155 0 156 155 156 156 0 157 157 0 157 0 0 153 0 0 142 139 137 135 0 131 130 128 126 125 0 0 126 132 0 0 0 0 139 137 138 140 0 146 0 0 0 0 149 0 0 147 146 0 0 144 144 0 0 143 143 142 142 0 0 0 141 141 0 0 0 143 143 0 145 0 143 0 140 142 0 144 145 0 145 145 150 0 0 159 143 145 177 0 0 199 0 0 0 199 0 0 0 0 0 199 0 0 0 200 201 201 202 203 204 205 206 0 207 207 
109 0 0 0 0 0 0 0 107 105 103 100 99 99 99 99 100 0 0 100 0 95 93 92 92 0 93 93 94 0 94 94 0 97 98 99 0 0 0 103 104 0 104 0 105 106 106 106 107 107 106 106 106 106 105 0 106 105 0 106 105 0 0 0 0 100 0 0 86 87 93 0 0 0 103 103 0 0 103 103 0 0 104 102 0 0 0 103 0 0 0 0 0 0 0 0 103 0 102 102 119 0 0 0 0 0 0 158 144 148 152 0 0 0 146 0 0 0 0 0 0 138 136 138 0 0 115 101 0 101 107 136 0 0 199 200 199 199 199 0 0 0 200 0 200 199 0 200 200 200 200 0 0 200 0 201 201 0 201 201 0 0 0 203 0 204 0 0 205 205 206 0 207 0 0 0 0 0 143 122 110 106 104 0 100 99 98 0 96 95 0 0 95 0 0 94 0 92 92 93 0 93 92 0 92 0 0 0 0 89 89 89 90 95 111 0 0 0 139 0 144 145 0 147 147 0 0 151 0 0 0 152 163 0 0 0 186 0 0 198 0 0 0 0 0 160 142 129 127 137 0 0 0 0 0 0 141 138 138 138 138 138 137 138 138 139 139 139 139 139 139 0 0 140 0 0 0 136 134 134 0 133 0 131 132 0 132 132 132 0 131 0 130 130 0 130 130 0 131 132 133 133 0 134 0 135 135 135 135 135 0 0 0 0 139 0 140 141 141 0 142 142 143 144 145 0 0 0 0 136 133 131 131 0 0 0 0 0 0 129 129 131 133 140 152 172 0 0 200 199 0 195 192 191 191 194 0 199 201 203 204 206 207 207 207 209 0 0 214 0 0 212 0 208 207 206 0 0 0 0 0 0 165 153 145 140 138 136 134 131 128 125 123 122 0 0 123 123 0 0 0 0 0 125 124 0 0 124 0 120 120 122 0 0 0 0 121 122 0 0 0 121 120 0 0 0 124 123 124 128 0 0 145 141 137 138 141 145 0 150 0 0 0 0 0 147 0 0 0 115 0 0 124 122 0 0 0 111 111 116 0 0 0 0 0 0 0 0 0 0 145 0 144 0 143 141 0 139 138 138 0 138 0 139 0 140 141 0 0 144 145 0 146 0 0 0 0 0 0 144 143 0 142 0 139 138 141 145 0 0 156 0 0 0 158 156 155 155 155 0 0 0 0 154 154 0 0 155 0 156 156 0 0 0 0 0 0 0 146 142 140 137 136 0 133 0 130 128 126 124 124 125 126 132 0 0 0 0 140 138 139 141 144 0 0 148 150 0 149 149 148 0 147 146 145 0 144 143 0 143 0 0 0 0 140 141 140 140 142 0 0 144 143 0 0 144 142 141 140 141 143 0 0 0 0 146 146 169 0 0 144 143 156 0 0 201 199 0 199 199 199 199 0 199 199 199 199 199 199 200 0 201 0 0 203 0 205 0 207 207 
111 0 114 0 0 0 110 0 105 0 0 100 0 99 99 99 99 0 0 0 96 0 91 0 0 0 0 0 0 0 0 94 94 96 0 98 0 0 0 0 0 0 104 0 0 0 0 0 0 107 0 105 105 0 0 107 107 107 0 106 105 105 106 0 0 101 0 0 89 86 91 0 0 0 102 0 0 104 104 104 103 104 0 104 104 104 104 103 103 0 103 102 103 0 0 0 0 103 102 103 111 149 0 0 0 0 0 157 139 146 149 0 146 145 147 0 0 0 0 0 0 138 137 138 0 0 0 101 101 102 104 122 0 0 0 199 0 0 199 0 200 199 0 0 0 199 0 200 0 0 200 0 200 200 0 201 201 201 0 201 202 0 203 203 203 0 204 205 205 206 0 0 0 0 0 0 157 130 114 109 106 104 0 0 98 0 97 96 0 95 0 0 94 0 0 0 0 92 93 93 0 0 92 0 0 0 92 0 90 88 89 0 90 92 103 0 0 0 138 0 0 143 0 145 146 148 0 0 0 0 0 161 166 0 0 0 0 0 0 199 0 0 0 0 0 0 0 0 141 133 143 0 0 157 0 0 147 143 140 138 137 0 138 138 138 138 139 139 0 138 137 137 138 0 138 138 137 0 0 133 133 132 132 0 131 0 0 0 131 131 130 130 130 0 130 130 129 130 131 132 0 0 0 135 0 0 0 135 0 136 0 137 138 139 139 139 0 0 142 0 143 143 144 0 146 0 0 0 136 133 0 0 130 130 0 130 129 129 129 129 130 133 140 158 0 0 0 0 204 0 0 200 0 196 195 196 197 199 199 198 199 203 206 207 0 0 0 0 0 214 213 212 0 209 208 0 0 0 0 0 165 152 144 139 137 135 134 0 0 125 123 123 121 122 122 122 123 123 0 124 125 0 0 123 123 0 0 123 0 120 120 0 0 123 122 0 122 123 0 0 125 121 121 0 0 124 0 124 124 133 0 0 144 139 138 139 141 0 0 0 0 152 152 0 0 148 0 0 0 123 119 0 0 123 122 0 0 112 109 113 0 126 0 0 0 141 143 0 0 142 141 141 141 0 139 138 137 136 135 135 136 136 137 138 139 140 141 0 143 144 0 0 147 0 0 148 0 0 0 0 0 0 0 0 142 142 143 147 152 0 0 0 0 157 0 154 154 0 155 155 155 155 154 154 155 0 0 155 155 0 0 156 156 0 0 0 0 0 144 141 0 135 135 0 133 0 0 0 0 0 124 124 125 132 0 0 145 142 140 139 0 0 0 0 0 0 0 150 0 0 148 0 0 146 0 0 144 143 0 143 0 141 141 141 0 140 0 141 142 144 145 0 144 0 145 144 0 140 140 141 0 0 145 0 146 146 146 153 0 0 152 142 147 181 0 209 199 0 0 0 0 0 0 0 0 0 0 199 199 0 0 200 201 202 0 0 205 0 0 207 
0 0 114 0 0 0 109 0 105 0 102 0 0 0 99 0 99 98 98 0 95 0 89 89 0 91 92 0 92 92 0 93 94 0 96 96 98 100 101 0 0 0 104 105 105 0 105 105 0 107 0 105 105 106 0 0 0 0 0 0 0 0 0 105 104 102 99 0 91 86 87 94 0 101 101 102 0 0 104 0 0 0 0 0 103 104 0 104 103 103 102 101 102 0 0 0 102 0 0 103 105 135 0 0 0 0 0 158 146 0 0 143 141 142 0 0 0 152 149 146 142 138 0 0 0 0 0 103 100 101 102 113 0 0 0 199 199 0 0 0 0 0 199 199 199 0 200 200 199 0 200 200 200 0 0 0 0 201 0 202 202 203 0 203 203 0 205 205 206 0 0 0 0 0 0 143 120 109 106 105 103 102 100 99 97 0 96 95 0 95 95 0 94 0 95 94 0 0 0 0 93 0 92 0 92 0 91 91 90 0 89 0 90 90 96 0 0 0 0 0 0 142 143 143 144 147 0 0 0 0 0 0 0 0 0 184 0 0 194 0 0 0 203 0 0 0 0 0 0 159 146 149 159 0 0 0 0 0 145 141 138 139 138 0 138 0 0 139 0 139 0 137 137 0 137 137 137 0 0 133 0 0 132 0 130 0 0 0 131 0 130 129 129 0 130 0 130 0 132 133 0 135 135 136 136 136 136 0 136 136 0 137 139 140 0 0 0 143 143 144 144 0 146 0 147 0 0 137 132 131 0 129 0 129 129 129 129 129 129 131 134 145 165 0 0 0 0 0 0 0 0 0 0 0 199 199 199 199 200 200 201 0 0 208 0 212 0 214 0 0 0 0 0 0 0 0 0 0 0 155 144 139 136 133 0 0 0 0 124 122 120 121 0 121 122 0 123 0 123 124 124 124 0 123 123 0 0 123 0 119 119 0 0 122 122 0 121 124 0 0 124 121 120 0 124 124 124 124 125 0 0 147 142 138 138 140 143 0 0 150 0 0 152 0 151 149 146 144 0 0 118 0 0 126 122 0 0 114 108 111 0 121 0 0 0 136 0 0 0 0 137 0 137 137 136 135 135 134 134 134 135 136 137 0 0 140 142 143 144 0 0 0 148 0 149 0 0 0 0 147 147 147 0 0 146 145 147 151 155 0 0 0 0 155 154 153 0 154 0 0 0 0 153 153 155 0 0 0 0 155 155 0 0 0 0 152 0 0 142 0 0 136 0 134 0 131 129 126 124 124 124 0 126 133 0 0 0 142 139 139 139 142 0 0 148 0 0 150 0 149 148 0 147 146 0 0 144 144 0 0 0 141 141 141 141 140 141 142 143 0 0 0 144 0 0 0 0 140 140 141 142 143 144 0 0 0 146 148 175 0 174 143 143 161 0 0 199 198 198 0 0 198 198 197 198 198 0 0 0 199 199 200 0 201 202 203 204 0 0 0 
0 0 0 0 111 108 106 0 0 103 0 100 99 0 0 0 0 0 98 0 0 0 89 89 0 89 91 92 92 92 92 93 0 0 0 0 0 99 100 101 103 104 0 0 105 0 106 106 0 0 107 106 0 105 0 107 107 106 105 105 105 105 0 0 0 0 0 0 0 88 86 90 0 0 101 102 0 0 0 0 105 0 103 102 103 0 0 0 104 103 0 102 0 102 102 101 102 102 0 102 103 123 0 0 0 0 0 157 138 0 0 0 143 145 0 0 0 152 0 0 144 141 0 0 133 125 113 100 98 0 102 107 140 0 0 0 199 199 199 199 199 0 199 0 0 0 0 0 0 0 200 200 200 0 0 200 0 201 0 0 0 203 0 203 203 0 0 206 0 0 0 0 0 153 128 114 107 105 104 102 100 100 0 98 97 96 95 95 95 95 95 0 0 0 0 0 93 93 0 0 93 92 92 92 91 91 0 0 0 90 90 0 0 89 92 103 0 0 0 0 0 0 0 143 143 146 0 154 156 158 160 0 0 170 0 0 0 187 189 0 0 0 0 0 0 0 0 0 0 0 0 165 160 163 164 162 159 0 0 148 142 141 140 0 139 138 0 139 139 0 0 0 137 0 0 137 0 0 134 132 0 0 132 0 131 130 131 0 0 0 129 0 0 0 129 0 0 131 133 0 136 0 136 137 0 0 138 0 138 0 0 139 140 0 0 0 143 143 0 0 146 0 147 0 0 0 138 132 130 129 129 129 0 128 128 128 129 129 131 133 146 0 0 0 0 0 0 0 0 0 0 0 0 0 0 0 201 0 0 0 202 204 206 0 0 0 0 0 0 0 0 0 0 0 0 0 0 160 147 140 135 132 131 130 0 0 125 123 121 121 121 121 0 0 121 0 0 123 0 0 0 123 122 122 122 0 0 122 120 118 118 0 0 122 0 0 120 125 0 0 124 120 119 122 0 0 123 124 129 0 0 146 141 137 138 140 143 0 149 151 0 0 151 152 0 0 146 145 0 0 128 120 0 0 124 122 0 0 109 109 111 115 0 125 128 0 0 134 135 0 135 135 135 135 134 134 133 134 134 134 135 0 137 139 139 141 143 0 145 146 146 0 148 0 149 0 150 150 0 148 148 0 149 149 149 149 152 0 0 0 0 157 155 153 152 152 153 154 154 0 0 0 153 154 155 0 155 155 0 154 0 154 0 0 153 150 0 144 140 138 137 135 0 134 0 131 0 126 124 123 0 0 125 134 0 0 0 0 140 139 140 0 0 146 0 0 150 150 0 0 0 148 147 146 145 145 0 144 0 143 0 142 141 0 0 141 0 142 0 0 0 145 145 0 0 0 0 140 139 141 0 0 144 145 145 0 146 146 159 0 0 151 143 150 0 0 203 197 197 197 0 0 0 197 0 0 198 197 197 198 199 199 200 0 201 0 203 205 206 206 
115 115 0 113 110 107 105 104 0 0 0 99 98 99 0 100 99 99 98 0 94 91 89 89 89 90 0 0 0 90 0 0 93 93 94 96 97 98 100 0 0 0 0 105 105 0 106 0 106 107 0 0 106 106 0 0 0 106 0 0 105 0 105 105 0 0 0 0 0 89 86 88 94 0 0 0 0 103 103 0 0 0 0 103 0 104 0 105 0 0 103 102 101 102 102 102 0 0 0 0 103 116 0 0 0 0 0 157 132 135 0 0 142 144 0 0 0 153 0 0 145 145 0 0 132 0 113 101 98 0 102 105 127 0 0 0 199 0 199 0 199 199 0 0 0 199 199 199 0 200 200 0 0 200 0 0 201 201 202 202 202 203 0 203 204 205 0 0 0 0 0 0 139 119 109 105 104 102 102 101 100 0 0 0 0 96 0 95 0 94 95 0 94 94 94 0 0 93 0 93 0 92 92 0 0 0 90 90 0 90 0 89 88 88 90 96 0 0 0 0 141 142 143 0 144 147 0 154 0 0 159 162 0 164 166 0 0 186 190 0 0 199 198 201 0 0 0 0 0 193 0 0 0 176 172 167 164 163 0 0 152 146 142 141 140 140 139 139 138 0 139 0 0 0 0 136 136 135 134 133 0 132 132 0 131 0 130 130 130 0 129 0 129 129 129 129 130 131 134 0 138 0 139 139 0 139 0 0 0 0 141 0 0 143 0 0 143 0 146 147 0 0 0 0 0 0 132 129 129 0 0 128 0 127 127 127 129 132 0 142 0 0 0 0 0 0 0 0 0 0 0 0 0 0 0 0 203 202 203 0 205 0 0 207 208 0 0 0 0 181 164 170 0 0 0 162 150 142 136 133 130 129 0 0 125 123 121 120 120 121 0 0 0 0 122 0 123 0 122 123 123 0 0 120 121 0 0 121 119 118 118 0 123 0 0 0 121 125 0 0 124 120 119 0 0 123 123 124 135 0 0 145 140 137 137 140 0 147 0 152 0 0 152 0 0 150 147 0 0 0 0 126 126 0 127 124 0 0 109 105 108 111 115 119 0 0 127 129 0 133 0 134 134 134 134 134 0 134 135 0 0 138 139 140 141 0 144 0 146 0 147 0 0 149 0 150 0 0 149 148 0 150 0 150 151 154 0 0 0 159 156 155 0 0 152 151 153 0 154 154 154 0 153 0 0 0 0 154 154 154 0 153 0 0 0 0 0 142 139 137 0 136 135 134 0 130 0 0 123 122 123 0 124 135 0 0 0 141 138 140 0 0 145 147 0 0 150 150 0 149 0 148 147 146 0 145 0 144 143 0 0 0 141 0 0 140 0 141 0 0 0 145 0 0 0 0 142 140 139 141 0 0 144 0 0 0 146 146 151 0 0 167 143 146 171 0 0 197 197 197 197 197 197 197 0 198 0 0 0 0 0 199 0 200 201 0 203 0 0 0 
116 0 0 0 0 0 0 104 103 102 0 100 99 0 0 0 100 0 0 0 93 90 89 88 89 0 0 90 90 90 0 92 92 0 0 95 97 0 0 102 0 104 104 0 105 0 0 105 106 0 0 106 0 106 0 106 0 106 106 106 106 0 0 104 0 0 0 0 95 91 87 87 0 0 0 103 103 103 103 0 105 104 0 0 0 103 0 105 105 0 0 103 0 0 0 0 0 102 102 103 103 109 145 0 0 0 0 159 133 133 0 141 140 142 0 0 0 0 0 149 147 0 0 0 0 0 0 103 97 98 100 102 115 0 0 0 0 199 199 199 199 199 199 199 199 199 199 0 0 200 0 0 0 200 0 201 201 202 0 0 202 0 0 204 0 0 0 0 0 0 152 127 113 107 104 0 0 101 0 0 100 99 0 99 0 97 96 0 95 95 0 95 94 93 0 94 94 0 0 93 93 0 0 0 90 90 90 89 90 90 90 89 88 0 90 92 105 0 0 0 0 142 143 144 145 0 151 155 0 0 160 0 0 158 158 171 0 185 191 0 0 0 199 199 201 205 209 0 0 0 193 191 0 0 0 180 173 169 166 0 0 0 151 146 144 142 140 0 139 138 138 0 0 0 138 137 136 135 134 133 132 133 132 131 0 130 0 0 0 128 0 0 0 127 0 0 130 131 0 0 0 141 0 0 141 140 141 0 0 0 142 143 0 0 144 144 145 146 148 0 150 0 0 0 0 131 128 128 127 0 127 0 126 126 126 127 0 0 0 0 0 0 0 0 152 142 136 131 129 130 134 139 150 169 0 0 0 203 205 0 0 0 207 207 207 0 0 0 0 150 139 140 146 149 144 139 135 131 128 127 126 126 0 122 122 121 120 120 120 121 0 0 0 121 0 122 0 0 121 0 0 121 0 121 121 0 0 121 119 118 116 120 0 0 123 120 122 0 0 126 0 0 119 121 0 0 123 126 0 0 0 0 139 137 138 141 0 0 0 0 0 153 151 151 0 0 148 145 144 142 0 0 125 0 0 125 122 0 111 104 106 108 111 115 0 121 123 126 128 0 132 0 134 133 0 134 134 134 0 0 0 140 0 142 143 0 0 146 146 147 148 0 149 0 150 0 0 0 149 149 0 151 151 151 154 0 0 0 0 0 155 153 0 152 152 0 0 0 153 0 153 154 154 155 0 153 154 0 153 0 153 152 0 152 150 147 143 140 137 136 0 0 0 0 0 130 129 0 124 122 122 123 125 0 0 0 143 139 139 0 142 144 146 147 149 0 0 0 0 148 0 148 147 0 146 0 145 144 143 142 142 141 140 140 139 139 0 140 143 0 0 0 145 0 0 144 0 140 140 141 0 143 144 145 0 146 146 146 148 167 0 0 148 144 153 0 0 199 197 0 196 0 196 0 0 197 0 0 197 198 0 199 0 200 201 202 203 204 0 0 
0 116 0 113 0 0 0 0 0 101 0 0 99 100 0 101 0 0 0 94 92 90 0 89 0 89 89 89 0 91 91 0 0 93 94 95 0 0 0 0 0 103 0 0 0 105 0 0 0 0 106 105 105 105 106 0 106 107 106 106 0 0 105 104 0 103 102 100 97 0 89 86 90 0 0 103 0 0 105 0 0 104 104 103 0 103 104 0 0 0 0 0 103 102 102 102 0 102 0 0 104 106 134 0 0 0 0 162 133 132 0 0 0 141 145 0 0 0 0 149 149 0 0 143 135 0 0 106 97 0 0 101 110 143 0 0 0 199 199 199 199 199 199 199 199 199 199 0 0 200 200 0 0 0 201 201 0 0 203 0 0 203 204 0 0 0 0 0 0 138 119 111 107 104 102 102 0 0 98 0 0 0 99 0 0 97 0 96 95 0 0 95 0 93 93 0 93 0 94 94 0 93 0 91 91 0 0 0 0 0 0 89 88 88 0 90 97 0 0 0 0 0 0 0 147 150 153 156 0 0 0 0 0 155 155 165 178 183 190 0 0 0 202 203 205 207 0 210 210 0 199 197 0 196 0 0 0 0 177 171 167 164 0 0 151 146 143 143 142 140 140 138 138 139 139 138 137 135 134 135 0 0 132 131 0 129 0 129 129 128 128 127 128 128 128 0 130 132 0 0 0 0 0 143 143 0 144 0 0 144 0 0 145 146 146 147 148 149 0 0 0 0 0 135 130 127 127 0 126 126 126 0 125 125 0 0 0 124 0 128 125 124 123 120 118 114 113 114 114 114 116 118 125 139 161 0 0 0 206 0 207 207 207 0 0 0 0 173 150 134 129 124 121 128 131 128 127 125 123 123 0 123 122 120 0 120 120 0 0 0 121 121 0 121 0 122 122 0 0 121 120 0 0 120 122 0 0 121 0 0 116 0 0 0 122 120 121 0 0 125 121 0 119 119 0 0 121 129 0 0 147 142 138 137 139 141 145 0 150 0 0 0 151 150 150 0 0 146 144 142 0 0 0 126 0 0 122 0 0 104 105 0 108 111 114 117 120 123 0 129 131 0 0 134 134 134 135 136 138 140 0 0 0 144 144 145 0 0 0 0 0 149 149 150 0 151 0 150 150 0 0 0 153 155 0 0 0 158 156 155 0 152 0 151 152 0 0 0 154 0 154 0 155 0 0 153 0 153 153 153 0 152 0 0 0 0 140 138 135 0 0 136 136 135 0 131 0 0 0 122 122 123 125 0 0 0 143 141 140 141 0 0 0 0 149 0 151 0 0 149 0 148 0 0 0 0 145 144 143 0 0 140 0 139 139 0 0 141 0 0 0 145 145 0 0 144 0 141 141 0 0 143 144 145 0 0 0 0 146 152 0 0 164 144 146 175 0 0 196 0 0 0 196 196 196 196 0 196 196 197 0 199 199 200 0 201 0 0 0 203 
0 115 0 0 0 107 105 103 0 100 100 100 0 0 0 0 0 0 96 0 91 89 0 89 0 0 0 90 0 91 92 0 93 93 93 94 96 0 99 0 101 102 103 0 104 104 104 105 106 106 105 105 104 105 0 0 0 0 0 0 106 105 105 104 104 102 0 0 0 0 0 87 87 94 0 0 0 0 0 0 0 105 0 104 103 0 0 104 104 104 103 103 103 0 0 0 103 0 0 103 104 105 124 0 0 0 0 166 135 131 0 139 140 140 143 0 0 0 0 149 0 0 0 142 134 0 0 109 97 98 0 102 105 130 0 0 0 199 199 0 0 199 199 199 199 199 0 199 199 0 0 200 201 201 0 0 202 202 203 204 204 204 0 0 0 0 0 148 126 112 107 107 0 0 101 0 99 99 98 99 0 0 99 0 97 96 0 0 0 95 95 0 0 94 0 0 94 0 94 0 0 92 91 91 0 91 0 90 90 0 0 89 89 89 0 89 92 105 0 0 0 0 0 0 0 0 0 0 0 0 163 162 160 154 154 169 0 187 188 191 0 0 0 0 0 0 0 0 0 0 205 199 0 0 199 194 194 0 0 0 0 172 166 163 0 0 151 147 145 144 143 141 141 141 0 140 139 137 137 0 0 0 132 131 0 130 0 129 0 0 0 128 0 0 128 0 131 134 139 0 143 144 144 145 145 0 0 0 0 146 147 147 147 147 149 150 0 0 0 0 0 137 129 127 126 125 125 125 125 0 0 0 0 0 0 119 117 115 114 113 112 111 110 109 109 109 109 111 0 0 115 118 123 131 147 177 0 0 0 207 207 207 207 0 0 0 170 150 137 126 124 121 114 118 122 122 122 121 121 0 0 119 0 0 0 120 0 120 121 121 121 121 0 0 0 0 121 0 121 0 120 120 120 120 0 0 0 121 0 117 116 0 0 122 121 120 123 0 0 124 122 0 118 119 0 0 123 135 0 0 145 140 0 137 139 142 0 0 151 0 0 0 151 149 150 0 0 147 144 143 0 0 0 127 126 0 124 0 0 104 104 105 107 109 112 115 118 122 0 0 131 0 0 0 135 135 0 0 140 141 143 144 0 146 0 0 0 149 149 149 149 0 0 150 0 0 151 150 150 0 153 154 157 0 0 0 158 156 0 153 152 0 0 150 151 0 153 0 154 0 154 155 0 0 154 0 0 153 0 152 152 0 0 0 0 0 139 136 135 0 0 0 0 135 0 0 130 0 0 122 121 121 125 0 0 0 143 0 0 142 143 0 147 148 0 0 0 0 0 0 0 148 148 0 147 0 0 0 0 0 141 0 138 138 0 139 0 140 143 0 145 144 145 0 0 144 142 140 0 0 143 0 0 144 0 146 0 146 146 147 173 0 0 146 143 159 0 0 196 194 195 195 0 0 0 195 0 196 196 0 0 0 199 0 0 0 202 203 203 202 
116 0 0 0 0 106 104 102 0 99 0 98 99 0 0 99 0 0 95 92 90 89 87 88 0 0 0 90 91 92 0 93 93 0 94 94 96 0 98 0 0 102 0 102 104 0 104 105 0 106 105 105 0 104 105 0 0 107 0 0 106 0 0 105 0 0 0 0 0 96 92 87 87 92 0 0 0 104 0 105 105 0 0 104 0 103 103 103 0 0 103 103 0 103 0 103 0 0 0 104 103 103 114 0 0 0 0 0 140 132 0 0 139 0 0 143 147 0 0 150 0 0 0 141 134 0 0 111 97 98 0 101 102 120 0 0 0 199 199 0 0 199 199 199 0 0 0 200 200 200 200 200 201 0 0 202 202 0 0 0 0 0 0 0 0 0 135 118 109 106 104 103 102 101 0 0 98 99 99 99 99 0 99 98 97 0 96 95 0 93 0 0 0 94 93 0 0 0 0 93 92 91 91 91 0 0 90 90 0 0 89 89 0 0 88 87 89 95 0 0 0 0 0 144 0 0 0 0 157 161 165 170 0 163 160 173 0 0 189 187 188 191 195 0 201 203 0 0 0 0 0 202 200 203 0 202 199 198 196 0 0 0 0 176 170 165 162 158 153 150 148 146 0 144 143 142 141 142 0 0 0 0 134 132 0 130 130 130 129 128 0 128 128 129 129 130 131 136 0 0 0 146 0 147 0 147 148 149 149 149 149 150 151 151 152 0 0 0 0 0 132 128 125 124 124 124 123 0 123 0 0 0 0 118 115 113 112 112 111 110 0 108 108 108 108 109 109 111 112 113 114 119 124 129 145 0 0 0 208 207 0 0 0 0 0 177 149 137 128 123 0 0 115 114 117 119 0 120 119 119 0 118 118 118 119 120 0 0 121 0 0 0 121 121 0 121 0 0 121 0 0 120 121 122 0 0 0 0 117 115 115 0 0 0 120 121 0 0 0 0 121 120 119 119 121 123 124 0 0 150 0 140 137 138 140 143 0 149 0 153 0 153 151 149 149 0 0 148 0 0 143 142 0 0 121 0 0 0 0 102 103 104 105 108 110 113 0 120 125 0 131 0 0 135 0 137 138 0 142 144 0 0 0 147 148 0 149 149 0 0 0 150 0 0 152 0 0 0 152 154 156 0 0 0 0 158 0 154 153 152 151 151 0 0 151 152 153 153 153 0 0 0 0 0 0 152 152 153 153 153 0 152 0 0 144 0 0 0 134 135 0 0 136 135 133 132 130 0 124 121 120 121 125 0 0 145 143 141 142 0 144 0 146 0 0 0 150 150 0 150 149 148 0 148 147 146 144 143 142 0 141 139 138 138 0 139 139 139 0 0 0 145 145 0 0 0 142 140 141 0 0 143 144 144 0 146 0 146 146 146 155 0 0 159 143 150 0 0 200 194 0 195 195 0 0 0 0 0 196 196 197 197 0 199 0 201 0 0 202 202 
0 0 111 109 106 0 103 0 100 99 0 98 98 99 98 97 96 0 0 91 90 0 87 88 89 89 89 91 0 0 0 0 0 94 0 95 0 0 98 0 100 101 0 0 0 0 104 105 0 0 106 0 105 0 105 106 106 105 105 105 105 0 0 105 0 0 0 103 0 0 0 88 86 89 0 0 0 104 104 0 0 104 104 104 103 103 103 0 0 0 0 103 102 0 103 103 0 104 104 0 103 102 108 145 0 0 0 0 145 133 0 0 139 137 138 140 146 0 150 150 0 0 0 138 134 0 131 116 101 99 101 0 102 111 0 0 0 0 199 199 199 0 199 199 0 0 200 0 0 199 200 0 201 201 202 202 202 202 204 0 0 0 0 0 148 126 113 107 105 104 103 101 100 0 100 98 0 0 0 0 0 0 99 98 96 0 96 95 0 94 94 94 93 0 0 0 0 93 93 0 92 91 0 0 0 91 90 0 89 89 0 89 89 89 0 88 88 91 102 0 0 0 0 0 146 0 0 0 152 161 0 0 0 0 172 178 0 0 0 189 189 189 189 190 191 192 197 0 0 0 0 0 0 0 0 0 0 0 0 198 193 194 0 0 0 179 174 169 164 161 156 153 151 148 146 145 143 147 0 146 146 0 0 135 133 132 132 130 0 129 129 129 129 130 130 131 132 139 0 0 0 147 0 149 149 149 150 0 152 152 0 154 0 0 0 0 0 0 133 128 126 125 124 123 0 0 0 0 120 119 0 116 114 113 112 0 110 110 109 109 108 0 107 106 108 109 0 0 113 114 117 0 124 128 150 0 0 0 0 0 206 205 0 0 0 163 138 129 124 122 122 0 117 113 115 117 118 119 0 0 118 0 117 117 0 0 120 0 0 121 0 121 0 0 0 121 121 0 121 121 121 121 0 0 124 0 0 0 0 113 114 0 0 0 120 0 0 0 126 123 122 0 119 118 0 123 129 0 0 149 143 139 137 138 0 144 0 150 0 0 0 0 0 150 149 0 0 0 0 145 144 143 0 0 123 122 0 0 0 101 102 0 0 108 109 111 115 120 0 0 130 132 134 135 136 0 140 0 0 0 0 0 0 0 148 0 0 0 150 150 150 150 150 152 153 153 152 152 153 157 0 0 0 0 158 156 154 153 0 151 0 150 150 150 0 152 0 0 153 153 153 154 0 154 153 152 152 152 0 0 0 0 0 0 0 138 135 133 134 134 0 0 0 135 0 132 130 127 124 0 120 120 125 0 0 0 0 142 142 0 0 146 0 0 150 150 150 0 0 149 0 149 0 0 0 146 145 0 143 142 0 139 0 0 138 0 0 0 0 0 0 0 145 0 0 0 0 141 140 141 141 0 0 0 145 0 146 0 146 145 149 180 0 0 146 145 170 0 0 194 194 0 0 0 195 195 195 195 195 0 0 197 0 199 0 0 0 0 0 0 
0 113 110 107 105 103 102 101 101 0 0 0 0 99 98 0 97 96 0 0 0 88 87 88 0 0 0 0 0 0 0 0 0 94 0 0 0 0 98 0 101 101 102 0 103 104 104 105 0 0 0 105 0 0 105 0 0 0 0 104 104 0 105 104 103 0 104 0 0 0 0 90 85 86 93 0 0 0 105 104 0 104 104 104 104 0 103 0 0 0 0 103 102 102 103 0 0 102 103 0 103 0 107 132 0 0 0 0 151 133 0 0 0 136 0 0 0 0 148 150 0 0 146 138 136 138 0 0 0 103 101 0 103 107 138 0 0 0 199 199 199 199 0 199 0 199 199 0 0 200 0 0 0 202 202 203 0 0 0 0 0 0 162 139 121 112 109 106 105 103 102 101 100 100 100 99 98 99 0 0 0 0 98 0 0 0 96 95 94 0 93 0 93 93 0 93 0 93 92 92 0 0 0 0 91 0 90 0 89 88 0 89 89 0 89 88 0 89 94 0 0 0 140 0 144 144 144 144 146 162 0 0 0 178 178 181 184 189 191 0 0 0 194 193 192 192 193 194 195 195 198 200 0 0 0 0 0 0 0 0 0 201 197 195 192 0 0 0 181 177 171 167 162 158 154 152 150 0 0 147 148 0 147 140 137 135 135 135 134 131 131 133 133 133 134 135 138 0 148 150 150 150 151 151 152 153 154 0 155 156 0 0 0 0 0 0 132 126 125 124 123 0 122 0 0 0 0 0 116 115 0 113 112 0 110 0 109 0 0 0 0 107 107 0 0 110 0 0 114 116 0 0 123 133 158 0 0 0 0 0 0 0 0 0 0 155 131 124 121 121 121 0 0 114 113 0 0 0 0 118 117 117 117 0 118 119 0 120 120 121 0 0 0 122 121 0 0 121 121 0 0 0 122 123 0 0 122 0 116 112 114 117 118 119 121 0 0 0 0 123 0 0 119 118 120 122 135 0 0 0 143 139 138 138 142 0 0 0 153 0 0 0 152 150 149 149 149 0 0 145 0 0 0 0 131 120 0 0 0 103 102 0 107 108 110 112 116 121 0 129 0 131 134 136 138 0 144 0 0 0 0 0 0 149 149 0 150 150 150 0 151 151 152 0 0 154 154 155 0 0 0 0 159 157 0 154 152 0 150 150 0 149 149 150 0 151 0 0 153 152 153 0 154 0 153 152 0 0 153 0 0 0 0 143 139 136 134 133 133 0 135 136 0 136 134 132 0 0 124 121 120 120 125 0 0 0 0 142 142 143 144 146 0 0 150 150 0 0 150 149 0 0 149 0 147 146 0 0 143 0 0 137 0 0 0 137 0 137 138 0 0 0 0 0 0 0 0 141 140 140 141 0 144 0 145 0 146 0 146 146 147 161 0 0 157 144 153 0 0 197 193 0 194 194 194 194 194 0 195 0 0 197 0 0 199 0 200 0 0 0 
0 0 0 0 105 0 102 0 101 0 0 100 0 0 98 98 0 0 0 91 89 88 88 0 89 89 90 91 92 92 92 93 0 94 94 95 0 0 0 100 0 0 0 103 103 104 0 0 106 106 0 105 104 104 0 106 0 105 103 104 103 0 105 0 105 0 104 103 101 0 0 91 87 85 88 95 0 0 0 0 0 0 0 0 0 0 103 103 103 103 103 103 0 103 103 103 102 102 0 0 102 102 104 123 0 0 0 0 158 135 135 0 0 132 132 0 0 141 144 0 0 0 144 139 138 140 0 0 0 110 100 0 102 104 127 0 0 0 199 199 199 199 199 199 0 199 0 200 200 0 201 201 202 0 203 0 0 0 0 0 0 150 132 121 115 111 109 0 0 103 102 100 0 0 0 0 0 99 0 0 98 0 0 0 0 96 0 95 94 0 93 0 0 0 0 0 0 93 0 92 91 0 91 91 91 90 89 0 0 89 89 89 0 0 89 0 0 88 90 100 0 0 0 142 144 144 144 145 149 163 0 0 180 175 183 0 190 187 189 193 0 0 0 0 199 200 0 199 195 193 193 194 195 198 202 0 0 0 0 0 0 0 0 199 198 198 0 0 0 0 0 0 179 173 169 164 162 164 162 157 155 0 0 149 145 144 144 144 143 142 142 0 144 0 0 0 0 0 153 0 153 153 0 155 156 157 158 0 0 0 0 0 0 0 132 127 124 123 0 0 0 0 0 0 0 0 114 112 111 111 112 0 0 0 109 108 108 0 0 106 106 107 107 108 109 0 112 113 115 118 0 122 124 142 0 0 0 0 205 0 0 0 0 0 0 143 129 122 120 0 120 0 0 0 113 115 0 0 117 117 0 0 0 0 118 0 0 0 0 0 0 121 0 0 121 121 0 121 120 121 121 122 0 0 0 0 0 0 115 112 114 0 0 120 122 0 125 125 124 122 121 0 0 118 119 123 0 0 151 146 142 0 138 139 142 0 0 0 153 155 0 0 152 0 150 0 149 0 146 144 0 143 142 0 0 122 0 0 0 104 104 106 108 109 112 114 118 0 127 0 132 133 136 139 142 0 147 0 0 0 150 150 150 150 0 150 150 150 0 0 0 152 153 154 156 155 158 0 0 0 0 158 0 156 0 153 151 0 0 149 149 0 0 149 150 0 0 153 153 152 153 0 0 154 153 153 0 0 0 0 0 0 0 140 137 133 133 0 132 133 0 135 0 0 0 133 0 128 124 121 118 118 124 0 0 0 0 142 142 143 145 147 0 0 150 150 150 150 0 149 148 0 0 148 147 146 0 143 142 0 0 136 135 0 134 135 136 137 135 135 137 138 139 140 142 0 0 140 140 0 0 143 0 0 0 0 0 0 0 146 146 150 186 0 183 148 147 173 0 203 192 193 0 0 0 194 194 0 194 195 0 196 196 197 0 198 199 0 199 0 
0 112 0 107 105 0 102 0 101 0 100 100 100 0 99 0 0 94 92 89 87 87 0 0 88 0 0 91 91 92 0 0 0 94 0 95 0 0 98 100 0 0 0 0 103 104 0 0 106 0 104 104 104 0 0 0 0 0 104 104 0 0 105 105 0 0 0 0 102 100 0 93 0 84 84 91 0 0 0 104 104 0 105 105 0 104 0 0 102 103 0 0 103 0 0 102 0 0 102 102 0 103 104 115 0 0 0 0 0 136 130 0 128 125 126 130 134 136 143 0 0 0 144 140 0 141 152 0 0 116 100 100 101 104 118 0 0 0 0 199 199 199 199 199 0 200 0 200 200 0 0 201 202 0 203 0 0 0 0 0 143 129 122 117 114 0 0 0 0 0 0 101 101 101 0 0 0 98 98 98 98 98 98 0 0 0 0 94 94 94 94 94 94 94 93 93 93 93 0 0 0 0 91 0 0 0 0 89 0 90 90 0 89 89 0 0 88 87 88 92 108 0 0 0 0 0 0 0 158 0 0 0 183 182 0 0 0 0 0 193 195 0 201 0 0 0 0 0 207 204 200 197 196 195 195 197 200 204 0 0 0 0 208 202 0 0 0 200 198 0 0 0 0 0 0 0 181 178 176 170 165 166 165 161 158 156 0 0 0 0 0 0 0 0 0 0 0 157 0 158 158 158 159 160 161 0 0 0 0 0 0 0 133 126 123 122 121 0 0 0 0 116 115 113 112 111 110 0 111 111 111 111 0 109 109 108 107 107 106 0 106 107 0 109 110 111 0 114 116 0 0 122 130 0 0 0 0 0 0 0 0 0 0 161 144 131 126 121 118 117 118 0 0 0 115 113 115 0 0 0 0 116 116 116 117 0 118 119 120 121 0 121 121 0 0 121 120 121 121 121 121 122 123 124 0 0 0 0 114 112 115 0 0 0 0 0 123 0 0 122 121 120 0 117 119 127 0 0 150 0 142 138 137 140 143 147 150 152 153 0 0 0 151 0 0 0 149 0 0 144 143 0 141 140 0 127 0 0 0 105 0 0 0 112 114 117 120 0 0 0 135 136 138 0 0 0 149 150 0 150 150 0 150 0 0 0 150 150 0 152 152 153 155 157 0 0 0 0 0 158 157 155 155 0 153 0 0 149 0 0 0 0 0 149 0 152 0 0 0 0 153 154 154 154 0 153 0 0 0 150 0 0 142 138 0 133 0 132 0 132 132 134 0 0 135 0 0 0 124 121 119 118 123 0 0 145 143 143 0 145 0 0 0 151 0 0 0 0 149 0 148 148 0 0 0 146 0 142 0 139 137 134 133 133 132 135 0 0 137 0 0 0 0 140 140 141 141 140 140 0 0 143 0 144 0 0 146 0 0 146 146 148 170 0 0 158 145 156 0 0 194 193 0 193 0 0 0 193 0 0 0 195 195 196 0 197 0 0 198 0 
0 0 0 0 0 103 0 0 101 100 100 0 0 0 99 98 0 94 91 89 87 0 87 87 88 89 0 0 0 92 93 0 93 93 94 0 0 97 98 100 101 102 102 102 0 103 104 0 0 0 105 104 103 105 106 106 106 0 0 104 104 0 0 105 0 105 104 0 0 0 0 94 0 86 84 88 0 0 0 103 104 0 105 105 0 104 103 102 102 103 0 0 104 0 102 101 102 102 102 102 0 0 103 109 145 0 0 0 0 138 125 127 126 125 126 129 132 136 0 0 0 0 143 142 0 143 150 0 0 120 100 101 102 104 111 147 0 0 0 199 199 0 199 0 0 200 0 200 0 201 201 202 202 203 0 0 0 0 161 139 127 123 120 0 0 110 108 106 104 104 103 102 0 101 100 100 0 98 97 0 0 0 97 96 96 0 96 95 94 0 94 94 0 0 0 93 92 0 92 0 0 0 90 90 90 0 89 89 0 0 0 0 90 89 88 88 88 88 88 89 95 0 0 0 0 0 0 0 163 0 0 0 0 188 191 0 0 0 0 194 193 0 0 0 206 205 0 0 0 0 0 0 0 201 198 196 197 197 199 204 0 0 0 203 0 204 0 0 0 0 201 202 201 201 0 0 0 0 0 0 0 181 180 177 174 170 167 165 163 163 163 162 162 163 164 163 163 164 165 165 167 167 171 0 0 0 0 0 138 132 128 124 122 120 0 0 0 0 115 113 112 111 110 111 111 111 111 111 0 0 111 110 0 0 0 108 107 0 106 0 107 108 0 0 0 0 113 115 117 0 0 124 0 0 0 144 150 0 0 0 0 159 150 141 130 122 121 0 118 117 0 0 0 0 0 113 114 0 116 116 0 0 116 116 116 0 118 0 120 120 121 121 120 121 0 0 121 0 0 122 0 0 123 0 0 0 120 0 112 112 115 0 0 0 0 122 0 0 0 121 0 0 0 115 117 133 0 0 149 145 140 139 139 0 0 0 0 0 0 0 0 152 0 0 150 0 149 0 0 144 142 0 140 142 0 131 121 0 115 106 107 110 0 0 118 0 122 126 132 0 138 140 143 0 0 0 0 151 0 150 150 150 150 0 151 151 151 0 0 153 154 155 0 0 0 0 0 158 157 155 0 0 153 0 151 149 149 148 147 147 148 0 149 149 0 0 0 154 153 0 155 0 0 0 153 152 0 150 149 147 0 0 140 137 135 133 0 132 0 132 131 133 135 135 135 134 0 0 123 120 119 119 125 0 0 0 142 142 144 146 0 0 0 151 0 0 149 149 149 0 148 148 0 0 146 0 0 142 139 138 136 135 134 0 134 0 0 0 137 136 138 0 0 0 0 0 141 140 138 139 0 0 0 142 144 0 146 0 147 146 145 146 155 0 0 181 146 148 0 0 197 191 191 0 0 0 0 0 0 193 193 194 0 0 0 196 0 0 0 0 
110 108 106 105 103 102 0 101 0 0 0 0 99 0 0 98 0 0 0 88 86 86 87 87 0 88 88 0 0 0 0 0 92 0 94 95 96 0 99 0 101 102 0 0 0 103 0 0 0 0 0 104 105 0 106 106 106 106 105 104 104 104 104 105 105 0 0 104 103 0 0 96 0 89 85 85 92 0 0 103 0 0 0 105 0 0 104 0 103 103 0 0 0 103 0 102 101 102 0 0 0 0 102 106 132 0 0 0 0 146 127 131 0 0 130 130 133 138 0 0 0 148 143 0 0 145 147 0 0 123 100 0 0 103 107 135 0 0 0 199 199 0 199 199 200 200 200 201 0 202 202 0 204 0 0 0 0 161 137 128 123 120 0 0 0 108 0 0 104 0 0 0 0 0 0 0 0 0 0 0 0 97 96 0 0 0 0 0 0 94 0 93 0 0 93 93 0 0 0 0 0 0 90 90 90 90 0 90 0 0 90 0 0 0 88 88 0 0 0 89 90 108 0 0 0 157 0 163 166 170 175 184 193 194 190 190 192 195 0 192 191 0 0 0 0 205 203 208 0 0 0 0 0 0 0 0 202 201 199 199 201 204 202 199 0 202 202 202 203 202 204 0 0 208 205 202 200 201 0 0 0 0 0 0 0 0 0 0 0 0 0 0 0 186 0 0 0 0 0 0 0 0 0 0 0 137 129 124 122 121 120 118 0 115 0 113 112 111 109 109 109 109 110 0 0 111 0 0 0 0 0 0 110 109 0 0 107 106 107 107 108 0 110 0 0 111 0 0 0 0 121 124 0 0 0 132 138 150 157 156 148 141 135 129 123 117 117 0 0 116 0 0 119 0 0 116 112 114 115 0 0 116 0 0 0 117 118 0 0 0 0 121 121 0 0 121 121 121 0 123 123 0 0 124 124 0 119 114 111 113 0 118 0 0 120 0 0 122 120 120 120 119 0 116 119 0 0 0 148 0 140 138 139 143 0 0 151 153 0 0 153 152 0 151 150 149 149 0 146 143 141 140 141 0 0 0 116 0 0 106 107 112 0 0 0 124 126 130 0 0 141 144 0 0 0 151 151 0 0 0 150 150 150 151 152 0 153 154 0 156 158 0 0 0 0 159 0 156 155 153 153 0 0 0 149 148 0 147 145 145 147 0 148 149 0 153 0 154 154 0 0 0 155 0 152 151 0 0 147 145 144 0 139 0 134 132 132 0 0 131 132 133 0 0 0 0 0 128 124 120 118 118 125 0 0 0 143 142 0 0 149 0 0 150 0 148 148 0 149 0 148 148 148 0 0 0 0 0 140 0 137 0 0 135 134 0 0 0 138 137 0 0 139 141 0 0 0 0 140 137 138 139 139 0 0 0 146 0 0 0 145 146 149 174 0 0 157 145 165 0 0 190 190 190 190 191 191 0 0 191 192 0 0 0 194 0 195 195 195 195 
0 0 105 104 0 0 101 100 0 99 98 98 98 97 98 0 0 0 90 87 0 86 0 88 0 0 0 0 90 0 0 92 0 0 94 95 96 97 0 0 0 102 0 0 0 0 104 105 106 106 106 0 0 0 0 0 106 0 0 105 0 0 0 0 0 0 105 0 0 0 0 0 0 0 87 85 88 95 0 0 103 104 0 0 0 104 0 0 103 102 103 103 103 103 0 0 0 102 102 103 0 102 101 102 121 0 0 0 0 159 135 0 0 0 131 130 133 136 145 0 0 146 144 0 0 145 144 0 0 126 100 99 0 101 104 124 0 0 0 199 0 0 200 200 200 0 201 201 202 203 204 205 0 0 0 0 161 140 129 124 120 0 114 0 0 0 0 0 0 0 102 101 100 0 99 98 98 0 97 97 0 0 96 95 95 95 0 0 0 93 93 93 93 93 93 0 0 92 0 92 91 90 91 0 0 0 0 90 90 0 0 0 89 89 89 0 0 89 89 89 90 100 0 0 0 159 0 165 169 171 180 195 0 0 199 194 193 193 192 189 187 191 0 201 0 0 0 204 207 0 210 209 0 0 0 208 0 0 0 203 202 202 199 196 198 0 0 0 0 205 205 0 0 0 211 0 0 0 0 161 157 0 0 0 0 0 0 0 0 0 0 0 0 0 0 0 0 0 0 0 0 0 0 135 124 120 118 116 115 114 113 111 109 108 110 108 0 109 109 0 109 109 110 0 0 111 0 111 0 0 111 110 0 0 107 107 107 107 0 0 0 110 0 0 0 112 113 0 117 0 119 120 125 0 130 0 0 130 130 132 134 129 125 122 0 116 115 115 114 114 114 116 118 0 0 0 113 112 0 0 0 115 116 116 0 117 117 118 118 119 0 0 0 121 120 120 0 122 123 0 123 123 0 0 0 0 0 114 112 113 0 117 0 120 119 121 0 121 120 0 0 0 118 117 126 0 0 152 147 144 141 139 141 0 146 149 151 154 0 0 152 0 151 0 150 149 0 0 146 0 141 140 144 0 0 0 113 0 0 107 110 0 119 0 0 0 129 133 0 0 0 0 0 0 0 0 151 0 151 150 150 0 151 152 0 154 155 156 158 160 0 0 0 158 157 156 0 0 0 152 151 151 0 149 148 147 0 146 0 146 147 147 148 149 0 0 0 154 0 0 0 0 0 0 151 149 0 0 0 144 0 140 0 0 133 132 132 0 0 0 131 0 134 0 0 0 0 128 0 0 116 116 125 0 0 0 144 145 0 0 149 0 150 0 0 0 0 149 149 0 147 0 0 0 0 141 141 142 0 0 137 137 136 0 136 136 138 138 0 0 136 137 138 140 142 0 144 0 0 140 0 136 135 0 0 0 0 146 0 0 0 145 147 161 0 0 179 146 153 0 0 191 189 0 189 189 0 190 0 0 190 191 191 191 192 0 0 0 0 0 
0 0 105 0 0 101 99 0 99 97 97 97 0 97 0 0 0 92 88 85 84 85 87 88 0 0 0 89 89 0 0 0 91 0 0 0 0 97 0 0 0 0 0 0 0 0 105 0 0 0 0 0 0 0 104 105 105 0 0 0 0 0 104 0 0 105 105 0 0 0 0 98 0 0 88 84 86 0 0 0 103 104 0 104 104 0 0 104 103 0 102 0 103 103 103 103 102 0 103 103 103 102 100 101 114 0 0 0 0 0 138 132 0 133 131 130 132 0 142 0 0 145 146 0 0 146 142 0 0 0 100 97 99 101 102 115 0 0 0 0 0 200 0 0 200 201 202 203 203 204 206 207 0 0 0 163 142 132 126 121 117 113 110 109 107 107 0 0 0 0 0 99 0 0 97 97 97 0 96 96 96 96 0 95 0 94 95 0 0 0 0 0 93 92 0 0 92 91 0 0 90 91 0 0 0 90 90 90 90 90 90 90 89 0 90 90 90 0 0 89 89 93 119 0 0 160 0 165 171 181 0 0 0 0 0 0 199 196 194 190 185 186 0 0 199 198 201 0 0 0 207 207 0 0 0 210 209 0 0 0 0 0 0 199 194 199 0 0 0 0 207 211 0 0 215 213 0 0 0 128 113 116 121 128 135 138 140 141 145 149 154 156 158 159 157 153 149 144 139 132 127 122 117 114 111 111 111 110 108 108 109 109 108 108 0 108 108 0 109 0 0 110 110 110 0 111 111 0 0 0 0 109 0 107 106 106 107 108 0 109 110 110 111 0 111 111 113 0 0 0 118 116 118 0 0 115 114 118 123 0 123 121 120 119 0 115 114 113 112 112 112 114 0 0 0 0 116 111 112 0 0 115 0 116 116 116 0 0 118 118 119 120 121 121 121 0 122 0 0 0 123 123 123 0 0 0 0 114 111 114 0 117 0 0 119 0 0 121 120 0 119 119 118 122 141 0 0 150 147 143 141 139 141 0 0 150 0 0 0 153 152 0 151 150 150 0 150 0 146 144 0 142 0 0 0 0 111 112 0 109 113 0 0 0 0 130 133 0 0 0 147 0 151 0 0 0 153 0 152 151 151 152 153 155 156 157 0 0 0 0 0 159 157 155 153 153 153 152 0 150 0 150 0 0 0 147 0 145 0 0 0 148 148 149 0 0 153 153 0 0 154 153 0 0 149 148 147 146 0 143 140 138 0 134 133 0 132 132 131 131 131 0 133 0 0 134 0 0 125 120 116 115 125 0 0 145 0 0 0 0 149 0 0 148 148 148 149 0 0 0 0 0 145 143 141 140 142 0 0 0 139 137 0 0 136 0 0 0 0 137 135 135 136 0 0 0 0 0 0 140 0 136 134 134 137 0 0 0 0 0 145 145 146 155 179 0 0 152 147 181 0 196 187 187 0 0 0 188 0 189 189 0 0 189 190 190 0 0 192 192 
0 105 104 103 101 100 100 0 0 98 0 0 0 97 0 96 0 0 88 85 0 0 0 0 88 88 0 88 0 0 90 0 0 92 92 94 95 96 98 99 100 100 101 0 103 104 0 0 0 105 104 103 103 103 104 0 0 0 105 105 105 0 104 105 105 0 105 104 104 0 102 0 98 0 0 85 83 89 0 0 0 0 104 103 104 0 0 0 103 103 102 0 0 0 103 0 103 103 0 0 0 0 0 102 109 145 0 0 0 0 139 125 130 0 0 0 0 0 0 0 0 0 0 0 0 0 144 0 0 0 102 97 99 0 103 108 142 0 0 0 200 200 200 0 201 202 203 205 0 207 0 0 0 0 166 146 137 130 0 119 0 110 108 106 105 104 0 101 100 99 0 97 97 97 96 0 0 96 95 95 95 0 95 95 0 0 0 94 93 0 0 0 93 93 0 92 92 92 0 91 91 0 0 0 91 90 89 0 0 0 0 90 0 0 0 90 0 90 90 89 90 91 109 0 0 161 164 172 185 0 0 0 0 0 0 0 0 0 0 0 187 184 187 0 0 199 199 0 0 0 206 206 208 0 0 208 208 0 0 212 216 0 0 0 196 195 203 207 207 0 205 209 0 0 0 0 0 0 151 114 106 105 107 108 108 108 108 108 109 110 110 111 111 112 111 110 110 110 109 107 108 108 107 107 107 107 106 107 107 108 0 109 0 109 0 109 0 0 110 110 110 0 0 110 0 111 0 111 111 0 0 108 107 106 106 107 107 0 0 0 0 0 0 0 110 111 0 115 0 0 0 115 115 0 109 104 108 0 0 118 118 118 117 117 0 0 114 112 110 111 111 112 0 0 0 0 0 113 111 112 0 114 115 0 0 0 116 0 0 0 0 120 121 0 0 0 123 0 124 0 124 123 123 0 0 119 0 112 112 0 0 117 118 119 120 121 121 121 0 0 119 119 121 136 0 0 154 150 0 144 141 141 143 0 0 0 153 0 0 153 0 0 151 150 0 0 0 0 146 144 143 145 0 151 0 0 109 103 0 113 116 0 124 0 0 132 0 140 144 0 150 0 152 152 153 154 0 0 153 153 154 155 156 158 0 0 0 0 0 0 0 156 154 153 152 0 0 150 149 149 0 149 148 147 0 146 0 144 145 146 0 0 149 0 0 153 153 154 0 0 153 0 152 150 148 147 0 144 0 0 139 0 0 134 133 132 0 0 0 0 130 0 133 0 0 134 132 0 0 121 0 115 127 0 145 145 146 147 148 0 148 0 0 148 148 148 149 0 0 0 0 145 142 142 0 0 142 0 0 0 140 138 137 136 135 0 138 0 0 0 136 135 135 137 139 141 0 0 0 141 139 137 0 136 135 138 141 142 0 0 145 0 146 152 167 0 0 170 145 163 0 0 186 185 0 186 185 186 0 0 187 0 188 0 187 189 0 190 0 0 
0 104 0 102 101 0 0 100 0 0 0 98 0 97 96 0 0 91 88 85 0 86 86 87 87 88 87 0 87 0 0 0 90 0 92 0 94 95 97 98 98 0 101 102 102 0 104 0 0 0 0 103 103 103 0 105 105 105 0 105 105 105 105 105 0 0 105 104 104 0 0 0 0 0 0 87 83 86 93 0 0 0 104 0 0 104 103 103 0 0 103 102 102 0 103 0 0 103 0 0 0 0 102 101 105 132 0 0 0 0 148 127 0 0 0 124 121 120 124 127 127 129 0 0 0 0 144 0 0 0 102 97 0 0 0 104 129 0 0 0 0 201 202 0 204 205 207 209 0 0 0 0 0 170 148 142 137 0 123 117 0 108 0 103 0 101 0 98 0 97 96 96 0 95 96 96 0 95 0 0 95 0 94 0 0 0 0 93 92 93 0 93 93 0 0 91 0 0 0 91 0 91 91 91 91 0 0 90 90 90 90 0 89 89 90 90 0 90 0 0 90 90 103 132 153 163 177 194 0 0 0 0 0 0 210 206 0 0 0 0 0 187 183 189 0 0 199 199 202 0 204 205 205 205 204 204 0 0 212 212 215 0 0 0 202 197 204 0 208 205 202 207 215 0 0 216 0 0 131 109 106 106 0 0 106 106 106 105 106 106 106 106 105 105 106 106 105 105 106 107 107 0 106 0 0 105 105 106 0 0 109 0 109 109 0 110 0 0 111 0 110 0 0 110 111 111 0 111 111 0 110 108 107 106 0 0 0 109 110 111 112 0 112 0 110 111 0 0 0 0 0 113 0 0 100 100 0 0 0 115 115 116 116 116 0 0 114 0 111 110 0 110 0 115 118 0 0 0 111 110 0 0 114 0 115 115 115 116 116 117 0 0 121 122 123 0 124 0 124 124 0 0 0 122 0 0 114 111 113 0 0 117 117 119 0 0 121 0 0 118 119 120 133 0 0 0 152 149 0 144 142 142 144 0 149 151 154 0 155 0 0 152 150 150 151 0 0 0 145 143 144 148 0 153 0 0 108 102 0 115 0 0 0 0 131 134 138 143 0 0 0 0 0 154 154 0 0 156 155 156 157 158 0 0 0 0 0 0 0 157 156 154 152 0 0 0 149 148 0 0 148 148 0 146 145 145 145 145 145 0 0 0 150 0 153 153 0 0 0 0 0 0 0 149 0 0 0 143 142 140 0 137 135 0 0 0 132 132 0 130 129 0 0 134 0 0 0 130 0 122 117 114 128 0 0 146 0 0 0 0 0 148 148 0 0 0 0 0 0 146 144 144 0 0 0 0 142 0 0 0 0 0 0 136 135 136 0 0 0 138 0 136 135 135 136 0 0 142 0 0 0 138 137 0 137 0 0 141 143 143 0 0 146 150 161 188 0 0 148 152 0 0 187 184 0 184 184 0 185 185 185 185 186 0 0 0 188 188 189 0 
0 103 0 0 100 100 0 0 99 0 98 0 0 97 96 0 0 0 87 85 0 86 0 0 0 0 0 87 87 0 88 88 89 90 91 92 93 95 0 0 98 99 101 0 103 0 103 103 103 103 0 0 0 0 0 0 0 0 105 105 105 0 0 0 106 106 0 0 0 104 103 0 100 0 0 89 85 83 90 0 0 103 0 0 0 0 0 101 0 0 102 0 0 0 102 0 103 0 102 102 103 102 0 0 104 124 0 0 0 0 156 129 129 0 122 117 115 113 112 114 113 112 116 121 125 0 0 0 0 0 101 96 0 100 101 103 119 0 0 0 204 204 205 207 208 209 0 0 0 0 0 0 170 149 146 0 0 130 122 0 110 106 0 100 0 98 97 96 96 0 0 96 0 96 0 0 0 96 0 0 95 0 0 0 94 94 0 93 0 0 0 0 92 92 91 92 92 0 92 91 0 92 92 0 91 91 90 90 90 90 0 90 0 89 0 90 0 91 91 91 91 91 101 134 167 0 0 0 0 0 223 223 0 0 209 204 202 200 199 0 0 0 187 187 194 0 0 0 199 200 0 0 0 201 199 199 205 0 212 0 213 0 0 0 207 200 0 0 0 211 206 207 215 0 0 0 0 0 120 107 106 106 106 106 106 0 105 105 105 0 0 105 105 105 0 105 104 105 0 0 106 106 0 0 0 104 105 0 0 0 0 0 0 110 0 0 0 111 0 111 111 0 111 111 0 0 0 111 0 0 0 108 107 107 107 108 109 110 0 0 0 0 0 0 110 111 113 0 0 0 114 112 0 103 95 102 0 0 113 113 113 0 0 115 0 0 115 114 0 110 108 107 110 113 0 0 0 0 114 109 111 0 0 114 0 115 115 0 0 116 118 119 0 0 0 0 123 0 124 0 0 124 0 121 0 0 113 112 113 0 116 117 0 0 0 121 0 0 119 118 119 130 0 0 0 155 151 0 146 143 0 143 0 0 150 0 0 155 154 0 152 150 0 150 151 0 0 148 144 144 148 0 153 0 0 0 106 105 0 114 118 123 127 131 133 138 143 147 0 153 154 0 0 156 156 0 158 158 0 0 0 0 0 0 159 158 0 156 155 0 0 152 151 0 149 148 147 147 0 147 147 0 0 145 145 145 0 0 145 0 147 148 150 0 0 154 154 0 154 0 153 0 150 148 0 145 144 0 141 139 137 0 135 133 132 132 132 0 130 129 129 129 0 133 0 0 133 0 0 0 116 114 129 0 0 146 0 0 0 147 147 147 0 149 0 148 0 0 145 145 0 0 0 144 143 143 142 143 0 0 139 139 0 137 136 136 0 0 139 0 0 136 0 0 135 0 140 0 0 0 0 0 138 0 137 0 0 0 0 143 144 144 144 148 154 172 0 0 158 146 179 0 193 182 0 183 183 0 182 0 184 184 185 0 0 186 0 187 187 0 
0 0 101 100 99 99 0 99 98 0 0 98 0 0 96 95 0 90 86 84 85 86 86 86 87 87 0 86 0 0 87 86 0 89 90 90 93 95 0 97 0 0 0 0 0 103 103 103 0 0 103 0 0 0 104 105 104 104 105 105 105 105 104 0 0 0 0 104 104 104 103 0 100 97 94 90 86 83 88 0 0 0 0 103 102 101 102 102 103 103 0 0 103 103 103 102 102 0 0 0 0 102 0 102 103 116 0 0 0 0 162 132 126 0 121 117 114 113 112 113 112 111 111 110 111 112 115 0 0 0 99 94 0 0 0 101 111 0 0 0 0 0 0 0 0 0 0 0 0 0 0 161 144 142 0 0 0 129 121 114 107 104 100 98 98 97 95 95 94 95 95 0 0 0 95 95 0 0 0 95 95 95 0 0 94 0 93 93 93 92 92 0 91 91 91 0 0 0 0 92 0 0 0 0 92 0 90 0 0 0 89 90 0 90 90 0 91 0 0 0 0 93 105 0 0 0 0 0 0 0 0 0 0 217 208 202 199 0 0 0 0 0 0 190 193 0 0 0 197 197 198 199 0 0 0 196 200 0 212 0 214 217 0 0 209 199 208 0 0 0 0 215 215 0 0 0 0 150 113 107 105 0 106 106 0 105 0 0 0 0 105 104 0 105 105 105 105 105 106 0 106 106 0 105 105 104 0 106 0 0 0 110 110 110 0 0 110 110 0 0 0 0 0 0 111 0 0 111 111 0 109 107 107 0 0 108 109 111 0 112 112 112 0 111 110 0 0 115 116 0 114 0 0 98 97 0 0 0 0 0 112 113 114 115 0 116 0 0 0 111 108 107 109 111 114 118 0 0 0 111 109 111 0 0 0 0 115 115 115 116 0 118 118 120 122 0 124 0 125 0 0 0 121 119 0 0 112 0 113 115 0 117 117 0 0 121 0 120 118 119 127 0 0 0 0 153 150 0 145 143 142 143 145 148 151 0 0 155 0 0 152 151 0 150 0 0 150 0 145 147 0 0 0 0 0 0 106 108 0 113 119 125 130 134 138 143 0 0 0 0 156 156 157 158 159 0 160 0 0 0 0 159 158 157 156 0 0 153 153 152 151 150 149 0 0 0 0 146 146 0 147 0 146 0 0 0 146 0 145 0 148 0 0 0 0 154 0 154 0 153 152 0 149 0 145 0 143 0 0 137 0 0 0 133 132 132 0 0 0 0 129 129 0 0 0 0 0 131 0 122 116 114 129 0 0 0 146 0 0 146 146 148 0 0 0 148 0 146 145 0 148 0 146 144 0 0 143 143 0 141 140 0 138 0 137 0 0 139 139 0 0 136 136 0 134 0 139 141 142 0 0 0 139 138 137 0 142 0 0 145 0 0 143 145 152 162 0 0 178 146 163 0 0 181 182 182 182 0 182 183 0 184 0 185 0 185 185 186 0 186 
0 102 101 0 0 0 0 97 98 98 98 0 97 0 96 0 0 89 84 0 85 86 0 0 0 0 86 85 85 0 0 86 0 0 0 0 0 0 0 96 97 98 100 0 102 102 0 0 0 0 102 0 104 0 105 0 0 0 0 0 0 0 103 104 106 106 0 104 104 0 0 0 100 0 0 0 0 84 84 91 0 0 0 102 102 0 0 0 0 103 102 0 103 0 0 103 103 0 0 102 0 0 102 0 102 109 0 0 0 0 0 137 126 0 0 118 115 0 113 114 0 112 110 110 110 109 109 118 0 0 98 94 97 0 0 100 106 143 0 0 0 0 0 0 0 0 0 0 0 161 146 134 135 140 0 0 0 127 119 112 105 102 100 0 97 96 95 0 94 94 0 0 94 95 0 0 95 95 0 95 94 94 0 94 93 93 93 0 0 0 91 0 91 92 0 0 93 0 0 0 91 0 0 0 0 0 0 91 91 91 91 0 91 0 91 91 91 91 0 0 91 93 102 0 0 0 0 0 0 0 0 0 0 0 0 201 198 197 197 197 0 0 0 191 0 0 195 195 195 195 195 195 196 195 192 193 200 0 213 215 0 215 0 0 212 199 208 0 0 222 0 0 217 218 0 0 0 134 109 106 106 106 106 0 0 105 0 106 105 0 0 105 105 105 105 0 0 105 0 106 106 0 106 105 0 104 104 105 0 107 0 0 0 0 0 0 0 0 109 0 0 109 0 0 109 0 0 111 0 0 0 0 107 0 108 109 0 0 0 112 112 111 111 0 110 0 113 0 116 0 114 0 106 98 99 0 0 0 110 111 112 113 114 115 0 116 0 0 113 0 0 0 108 109 0 0 0 0 0 115 109 109 0 0 114 0 0 114 115 115 115 0 118 0 0 0 0 0 0 0 0 0 120 0 117 0 112 111 113 0 0 116 116 119 120 0 0 120 119 123 0 0 154 0 0 152 150 0 145 142 142 144 0 0 152 0 0 155 0 153 152 151 149 151 0 0 150 148 146 149 0 0 0 0 0 0 104 0 0 114 123 128 135 141 0 0 0 0 156 157 158 159 0 0 0 0 0 0 0 158 0 0 0 154 154 0 152 152 151 150 149 0 147 0 146 144 0 145 145 145 0 0 145 145 145 0 146 145 145 0 149 150 151 152 153 154 0 0 154 153 151 150 148 146 0 0 142 141 139 138 0 0 135 0 0 0 0 131 130 130 0 128 128 131 0 0 0 0 0 0 116 114 0 0 0 146 0 0 145 144 146 0 149 149 0 0 146 146 0 0 0 0 146 0 144 0 143 143 0 142 141 0 138 137 137 138 139 0 139 0 0 136 0 0 134 135 138 0 142 0 0 0 0 138 137 139 0 144 0 145 0 0 0 143 149 161 181 0 0 150 153 0 0 186 181 0 182 181 182 183 0 0 0 184 184 184 184 0 0 185 
0 0 100 99 99 98 98 0 0 0 97 97 96 96 96 0 0 88 83 84 0 0 0 86 85 86 86 0 0 85 86 0 0 88 0 90 91 0 0 0 97 98 100 101 102 0 0 104 103 102 103 0 104 0 0 105 105 104 104 103 103 0 0 0 0 0 0 104 0 103 0 102 101 99 0 0 89 85 83 86 0 0 102 102 102 0 103 0 103 0 103 0 103 0 104 104 103 102 102 102 102 0 101 102 103 107 138 0 0 0 0 142 126 0 0 118 114 113 113 0 0 0 111 0 0 110 111 116 0 109 96 94 0 0 0 101 105 130 0 0 0 0 0 160 147 138 133 127 123 122 123 129 0 0 0 0 0 126 117 0 0 101 0 97 0 0 95 0 94 94 93 94 94 95 0 0 95 94 95 95 94 94 0 0 0 0 0 92 92 92 91 0 0 0 92 0 0 92 92 0 91 92 93 93 0 91 0 92 0 0 0 0 91 0 0 92 91 91 0 92 90 92 97 131 0 0 0 0 0 0 0 0 0 0 0 0 198 196 0 0 0 192 0 0 190 192 0 194 192 194 0 195 193 193 192 192 0 0 0 216 0 216 222 0 0 199 210 0 0 220 223 0 221 218 0 0 0 124 108 106 106 0 106 0 105 0 106 106 106 0 106 0 105 0 0 0 105 0 105 105 0 0 106 105 105 105 0 0 106 106 0 0 108 0 0 108 0 107 107 106 107 107 108 108 109 110 0 0 0 108 0 108 107 0 109 110 0 112 0 0 112 0 0 0 110 111 113 0 0 0 114 0 106 100 103 106 0 0 109 109 0 0 0 0 0 115 0 115 114 0 111 109 108 108 111 0 0 0 0 0 112 108 110 112 113 114 0 0 0 114 114 115 117 119 0 122 0 0 0 0 122 120 119 0 0 113 112 112 113 114 0 116 117 0 0 0 0 120 122 0 0 0 154 0 155 152 149 148 146 144 144 146 0 151 0 0 0 155 154 153 0 150 150 151 0 0 150 148 150 0 0 152 0 0 0 116 104 0 111 118 129 0 0 0 0 0 155 156 157 159 0 0 0 0 0 0 0 159 157 157 0 155 153 152 152 0 0 150 0 149 148 0 0 145 144 144 144 144 145 145 0 0 144 144 0 0 146 146 146 0 149 150 152 0 0 154 0 0 154 0 0 0 147 144 143 0 0 0 0 138 0 136 134 133 133 132 0 130 130 0 129 0 128 130 0 0 0 132 128 0 118 115 0 0 0 146 146 0 145 0 147 0 0 148 147 146 146 0 0 0 0 148 145 145 144 143 142 0 0 0 0 140 0 137 136 0 0 0 139 0 137 0 0 0 135 135 137 0 141 0 0 141 139 138 137 138 0 0 144 144 0 146 0 0 146 154 176 0 0 162 148 0 0 197 181 0 0 0 0 0 183 183 0 0 183 183 183 183 0 0 
0 0 99 99 0 98 97 97 97 0 97 97 96 97 0 0 0 85 83 83 84 85 85 0 86 0 86 86 85 85 85 86 0 86 87 88 91 93 0 0 97 0 0 101 102 0 0 104 103 103 0 104 103 103 104 105 0 105 0 0 103 104 0 105 105 105 104 104 103 103 0 103 0 100 97 0 0 86 83 85 0 0 0 102 102 0 102 102 103 103 0 102 102 103 0 0 0 0 0 103 0 102 101 102 103 106 129 0 0 0 0 149 126 124 0 117 114 113 113 0 0 0 112 0 110 111 0 0 0 105 94 94 96 0 0 0 101 113 0 0 0 146 132 120 112 107 106 106 110 116 122 0 133 138 0 0 0 125 0 107 101 0 97 96 0 95 94 94 94 0 94 94 0 95 95 95 0 0 0 0 0 0 93 93 0 0 92 92 92 0 93 0 0 93 92 92 0 92 92 0 0 0 0 0 0 91 0 92 0 92 91 0 91 92 0 0 0 92 0 0 92 93 95 117 0 0 0 0 0 0 0 0 0 0 0 0 199 194 0 0 0 187 186 186 187 189 0 0 193 192 0 0 195 192 192 192 0 0 0 0 0 218 220 0 0 199 209 0 0 220 220 0 0 0 0 0 160 117 109 0 0 0 106 105 105 105 0 106 106 106 106 0 0 0 106 0 0 105 0 0 106 106 106 0 105 0 0 0 105 105 104 104 105 106 0 106 105 105 104 106 106 107 107 0 109 0 0 0 0 109 0 107 108 0 0 110 111 111 112 112 112 0 0 110 110 0 0 0 0 0 0 0 108 104 105 106 0 0 110 0 0 113 114 0 115 114 115 115 0 0 0 111 109 108 109 112 115 0 0 0 0 110 109 0 0 0 0 0 115 114 0 0 0 117 0 120 0 0 0 0 120 0 0 0 0 112 112 112 0 114 0 115 0 119 0 0 119 121 134 0 0 151 0 0 0 152 0 0 0 145 146 0 0 151 0 0 0 0 153 0 151 149 0 152 0 152 149 149 0 0 152 153 0 0 0 106 0 0 113 128 0 0 0 0 0 155 157 0 0 0 0 0 0 0 0 0 157 157 0 155 154 0 150 151 0 151 0 149 149 0 147 0 145 144 144 144 144 144 145 0 146 0 144 144 145 0 147 0 0 149 150 0 153 0 154 0 155 0 154 0 0 148 0 0 0 0 140 138 138 137 0 135 0 133 0 0 131 130 130 130 0 128 128 129 131 0 0 0 129 0 119 115 0 0 0 146 146 145 145 0 148 0 0 146 146 147 0 0 0 151 0 148 146 0 0 0 142 143 0 143 0 140 0 137 137 0 0 139 0 0 138 0 0 136 135 135 136 139 0 142 0 0 140 138 138 139 0 0 0 144 145 0 146 0 0 145 167 0 0 182 147 167 0 0 182 181 0 0 182 0 0 182 182 181 182 0 0 182 183 0 
0 100 99 98 0 0 96 96 0 0 0 0 97 0 0 0 0 85 83 83 84 0 85 0 86 86 0 0 85 0 0 86 0 87 87 89 0 0 93 95 0 98 100 0 103 0 0 0 104 0 104 0 0 0 0 0 0 0 104 0 103 0 0 105 0 0 104 0 0 104 0 103 0 0 99 0 0 88 84 83 88 95 0 0 103 0 0 102 0 103 0 101 102 102 103 0 104 0 0 0 103 0 0 0 103 104 119 0 0 0 0 152 127 124 0 118 115 0 114 112 112 111 111 0 110 111 0 0 0 105 94 94 95 0 0 100 100 105 120 133 132 123 117 110 103 101 102 106 0 0 0 0 130 0 0 0 0 0 110 100 96 96 0 95 94 94 0 93 0 0 94 0 0 95 95 94 95 0 0 94 0 93 0 0 92 92 91 92 0 0 0 0 94 0 0 93 93 93 92 93 93 94 0 94 0 0 91 91 0 0 0 0 0 92 0 93 0 0 92 0 93 0 95 107 0 0 0 0 0 0 0 218 0 212 0 0 0 189 186 185 185 184 182 184 186 188 191 0 0 193 195 0 0 196 193 193 197 0 0 212 0 0 219 0 0 201 206 0 0 224 220 220 0 0 0 0 155 114 107 106 106 0 0 0 105 105 105 0 0 0 0 0 0 105 105 0 0 105 106 0 0 0 106 0 104 105 105 104 0 0 104 104 104 104 104 104 104 105 104 0 107 107 107 0 0 0 111 111 110 108 0 0 108 0 109 110 111 0 0 111 112 0 0 109 109 110 112 0 0 0 114 0 0 108 107 107 0 109 110 0 0 0 113 0 114 0 0 0 0 113 0 0 0 109 108 109 0 116 0 0 0 0 109 111 0 112 114 0 115 0 114 114 113 114 0 118 0 0 121 120 119 0 0 115 113 0 111 0 112 114 0 115 117 0 0 120 119 128 0 0 152 155 0 0 154 0 0 149 0 145 0 0 150 0 0 154 154 0 0 0 149 149 0 0 0 150 149 149 0 152 151 0 0 0 123 104 0 110 124 0 0 0 0 156 157 158 0 159 0 0 0 0 161 0 0 157 155 155 154 153 152 151 150 150 0 150 149 149 0 148 147 145 144 0 144 145 0 0 0 0 146 0 145 144 145 147 0 148 0 0 151 0 0 0 155 155 155 0 0 151 149 147 145 143 141 0 0 138 137 0 136 135 0 133 133 0 0 0 0 130 0 0 127 128 130 132 0 0 0 0 119 114 0 0 0 0 0 145 0 0 0 0 0 145 0 0 0 0 0 151 0 147 146 0 0 0 143 0 0 143 142 0 139 138 137 137 138 139 139 139 138 137 0 136 135 135 135 138 0 142 0 0 0 0 0 138 139 142 0 144 0 145 145 0 0 143 148 0 0 0 152 156 0 0 185 181 181 0 182 0 0 181 181 0 181 182 0 182 0 0 
0 0 98 98 98 0 96 96 95 95 0 0 97 97 0 0 90 86 83 82 0 85 85 86 86 85 85 0 85 85 0 85 86 87 0 0 91 92 0 94 96 0 0 0 102 0 0 0 104 0 0 0 104 0 105 105 0 105 104 104 103 104 104 0 0 104 104 103 0 0 0 103 0 0 0 0 93 89 86 83 85 0 0 0 103 0 103 102 102 0 103 0 102 101 102 103 0 103 102 103 103 103 103 102 102 102 111 0 0 0 0 157 129 124 0 119 117 117 115 112 111 111 0 111 109 111 0 0 0 104 95 94 95 0 0 100 101 103 111 0 0 116 111 0 102 99 102 108 0 0 0 125 128 0 0 0 0 115 100 95 94 94 94 0 0 0 0 93 0 94 94 94 0 95 0 0 0 94 94 93 93 93 92 92 92 92 93 93 0 0 93 0 0 0 0 0 93 0 0 0 93 94 0 94 0 93 92 0 91 91 0 92 0 0 93 93 93 0 92 92 92 0 94 102 145 0 0 216 216 216 214 212 212 0 208 0 0 185 182 182 182 182 183 184 187 0 0 0 0 194 195 0 0 0 0 197 196 199 202 206 212 0 219 0 0 201 202 0 0 0 220 220 222 0 0 0 159 116 106 105 0 0 0 105 105 0 104 105 0 0 105 105 105 104 0 105 105 105 106 0 106 106 0 0 105 0 0 0 0 104 0 104 105 105 105 104 105 106 0 0 108 0 109 108 110 111 0 0 0 109 0 0 108 108 109 110 0 0 0 0 0 111 110 109 108 109 110 112 115 0 0 113 112 0 109 109 109 0 109 109 111 0 114 0 114 114 0 0 114 113 0 0 111 0 107 107 110 0 0 0 0 0 113 110 111 112 113 0 0 0 114 0 113 111 114 116 0 0 119 0 118 0 0 114 112 0 110 111 0 0 0 0 116 0 0 118 123 0 0 0 155 0 0 155 153 0 0 150 0 147 146 148 150 0 152 0 153 153 0 150 148 0 151 0 0 149 148 149 0 151 151 154 0 0 111 109 112 117 0 0 0 156 156 158 0 0 0 160 0 0 0 160 159 0 0 155 154 0 0 0 0 150 149 150 0 149 149 0 148 0 147 146 145 0 146 146 146 146 0 0 146 0 145 146 0 0 0 148 149 150 0 153 154 0 0 155 0 0 0 0 148 146 144 142 0 140 139 137 137 0 135 0 0 133 0 0 132 131 0 130 129 0 0 128 0 132 0 0 0 125 120 116 0 0 146 0 146 145 146 147 0 146 145 0 0 149 149 0 151 0 0 146 145 145 0 143 143 143 0 143 0 141 0 138 137 137 0 139 0 0 138 137 136 136 0 0 135 137 0 141 0 0 142 140 139 139 139 0 143 144 0 145 145 0 0 143 142 162 0 0 161 150 0 0 192 181 181 181 181 181 181 181 181 181 181 182 0 0 182 182 
100 99 98 97 97 0 0 0 0 95 96 97 0 97 96 93 89 85 83 83 0 0 0 0 0 85 85 0 0 0 0 84 0 87 0 0 90 0 0 95 96 98 99 0 100 0 103 103 0 104 103 103 103 104 104 104 104 0 105 0 0 104 104 0 0 0 104 103 104 0 0 0 0 102 0 0 0 90 0 84 83 89 0 0 0 0 0 0 103 0 0 103 0 0 0 103 0 0 102 0 0 0 0 0 0 102 107 141 0 0 0 0 132 125 123 122 0 0 0 114 111 111 112 0 112 112 111 110 0 102 95 93 95 0 0 100 0 102 107 0 0 110 106 103 99 99 0 0 0 0 119 122 127 0 0 0 0 108 95 93 93 0 92 92 0 93 93 0 93 0 94 94 0 0 0 0 93 93 93 0 0 0 0 0 0 94 0 0 94 0 92 92 93 94 94 93 92 93 0 0 94 94 94 94 0 93 0 0 91 0 91 91 92 93 93 93 0 0 93 0 93 0 95 98 131 0 0 212 212 212 212 210 0 208 0 0 0 183 181 181 181 182 183 0 0 0 0 192 0 0 0 195 196 200 0 0 204 200 204 207 210 214 217 0 0 202 200 0 0 223 220 220 221 0 0 0 182 141 115 104 103 0 0 104 0 0 104 105 105 105 105 105 105 104 0 105 0 0 0 0 106 0 105 105 105 105 104 0 104 105 105 106 106 0 0 107 0 0 108 0 0 0 0 110 0 0 0 110 110 0 108 108 108 0 0 110 111 0 111 111 0 111 0 109 108 109 0 113 0 0 115 113 0 0 0 0 0 110 109 110 111 0 0 0 114 114 0 114 114 0 0 113 0 0 109 107 107 111 114 0 0 0 0 113 112 112 112 113 0 115 0 114 113 112 113 0 115 116 0 0 116 115 115 0 112 0 111 111 0 113 0 0 116 118 120 121 137 0 0 155 0 0 155 154 153 152 152 0 0 0 148 149 0 150 0 0 153 0 151 149 149 150 151 0 0 148 147 148 0 151 0 0 0 0 107 0 111 0 0 0 157 158 0 0 0 158 159 0 0 0 159 158 0 0 0 152 152 152 0 151 149 149 0 0 0 149 149 0 148 0 147 147 0 147 0 147 0 147 147 147 147 0 0 0 147 148 0 149 0 151 152 154 0 0 155 0 0 154 0 0 146 145 0 141 140 139 0 137 136 0 135 134 133 132 0 132 0 0 0 0 129 0 0 128 129 0 133 0 0 126 121 117 0 0 146 146 146 0 146 0 0 144 0 0 149 148 149 150 150 0 0 146 145 145 0 144 143 143 0 143 0 142 0 138 137 0 0 0 138 139 0 137 0 136 0 135 134 135 0 141 0 0 0 0 140 0 140 141 0 143 0 0 145 147 0 142 140 149 186 0 177 148 176 0 199 180 0 0 181 181 181 181 181 181 0 182 183 0 183 183 
0 0 0 0 0 97 0 97 0 0 0 0 98 0 0 0 0 84 84 0 0 0 86 86 86 86 0 85 86 86 0 85 0 86 0 0 0 0 93 95 0 0 0 100 100 0 0 103 0 0 0 0 0 104 0 0 105 0 105 0 0 0 105 105 106 105 104 0 0 103 104 0 103 102 101 98 0 91 87 85 82 86 0 0 0 103 103 0 0 104 0 0 103 102 0 102 103 102 101 102 102 103 0 0 0 102 104 132 0 0 0 0 138 129 124 122 0 0 0 117 111 111 112 0 0 0 112 110 0 0 96 93 95 0 0 0 100 100 105 0 0 107 103 0 97 97 101 0 0 112 115 120 126 0 0 0 0 104 94 92 92 92 91 91 0 92 0 0 93 0 0 0 0 94 0 0 93 0 92 92 0 92 92 0 0 0 0 0 94 0 93 92 0 0 0 93 93 0 94 94 94 0 0 0 0 92 92 0 0 0 0 91 92 0 0 0 92 93 0 0 93 94 94 95 120 0 0 0 211 211 0 0 208 0 0 0 189 181 180 180 181 0 184 0 188 0 0 0 190 191 0 195 195 200 0 0 0 0 208 0 0 213 216 0 0 202 199 0 0 219 220 0 222 0 0 0 0 0 0 107 101 101 101 102 0 0 0 0 0 0 0 0 0 105 0 0 105 105 105 0 0 105 105 105 0 0 105 105 106 0 107 0 0 108 0 0 0 0 108 109 109 0 0 0 0 0 111 111 0 109 108 108 107 108 109 110 0 111 110 110 111 111 0 109 109 0 0 113 0 0 115 113 114 0 0 113 0 111 0 110 112 0 0 0 114 114 114 0 0 113 113 113 0 0 110 108 106 108 111 116 0 0 0 0 114 113 113 113 0 115 0 114 0 0 111 112 112 113 0 0 114 113 113 0 112 112 112 112 112 113 0 0 116 117 120 133 0 0 155 156 0 0 155 154 153 0 0 0 0 149 0 0 150 150 0 152 0 0 150 150 150 0 0 0 149 147 147 0 150 151 154 0 0 124 109 112 116 0 0 0 0 0 0 159 159 159 0 0 158 158 0 0 0 154 152 152 0 151 151 0 0 0 0 150 0 0 149 0 0 0 148 0 148 148 0 0 0 147 148 148 148 0 149 149 149 149 149 150 0 153 154 0 0 0 155 156 0 0 151 0 0 144 142 140 0 138 137 136 0 135 134 133 133 132 0 0 0 0 130 0 129 128 127 127 128 0 0 0 0 127 122 120 0 0 0 0 146 145 0 0 146 147 0 0 148 148 0 0 0 0 148 146 145 145 0 0 143 143 0 143 143 0 0 139 137 137 0 0 139 0 0 138 0 0 0 134 134 133 137 0 0 0 0 0 140 139 139 141 0 143 144 0 145 147 0 142 139 144 163 0 0 149 167 0 0 181 180 0 0 0 181 181 181 181 181 0 183 0 0 0 
99 99 99 0 98 97 97 0 97 97 97 98 0 0 0 93 0 84 84 84 85 85 86 86 86 86 0 86 0 0 85 85 0 86 87 88 90 91 93 95 0 0 0 0 100 101 102 0 0 102 0 104 104 104 0 105 0 0 104 105 105 105 105 0 0 105 104 0 0 104 103 0 0 0 0 0 96 0 0 85 83 84 91 0 0 102 0 0 0 104 103 0 0 0 103 102 103 0 0 103 103 103 103 103 0 102 103 124 0 0 0 0 140 0 0 120 0 0 0 118 113 112 111 0 0 0 112 110 0 0 97 93 94 0 0 0 100 99 104 0 0 107 103 0 97 96 97 101 105 109 114 0 0 0 0 0 116 102 93 91 91 91 0 91 90 91 91 92 92 0 92 93 93 93 0 92 92 92 92 0 93 93 0 94 95 0 0 94 94 93 0 93 0 93 0 94 94 0 0 94 94 94 0 92 91 92 92 0 90 91 91 91 92 0 93 92 0 0 93 0 94 0 95 96 111 0 0 0 0 0 0 0 207 0 0 0 186 179 178 0 181 0 184 0 0 0 189 0 188 187 0 0 197 199 0 0 0 0 0 0 0 211 0 0 0 204 198 205 213 217 221 223 0 0 222 0 0 0 0 109 99 99 0 100 0 0 103 0 105 0 106 0 0 104 104 0 0 105 105 105 0 0 0 105 0 0 105 106 0 0 0 0 0 0 0 0 109 0 0 109 110 110 110 112 0 0 112 0 0 0 109 108 108 109 109 110 0 111 111 111 0 0 110 109 0 109 110 112 0 0 0 113 113 115 0 0 0 0 111 111 0 0 0 114 114 0 114 0 113 113 0 0 112 0 0 0 107 106 109 113 0 0 0 0 117 115 0 0 0 115 115 115 0 0 110 110 110 0 0 112 111 0 0 112 0 0 0 0 113 0 0 0 115 115 123 0 0 155 155 0 0 154 154 0 0 152 152 0 151 0 150 150 150 151 0 0 0 151 151 151 151 151 0 150 148 147 147 0 151 152 155 0 0 117 111 109 126 0 0 0 0 0 159 158 0 0 0 0 0 156 156 0 154 152 0 0 151 151 0 150 149 149 0 150 150 150 149 149 149 0 148 0 0 149 0 149 0 149 149 0 150 150 0 151 151 151 0 152 153 0 0 0 156 0 0 156 0 0 149 0 0 143 141 0 138 137 136 135 0 135 134 0 0 133 133 0 132 131 129 0 129 0 0 127 126 129 0 0 0 128 122 121 0 0 0 0 146 0 0 145 0 147 0 0 148 148 149 149 150 0 148 145 144 0 0 0 143 143 143 0 0 0 141 139 137 137 138 0 0 0 139 0 0 0 135 135 134 133 136 0 0 143 143 142 140 139 140 140 142 0 144 0 145 145 0 143 138 142 155 0 0 155 161 0 0 183 180 180 180 0 0 0 181 181 181 0 0 183 183 183 
0 0 98 98 0 97 96 97 0 98 98 98 0 0 0 0 87 84 84 84 0 0 0 0 0 86 0 86 0 0 85 85 86 0 0 0 90 0 0 0 96 97 98 99 0 99 101 102 102 101 102 103 0 104 104 105 0 105 104 104 0 0 105 0 0 0 104 103 103 0 0 0 103 103 0 100 96 94 0 86 83 82 87 0 0 0 0 0 0 0 0 0 103 0 0 0 0 0 0 0 103 0 102 0 0 102 103 117 0 0 0 0 137 125 0 120 118 114 114 116 0 0 113 114 0 0 111 110 0 0 99 92 93 96 0 0 0 100 103 0 0 108 105 102 98 95 95 99 102 106 0 0 0 0 0 0 113 101 95 92 90 90 0 91 0 91 91 91 91 91 91 92 0 0 0 90 0 91 92 0 0 0 94 95 0 0 95 0 0 93 0 93 91 93 94 0 95 0 0 0 94 94 0 93 92 0 92 0 91 90 91 0 92 0 93 92 0 92 92 93 94 95 0 96 104 146 0 0 0 210 209 0 0 0 0 0 181 177 178 179 0 182 0 0 0 188 188 187 186 186 189 0 0 201 203 207 210 0 0 0 207 207 213 0 0 205 199 205 213 0 0 0 0 0 0 0 0 0 135 103 98 97 97 0 0 100 101 102 103 0 0 106 0 105 104 104 0 0 105 105 0 105 104 104 105 105 106 0 0 109 109 110 0 110 0 0 108 109 0 110 0 0 0 0 112 0 112 0 111 0 109 109 109 0 0 0 111 0 0 0 0 111 110 109 108 108 109 112 0 0 0 0 113 0 0 0 0 0 111 112 0 114 0 114 113 113 0 113 113 113 0 112 0 0 111 0 0 105 107 110 114 0 0 0 0 117 116 115 115 115 0 0 0 0 110 109 108 0 0 109 109 0 110 110 0 0 0 0 113 113 114 114 115 117 136 0 155 155 0 0 156 153 153 153 0 152 0 0 0 151 151 151 151 0 0 153 152 152 0 0 151 151 151 150 0 149 150 0 153 155 0 0 0 113 0 109 0 0 0 0 0 159 158 158 0 0 156 0 155 154 155 0 0 152 151 150 151 0 0 150 149 149 150 0 150 150 0 150 149 149 149 149 150 150 0 150 150 150 150 0 151 0 0 0 0 153 0 154 155 0 157 157 156 157 0 0 154 0 0 0 144 0 139 138 136 0 135 135 0 135 0 0 0 133 133 0 132 131 130 0 129 0 0 0 127 128 0 0 0 0 124 120 0 0 146 146 146 146 145 0 145 146 0 148 148 148 0 149 0 0 148 146 145 0 144 143 143 143 0 0 143 143 0 0 137 137 0 138 139 139 139 0 0 0 0 0 0 133 136 0 0 143 0 0 141 0 140 0 0 0 0 144 144 145 0 0 138 140 148 0 0 169 156 0 0 189 180 0 180 0 180 0 181 181 181 181 0 182 0 0 
98 0 0 97 97 97 97 98 99 99 0 99 98 0 96 0 87 85 0 85 0 86 86 0 0 86 85 85 0 0 0 0 86 87 88 89 90 92 0 95 0 0 0 0 0 100 101 102 0 0 102 0 103 104 0 105 105 0 0 103 104 0 104 0 0 0 0 103 103 103 0 103 0 103 0 0 98 95 92 88 85 82 84 91 0 0 103 104 104 0 0 103 103 103 102 102 103 0 0 0 103 0 0 101 102 102 102 111 148 0 0 0 134 121 122 0 118 114 113 0 0 0 114 112 112 111 0 112 0 0 99 93 93 95 98 99 0 100 101 0 0 0 0 0 101 98 95 97 100 104 110 116 0 0 0 0 0 102 95 0 0 90 0 90 91 0 0 91 0 0 91 0 92 91 0 90 90 92 0 0 0 93 0 0 0 95 0 94 94 0 93 93 93 0 0 0 0 0 95 0 0 0 0 0 0 92 91 0 91 91 91 0 91 92 0 0 0 93 93 94 95 0 0 97 101 132 0 0 0 0 0 0 0 0 0 0 179 176 177 0 0 181 182 0 0 188 188 188 186 187 189 193 0 0 0 0 208 209 0 206 203 204 210 0 0 206 200 206 214 0 0 0 222 0 0 0 169 135 112 102 98 96 95 96 0 0 99 0 0 0 0 105 0 0 104 104 104 0 0 0 0 0 105 0 105 105 107 0 0 0 0 0 0 110 109 0 109 0 110 109 111 0 0 112 111 112 0 111 110 0 110 0 0 110 0 111 0 112 0 112 0 0 0 109 108 107 109 111 0 0 115 113 112 0 0 0 0 112 112 113 0 114 0 0 113 0 0 113 0 0 112 0 0 113 0 111 109 107 0 108 112 0 0 0 121 0 116 115 0 116 116 116 115 0 111 110 109 108 0 106 107 108 0 109 109 109 111 112 0 113 0 114 114 128 0 0 156 158 0 0 154 0 152 152 0 0 151 151 0 152 0 0 0 152 152 153 0 0 153 0 0 152 0 0 151 150 0 0 0 0 0 0 134 112 0 107 0 0 0 0 0 0 0 158 0 0 154 154 153 0 0 0 0 150 150 0 0 151 0 149 0 149 0 0 150 0 0 0 0 150 150 0 0 0 0 0 0 151 151 0 152 153 153 154 0 0 155 0 0 157 157 0 0 0 0 155 0 149 147 144 142 139 138 137 136 136 0 0 0 135 134 133 133 132 133 0 0 131 129 129 0 0 128 127 127 128 130 0 0 0 125 121 0 0 0 0 0 0 0 145 144 0 0 148 147 0 0 150 0 0 0 146 145 144 144 0 142 143 144 0 144 0 0 0 136 137 138 0 139 0 0 138 137 136 135 135 0 134 135 138 0 0 143 0 0 141 140 141 142 0 144 144 144 144 0 0 139 138 142 170 0 0 153 0 0 199 181 0 0 0 0 181 181 181 181 181 181 181 181 0 
97 97 96 96 96 0 0 0 0 0 0 99 0 0 0 0 85 85 0 0 0 85 86 86 86 0 85 85 85 0 86 85 0 0 88 89 0 92 0 0 0 96 97 98 0 100 0 102 0 0 102 102 103 104 105 105 105 105 0 0 0 103 103 103 104 105 0 103 0 104 0 104 0 103 0 0 0 0 93 0 0 83 83 87 0 0 0 103 103 103 102 103 0 0 0 102 101 103 0 103 102 102 0 0 0 102 102 107 140 0 0 0 135 121 123 123 0 116 113 113 115 0 0 112 0 112 0 0 0 0 99 93 93 0 0 0 0 100 100 104 0 0 106 0 0 0 98 96 99 0 107 0 0 0 117 113 107 102 97 95 93 91 0 90 91 0 0 91 90 90 0 91 0 91 91 92 0 93 0 0 93 94 94 95 95 95 0 94 0 0 93 0 94 0 0 0 95 94 0 0 94 95 0 0 0 92 92 0 92 0 91 91 92 0 93 93 93 0 94 0 0 96 0 97 98 120 0 0 0 0 0 0 0 0 183 180 176 176 0 177 178 180 181 184 187 188 190 0 189 189 0 193 195 200 0 207 0 207 204 201 201 202 206 0 0 214 203 207 0 0 0 222 0 0 202 172 139 118 109 104 102 101 99 97 95 95 97 0 100 101 0 103 0 0 0 104 104 104 0 105 105 105 0 0 0 107 0 0 107 108 0 0 0 110 110 0 0 0 0 0 111 0 112 111 0 0 112 0 111 0 0 110 0 110 110 111 0 111 0 0 111 110 0 109 0 108 108 0 0 0 0 0 112 113 0 0 0 112 0 0 113 0 113 113 0 0 0 0 112 112 0 113 113 0 0 112 0 0 107 107 109 0 0 0 0 0 0 117 117 117 0 0 0 115 113 0 0 107 106 106 107 0 0 0 107 108 110 111 112 113 113 113 120 0 0 157 159 0 0 155 0 0 152 151 151 151 0 151 0 0 152 152 151 151 153 154 154 0 154 0 0 0 0 0 152 154 0 156 0 0 0 0 126 112 106 106 0 0 0 158 158 0 0 0 155 154 153 153 0 152 152 0 151 149 150 151 0 151 150 148 0 151 0 0 152 0 151 0 151 151 151 0 152 0 153 153 0 153 0 0 154 0 155 0 0 156 156 0 0 158 158 0 0 0 156 0 0 0 145 0 140 138 137 0 136 0 0 0 0 0 134 133 0 132 132 0 0 131 129 128 128 127 127 0 127 127 129 0 0 0 126 123 0 0 0 0 144 0 145 144 144 0 0 149 148 148 148 150 0 0 0 145 145 0 144 143 141 0 0 0 0 143 141 140 138 137 0 0 139 0 139 138 0 136 135 0 0 134 133 136 0 0 143 0 143 142 141 0 143 0 0 144 0 145 147 0 140 137 139 153 0 0 159 181 0 0 182 181 181 181 181 181 182 182 181 181 182 181 181 181 
0 97 96 0 0 98 0 100 100 100 100 100 0 0 0 89 84 84 85 85 85 85 0 0 86 85 85 85 0 0 86 0 86 87 88 0 90 91 0 94 95 96 97 0 0 100 101 101 102 102 103 0 0 0 0 0 0 105 104 103 103 103 103 103 0 0 0 103 103 0 0 104 0 0 0 0 0 0 94 0 87 83 83 84 92 0 0 103 0 0 103 0 103 103 0 102 102 102 103 103 103 102 102 100 101 102 103 104 131 0 0 0 136 123 0 0 0 118 114 113 113 113 113 112 111 112 0 0 0 0 100 93 93 0 0 98 0 0 100 103 0 0 105 103 0 0 0 97 97 100 103 0 0 114 0 108 104 0 99 96 0 93 0 90 90 0 0 90 0 89 90 90 90 92 0 93 0 94 94 0 94 0 0 94 94 95 0 94 94 93 93 0 94 95 0 0 0 94 94 0 0 0 94 93 92 92 92 0 0 92 0 91 0 93 93 93 0 94 95 96 0 0 96 96 96 110 150 0 0 0 0 0 187 180 176 175 175 175 0 177 177 0 182 185 188 0 0 0 194 194 194 195 197 201 0 207 0 0 0 202 199 199 202 0 0 0 207 209 216 0 0 217 0 0 0 0 170 148 132 119 111 107 103 101 99 97 97 97 96 98 99 101 0 0 104 104 0 0 104 104 104 104 104 0 0 0 0 107 106 106 0 0 0 0 0 110 109 110 110 0 111 0 0 112 113 0 112 112 111 110 110 110 109 109 0 111 0 112 112 111 111 110 0 0 108 108 109 0 0 0 0 0 111 111 0 0 0 113 113 0 113 0 113 113 113 113 0 0 0 112 0 0 113 113 113 0 112 0 107 106 107 0 114 0 0 0 0 0 118 117 0 118 0 0 0 113 111 109 106 0 0 0 107 107 106 0 0 111 112 0 114 116 134 0 0 158 0 0 0 153 152 151 151 0 151 151 0 151 151 0 151 0 152 0 0 0 0 154 0 0 0 152 151 153 0 0 0 157 0 158 0 0 120 0 102 109 0 0 0 0 158 0 0 0 154 153 0 152 152 0 152 0 151 0 0 151 0 0 0 150 150 152 153 153 153 0 153 0 151 152 152 153 153 154 154 0 155 155 155 0 0 156 156 0 0 0 157 157 0 0 0 0 158 0 155 0 150 0 144 141 139 138 137 136 0 135 0 135 135 0 134 0 133 0 133 0 0 131 129 128 0 0 0 0 127 127 128 0 0 0 127 123 0 0 145 0 0 144 144 0 145 148 0 149 0 148 147 149 0 0 148 145 144 0 144 143 142 142 0 144 144 0 0 141 139 138 0 0 139 0 0 0 0 0 136 0 135 134 133 134 0 0 142 0 0 142 142 0 143 0 0 0 145 145 147 0 143 137 139 145 0 0 181 171 0 0 186 181 0 181 181 183 185 186 185 185 184 183 182 181 
0 0 0 0 0 97 0 0 100 99 100 0 0 0 0 87 83 0 0 84 84 85 86 86 86 0 0 0 0 85 0 0 87 86 88 0 90 91 93 94 0 0 0 99 0 0 101 0 0 0 0 0 104 0 0 0 0 105 104 0 0 103 103 104 0 0 0 103 102 0 104 0 103 0 0 102 0 97 94 0 88 85 83 83 88 0 0 0 0 0 0 103 102 102 0 102 0 102 103 0 0 103 0 102 102 102 0 103 122 0 0 0 137 123 0 0 0 120 115 114 113 113 114 115 114 112 112 111 110 0 101 93 93 94 95 97 98 99 100 102 0 0 104 102 102 0 0 100 100 100 102 0 0 0 0 106 102 0 0 0 0 0 92 90 90 90 90 0 89 89 89 0 0 0 0 0 0 0 94 94 94 0 0 95 0 0 95 0 94 93 0 93 93 95 96 95 94 0 94 93 0 0 93 93 0 92 92 92 92 92 0 93 93 93 0 94 0 95 0 0 0 0 0 96 96 105 139 0 0 188 187 183 179 175 174 173 174 175 176 177 177 180 183 0 0 0 195 0 0 0 0 196 198 0 0 208 0 0 0 0 199 197 201 0 0 0 213 0 0 0 216 212 0 209 0 0 0 0 0 0 151 132 115 105 102 101 99 98 96 95 96 0 0 0 0 0 0 0 0 0 0 0 104 106 0 0 107 106 0 106 0 0 0 0 0 0 110 110 110 109 110 0 112 0 0 0 0 0 111 111 0 0 110 110 110 110 0 0 0 112 0 0 110 108 108 107 108 111 0 116 0 0 112 108 0 0 0 0 0 0 112 112 0 113 0 0 112 112 0 0 113 0 0 0 113 0 0 0 109 107 106 108 111 115 0 0 121 0 0 119 0 118 0 0 117 0 0 111 0 107 106 106 106 0 107 0 0 0 0 113 113 124 0 0 158 160 0 0 154 0 151 151 0 0 150 0 0 0 150 0 151 151 0 0 0 0 0 0 152 152 152 151 153 0 0 155 156 158 0 159 0 0 114 0 99 114 0 0 0 0 157 157 156 0 153 0 0 151 151 0 0 152 151 0 151 0 0 152 151 151 152 0 0 0 154 0 0 0 153 153 0 154 155 0 0 156 156 0 157 156 157 0 157 157 158 0 158 0 159 159 0 0 157 0 153 0 148 145 143 0 139 0 0 136 0 135 0 134 0 0 134 133 133 133 0 0 0 130 129 0 0 127 0 0 126 126 127 130 0 0 0 123 133 0 0 0 144 143 0 144 0 0 0 149 148 147 148 149 0 0 147 145 145 0 0 0 143 142 0 144 0 0 0 0 139 138 138 139 139 0 140 0 0 0 136 0 0 0 133 132 0 0 142 0 0 143 0 143 142 0 144 0 0 0 146 0 0 138 139 141 155 0 0 169 0 0 192 181 181 182 185 188 191 0 194 193 192 190 188 184 
97 96 96 96 97 97 98 0 100 0 0 0 98 94 89 84 83 84 0 0 85 0 86 0 85 0 86 0 85 84 85 0 0 0 88 0 90 0 0 0 0 97 0 99 0 0 101 101 100 101 102 0 103 103 104 104 105 105 105 0 0 103 0 104 105 0 0 0 103 0 104 103 103 103 103 0 0 97 95 0 0 86 83 81 84 0 0 101 103 103 102 103 0 103 0 102 0 102 103 0 104 0 103 0 0 103 103 103 114 0 0 0 137 121 0 0 0 119 117 0 115 114 0 0 0 115 111 110 0 0 0 94 93 93 95 0 98 99 0 0 0 0 103 99 99 99 0 0 0 0 102 104 0 0 0 105 101 101 100 0 97 94 0 91 90 89 89 89 0 0 90 91 0 0 0 93 94 94 94 94 94 94 95 0 95 95 0 0 94 0 0 94 95 0 0 96 95 0 94 94 0 94 0 0 0 0 92 92 92 0 0 0 0 94 0 95 95 0 0 0 96 96 96 0 96 101 132 0 0 0 185 181 177 173 173 172 173 174 0 0 179 181 185 0 0 0 0 0 0 0 0 0 197 0 0 0 0 0 0 0 0 198 199 0 0 0 215 0 0 0 212 209 208 208 0 0 0 0 0 0 0 0 0 137 116 106 101 100 99 97 96 95 95 97 98 0 0 0 102 103 0 0 103 105 0 107 0 106 105 105 0 108 108 109 110 0 0 0 0 0 111 0 112 113 114 114 0 0 0 111 111 0 110 110 0 111 111 0 0 112 0 111 0 109 0 108 108 110 113 0 0 116 0 107 105 0 0 0 0 111 0 0 0 0 0 112 0 112 112 112 0 113 113 0 113 113 0 0 110 108 107 107 108 112 0 0 0 121 121 0 0 118 118 0 0 118 0 115 0 109 108 108 107 107 0 108 109 110 0 112 117 0 0 159 161 0 0 155 152 151 150 150 151 0 150 0 150 150 150 0 150 150 151 151 0 152 151 0 150 150 151 0 0 0 153 153 156 0 0 0 0 133 112 104 101 122 0 0 154 0 0 0 154 153 151 151 151 151 152 153 0 152 152 0 151 152 0 152 152 0 0 0 154 0 155 0 154 0 0 0 0 156 0 157 0 157 157 0 0 0 0 158 0 158 0 159 0 0 0 159 158 157 156 0 151 0 145 0 0 0 138 137 136 135 0 0 134 134 134 0 0 133 133 0 0 0 131 130 0 0 0 126 127 0 126 126 126 128 0 0 0 124 132 0 0 0 142 0 143 145 0 0 0 0 148 148 0 0 0 0 147 145 145 0 0 144 0 0 0 143 0 143 143 0 0 138 0 0 0 0 140 0 139 137 136 136 136 0 0 131 135 0 0 0 0 0 0 0 142 143 0 144 145 0 145 0 0 138 138 139 145 0 0 178 198 0 202 181 181 185 191 0 0 0 0 0 201 0 0 0 
0 0 0 0 0 98 98 99 100 0 0 0 0 0 88 85 0 0 84 0 85 0 0 0 85 86 86 0 85 0 0 85 87 88 88 90 0 92 93 94 0 96 97 98 0 0 101 101 101 101 101 101 102 103 0 104 0 105 105 105 105 0 0 104 0 0 0 104 0 0 0 0 0 0 104 0 0 98 95 0 91 87 83 82 82 88 0 0 0 0 0 0 0 0 103 0 0 103 0 103 104 104 104 0 0 103 0 103 108 0 0 0 135 120 122 121 119 116 0 0 0 114 0 0 0 118 110 108 110 109 104 96 92 0 0 0 0 0 0 102 0 0 102 97 98 98 98 0 0 0 0 103 104 0 0 105 103 102 101 0 0 0 0 91 0 0 89 89 89 0 0 91 0 0 93 0 0 0 94 0 0 0 0 0 95 94 94 93 0 0 94 95 96 0 0 0 0 0 95 0 0 0 93 92 92 0 93 0 0 0 0 0 0 94 0 0 96 96 96 96 96 96 96 96 95 100 123 0 0 0 0 181 176 173 172 172 173 0 0 179 181 0 187 0 0 0 0 0 0 0 0 198 197 202 0 0 197 198 0 0 0 202 204 212 0 0 207 204 205 207 207 208 208 0 0 0 206 203 202 0 0 0 0 0 0 142 124 111 103 100 99 97 96 94 93 95 96 0 0 0 0 0 102 0 0 106 107 0 105 105 0 0 107 108 109 109 0 0 0 0 0 0 112 113 0 0 113 0 0 112 111 0 0 110 0 111 111 112 112 111 111 0 110 109 108 108 108 110 113 0 0 117 0 108 99 103 0 0 0 110 0 0 112 0 0 112 0 111 0 111 0 0 0 0 113 0 113 112 111 110 0 107 106 109 113 116 0 0 0 0 0 0 119 119 0 0 0 0 0 0 0 0 109 108 107 107 109 0 112 113 129 0 0 161 0 0 0 151 151 150 150 0 0 150 0 0 150 150 150 0 0 0 150 0 0 150 149 149 149 0 0 0 0 152 152 153 0 0 160 0 0 123 109 101 107 0 0 149 153 0 0 154 152 0 0 150 150 152 0 0 0 152 152 0 0 0 0 152 0 153 154 0 155 0 156 156 155 155 155 156 0 0 0 0 159 0 0 0 0 0 0 159 0 0 158 159 0 0 0 0 0 0 155 0 150 0 143 141 139 138 0 136 0 0 134 133 0 0 133 133 133 133 133 0 0 133 132 0 0 0 127 0 0 0 125 0 126 127 0 0 0 124 133 0 0 144 142 140 143 0 0 0 149 148 148 0 0 149 0 0 147 0 0 0 145 144 143 143 0 144 0 0 143 0 0 139 138 139 0 0 139 0 0 137 136 136 136 0 0 131 132 0 0 0 0 0 145 0 143 143 144 144 145 0 145 147 0 141 0 140 142 155 0 0 185 0 0 184 185 0 0 0 0 0 0 0 0 208 0 0 
96 0 98 98 0 0 0 0 100 0 0 0 0 91 86 84 0 84 84 85 0 85 86 86 86 0 86 0 86 0 0 86 87 88 0 0 0 0 93 94 0 96 96 98 0 101 101 101 0 0 0 0 102 0 103 103 0 0 0 0 0 0 104 0 0 0 104 104 104 104 104 0 0 0 0 0 102 0 0 0 0 0 85 82 81 85 92 0 0 103 103 103 103 103 103 103 102 103 0 104 0 0 104 0 103 101 0 102 104 0 0 0 135 120 0 120 118 116 0 0 0 113 0 0 0 0 111 109 111 115 111 101 93 93 94 94 96 97 99 100 102 0 0 99 97 0 97 98 98 99 0 0 0 103 0 0 0 0 0 0 96 94 0 90 0 89 88 0 0 0 90 91 91 92 93 0 93 94 0 0 0 95 95 95 0 0 94 93 0 93 94 0 0 97 0 0 96 95 95 0 0 0 94 92 93 93 93 0 93 93 93 93 0 93 94 0 0 0 0 0 0 0 0 0 95 97 115 0 0 0 0 181 177 174 172 0 173 174 177 180 183 186 189 192 195 0 200 0 0 0 199 198 196 199 0 0 192 191 196 0 201 202 207 0 0 207 200 199 201 204 0 0 207 0 0 0 205 0 0 200 199 204 0 0 0 0 0 0 132 113 104 100 98 97 96 95 93 95 96 98 0 0 102 0 0 107 0 0 107 0 107 0 108 108 0 108 109 110 110 110 110 0 0 113 114 114 114 0 113 0 112 0 111 111 111 0 0 111 0 0 111 110 0 0 0 107 108 110 112 0 0 0 0 0 99 97 100 0 0 0 0 110 111 111 0 112 111 111 0 111 112 0 113 113 0 0 113 0 0 0 110 108 107 107 110 0 0 0 0 0 121 0 0 120 120 0 0 0 118 0 115 113 112 111 110 0 110 0 112 119 0 0 160 0 0 0 153 151 150 150 0 0 0 150 150 149 149 0 0 0 150 150 150 150 0 148 146 148 150 0 0 152 151 151 153 155 158 0 0 0 0 116 105 101 116 0 0 150 0 0 0 0 151 150 150 150 150 153 0 0 0 152 153 0 0 153 153 153 0 154 154 0 0 156 0 0 157 0 156 157 158 0 0 159 0 0 0 160 160 0 159 0 0 158 158 159 0 0 0 0 0 0 0 0 148 145 142 0 137 136 0 134 134 0 133 132 0 133 133 0 132 132 0 0 0 0 132 0 130 128 126 0 0 126 125 125 0 127 0 0 129 126 0 0 0 143 141 140 0 0 0 0 0 148 148 148 148 149 0 0 146 145 145 0 145 0 143 143 0 143 0 143 0 0 0 138 138 139 139 138 139 0 0 138 137 136 0 0 0 133 131 135 0 143 0 0 145 0 144 144 0 0 145 145 145 146 0 144 138 140 141 146 0 0 182 0 0 195 192 0 0 0 0 0 0 0 0 0 212 210 
97 0 0 99 0 100 0 100 100 0 0 0 93 88 84 83 83 84 0 85 0 0 0 0 85 0 0 0 86 86 86 0 87 88 89 91 92 93 94 0 0 0 97 98 0 0 0 101 101 101 101 101 101 102 102 0 0 104 103 103 104 104 104 104 104 104 104 104 104 104 104 0 103 103 104 103 102 0 0 95 0 0 0 83 82 82 88 0 100 0 0 102 103 0 0 103 103 103 0 0 0 0 0 104 102 102 102 102 104 124 0 0 133 120 0 123 119 116 115 114 113 112 113 117 117 114 110 111 119 0 0 107 92 92 0 95 0 0 0 0 102 0 0 102 98 0 97 95 0 97 97 0 0 100 0 101 0 0 0 0 96 0 92 0 89 89 0 0 0 0 89 0 0 92 93 0 0 94 0 94 94 95 0 94 0 0 0 93 0 0 95 0 97 97 97 0 96 95 95 94 94 95 0 0 0 93 93 0 92 93 93 0 0 93 94 0 0 96 96 0 0 0 96 96 96 97 109 145 0 0 184 181 178 0 172 173 173 175 0 181 0 0 0 0 196 198 0 0 0 200 199 198 197 198 0 0 192 189 191 0 0 0 206 0 0 205 199 200 0 0 0 204 205 209 0 0 203 200 200 199 199 204 0 0 196 0 0 0 0 0 133 114 104 100 99 97 95 93 92 94 0 0 0 0 0 0 0 0 108 0 107 0 0 108 107 108 0 109 109 109 109 111 112 0 0 114 114 114 113 0 113 0 111 111 0 0 112 111 0 0 111 110 0 0 109 108 108 109 0 0 0 0 117 0 105 94 95 99 102 0 0 0 0 110 0 0 0 111 111 0 112 112 112 0 0 113 113 113 113 0 0 0 108 107 107 109 0 0 0 0 121 121 0 0 0 0 120 0 0 0 0 0 0 114 113 0 111 112 114 131 0 0 0 0 0 156 152 151 150 150 0 0 149 0 0 0 149 0 0 149 150 0 0 0 0 147 147 0 0 0 152 151 150 152 0 0 0 0 0 0 128 109 101 107 0 0 0 151 152 0 153 151 0 150 150 150 151 0 0 0 154 154 0 154 154 153 153 154 155 0 156 156 156 156 0 0 0 158 158 0 159 160 160 0 0 161 160 0 160 0 0 0 159 157 0 0 0 0 157 155 0 153 151 0 0 142 0 0 137 136 0 133 133 133 133 133 0 0 0 133 132 132 0 134 0 0 132 0 0 128 127 126 126 0 125 125 125 125 128 0 0 128 0 0 0 142 139 140 0 0 0 148 147 147 0 0 147 149 0 148 146 0 145 145 0 0 143 0 143 143 0 144 0 0 0 138 0 0 0 138 0 0 0 0 0 136 135 0 0 0 131 131 0 0 0 145 145 0 0 145 144 0 145 0 145 146 0 0 140 140 0 144 159 0 191 189 0 206 200 0 0 0 0 0 0 0 0 0 0 215 
0 0 99 0 0 99 99 0 0 0 0 0 0 86 83 83 83 84 84 85 85 85 0 85 85 0 84 85 0 0 85 86 0 0 0 0 92 0 0 95 96 0 97 98 99 0 101 0 100 100 100 0 0 102 103 0 104 102 103 103 103 0 103 103 103 104 104 0 104 104 104 0 103 103 0 0 0 0 0 0 93 90 87 83 82 81 85 0 0 0 0 0 0 0 0 104 103 103 103 103 105 0 0 0 0 102 102 0 103 117 0 0 130 122 0 0 124 118 115 114 113 112 111 111 112 113 115 120 0 0 0 110 93 91 0 95 96 0 99 100 101 0 0 0 99 98 0 96 96 96 96 96 95 95 97 97 97 98 98 0 95 93 91 0 90 89 87 88 0 90 90 90 91 92 0 93 92 93 0 0 0 0 0 94 94 94 0 93 94 95 0 97 0 0 0 0 95 95 0 0 0 0 0 94 93 0 0 92 92 0 0 0 94 93 94 0 96 96 96 0 0 96 96 96 0 97 104 137 0 0 183 0 178 176 174 174 174 175 0 0 0 0 0 0 0 0 199 0 200 200 0 0 0 197 0 0 193 188 187 189 0 0 207 208 0 199 199 0 0 201 200 201 204 0 0 0 199 199 0 199 200 206 0 0 197 193 192 0 0 0 0 0 129 109 103 100 0 0 95 92 92 93 96 0 0 0 0 0 108 0 107 0 0 108 108 108 108 109 0 110 110 0 111 112 113 114 0 0 0 0 0 113 0 0 111 112 0 0 0 0 0 0 111 0 109 108 108 109 111 113 0 0 0 0 0 97 93 95 0 102 0 107 0 0 0 0 0 110 111 0 0 0 112 0 112 113 0 0 113 0 111 109 109 0 106 106 109 0 0 0 0 0 0 120 0 0 119 119 0 119 0 0 0 0 116 115 114 113 119 0 0 0 0 0 156 153 0 0 149 0 0 149 149 0 0 0 0 0 149 149 0 0 149 147 147 148 0 0 0 151 150 150 151 153 0 0 0 0 0 0 116 104 103 115 0 0 0 150 152 0 152 150 150 150 150 150 154 0 0 0 154 0 154 154 0 0 154 0 0 0 157 157 157 157 158 0 159 159 159 159 160 0 0 0 0 0 0 0 0 0 0 159 0 0 0 0 0 0 155 0 0 0 148 0 0 140 137 0 0 0 134 132 0 133 0 0 132 133 133 0 133 133 0 134 134 133 132 0 129 0 0 0 0 125 125 0 125 124 126 0 0 130 0 0 0 141 139 140 0 0 0 0 0 146 147 147 147 0 0 147 146 0 145 0 144 143 142 142 0 0 0 0 143 142 0 139 139 0 0 139 140 140 0 139 0 136 0 0 0 0 132 130 134 0 0 0 0 0 146 0 145 0 145 145 145 145 0 0 140 139 141 143 150 0 0 180 0 0 207 0 0 0 0 222 223 0 0 0 0 217 
0 98 0 99 99 98 98 98 100 0 0 0 90 84 83 0 0 0 0 0 85 85 0 0 0 85 84 85 0 0 85 85 86 87 89 0 0 0 0 0 96 97 0 98 98 0 0 0 0 100 0 0 101 101 0 0 0 0 102 0 0 0 103 0 103 0 0 104 104 0 0 0 103 0 0 0 101 0 99 0 0 0 88 83 82 81 82 89 0 0 0 104 0 0 0 0 0 103 0 0 0 0 0 103 102 102 0 0 103 111 0 0 125 124 0 0 0 121 116 115 114 112 111 112 116 0 0 0 129 0 0 0 94 92 0 0 95 97 0 0 100 0 0 0 99 98 97 0 0 95 95 0 95 95 95 95 95 95 95 94 94 0 90 90 0 0 87 89 0 91 0 90 90 91 0 93 0 0 0 0 94 0 0 0 94 93 93 94 0 96 0 98 0 0 97 0 96 0 0 95 95 95 0 93 93 91 0 93 0 0 94 0 0 0 94 95 96 96 0 96 0 96 0 97 97 98 103 132 0 0 182 0 0 177 176 0 175 175 179 182 185 189 0 194 0 197 0 199 0 0 0 0 197 196 0 0 196 188 186 186 195 0 0 0 200 197 0 0 201 199 198 199 204 0 0 0 196 0 0 199 200 207 0 0 199 196 0 191 188 0 0 0 0 143 119 104 100 100 0 0 94 90 90 93 98 0 0 108 0 0 107 108 0 109 109 109 109 0 110 0 0 111 111 0 112 0 0 0 0 0 114 0 112 112 0 112 0 0 112 0 0 0 111 0 0 0 108 108 110 112 0 0 0 0 0 105 95 93 95 99 102 105 0 108 0 0 111 0 0 111 111 0 112 0 112 0 113 113 113 0 112 111 0 109 108 107 107 109 113 0 0 0 0 120 120 120 0 0 119 119 0 0 0 0 118 0 117 117 129 0 0 0 0 156 154 151 0 150 149 0 0 150 0 149 148 149 149 149 149 0 0 0 0 147 148 150 0 0 152 150 150 151 152 155 158 0 0 0 0 125 108 101 108 125 0 0 0 152 0 0 151 150 150 0 150 152 0 0 157 155 155 0 0 155 155 0 155 155 156 0 158 0 0 0 0 0 159 0 160 0 0 0 0 160 159 159 159 158 0 0 158 158 0 158 0 0 0 0 153 151 0 0 145 0 140 137 136 0 0 0 132 132 0 0 132 132 132 132 0 133 133 0 0 0 134 0 0 130 129 0 127 126 125 0 124 0 0 124 125 0 0 131 0 0 142 139 139 142 0 0 0 147 0 0 0 146 146 0 0 148 146 146 145 0 144 0 143 142 0 143 144 0 0 0 0 139 138 139 0 0 0 0 139 0 138 136 136 135 0 0 0 131 132 0 0 0 0 146 146 0 145 145 145 145 145 145 149 0 142 138 0 142 146 0 0 181 0 0 212 215 0 0 222 223 224 0 0 0 222 220 
98 98 98 99 99 99 0 98 0 0 98 94 89 84 82 82 0 0 84 85 85 0 0 0 0 0 85 0 85 0 86 86 87 87 0 90 92 92 94 95 0 0 0 0 99 98 100 99 99 100 101 101 101 102 102 102 0 102 102 0 103 102 102 0 0 105 0 0 104 0 0 0 104 0 103 102 101 100 0 0 0 0 89 0 0 82 82 85 0 0 0 0 0 0 104 104 104 0 103 104 104 104 0 102 0 102 102 0 103 106 0 118 117 122 0 0 0 122 0 0 0 113 113 116 0 0 0 126 129 0 0 0 96 91 92 93 95 0 98 0 101 103 0 0 101 98 96 0 95 94 94 0 0 94 94 0 0 0 0 94 0 0 91 0 89 0 88 89 0 0 0 90 0 90 92 0 0 94 0 0 94 94 94 0 94 94 94 94 95 0 0 99 0 98 97 0 0 95 94 94 93 0 0 0 0 93 0 0 93 93 0 95 95 0 0 0 0 0 96 96 0 97 97 0 0 97 103 131 0 0 181 0 0 0 177 176 177 178 179 182 185 0 0 0 0 0 0 0 199 199 0 0 196 195 200 0 0 191 187 189 201 0 0 0 197 197 0 0 199 195 195 196 204 0 0 198 190 193 0 199 201 0 0 0 200 0 0 0 189 187 185 0 0 0 0 128 109 103 101 0 0 94 89 88 92 0 0 0 0 109 0 108 109 0 0 0 0 109 0 0 0 0 111 111 111 111 112 113 0 0 0 114 0 113 0 113 0 0 0 0 112 110 111 0 109 108 0 108 109 112 0 0 0 0 0 0 102 96 95 97 100 103 0 0 0 0 110 110 0 110 110 111 111 112 0 112 113 0 113 0 0 0 0 110 0 108 107 106 109 0 0 0 0 120 120 120 119 0 0 0 119 0 120 0 0 0 119 121 0 0 0 159 156 154 152 0 0 150 150 150 150 0 150 149 149 149 0 0 0 0 148 148 0 149 150 0 0 152 0 150 150 152 153 0 0 0 0 0 134 113 103 103 116 0 0 0 152 0 0 0 151 150 0 0 151 155 0 0 155 155 156 156 156 0 0 155 155 0 0 158 159 0 0 159 0 160 160 160 161 0 0 160 159 0 0 158 0 0 0 156 0 0 0 156 0 0 0 0 150 0 0 0 142 0 136 134 134 134 0 132 131 131 0 132 0 0 132 132 0 133 132 133 0 0 0 0 131 130 128 127 0 125 125 124 123 124 124 123 124 125 0 132 0 0 140 138 0 143 0 0 147 0 0 0 145 145 0 0 0 148 0 146 0 0 144 0 143 0 142 143 0 0 0 0 0 140 139 139 139 0 0 139 139 0 138 137 136 0 135 0 0 133 132 136 0 0 0 0 0 0 145 145 0 145 0 146 146 0 145 139 140 141 144 167 0 199 201 0 216 215 0 0 0 224 0 225 0 0 0 221 
0 0 0 0 100 0 0 0 99 0 0 0 88 83 0 83 84 0 85 0 85 0 0 85 0 0 0 85 85 0 86 0 0 88 89 90 0 0 0 95 95 96 98 98 0 0 0 0 100 100 101 0 0 0 0 0 0 102 0 103 0 102 102 0 0 0 0 104 0 105 105 0 104 103 103 102 0 0 0 98 96 0 90 86 84 82 81 81 88 0 0 0 104 0 103 104 104 0 0 0 104 103 0 0 0 102 102 0 102 103 107 106 108 116 0 126 122 119 0 0 118 119 124 0 0 0 128 0 0 0 0 0 99 90 91 93 95 0 0 100 101 102 0 0 101 97 97 0 0 94 94 0 94 94 92 92 93 0 0 93 0 92 91 0 89 88 87 89 0 92 0 90 90 0 0 0 93 93 0 94 94 94 0 0 0 0 0 95 97 99 0 0 0 0 0 96 95 94 94 93 93 0 93 92 93 0 0 0 92 94 0 0 0 96 0 96 96 0 0 97 97 97 98 0 0 98 103 130 0 0 180 180 0 0 178 0 178 0 181 0 184 187 0 0 0 194 0 0 0 0 196 195 195 195 198 0 0 199 191 194 0 0 0 0 195 198 0 0 196 191 190 194 0 0 0 192 188 192 0 0 201 210 0 0 201 0 0 193 0 0 0 186 0 0 0 0 141 116 106 102 99 0 93 90 89 95 0 0 0 0 109 108 109 110 0 109 0 110 0 0 0 0 110 110 0 110 110 111 112 0 0 0 0 0 114 0 113 112 112 0 112 111 0 0 109 108 107 107 109 0 114 0 118 118 0 0 0 101 98 98 99 102 104 106 107 0 109 0 109 109 0 110 0 112 0 0 113 113 113 113 113 0 112 0 0 109 0 106 106 109 0 0 0 0 0 0 119 119 0 119 119 0 120 0 120 120 121 130 0 0 0 157 154 152 0 150 150 0 150 0 150 0 150 0 0 0 0 149 0 0 147 148 149 149 0 0 152 150 0 150 151 0 156 0 161 0 0 0 117 106 101 110 126 0 0 152 152 153 152 152 151 151 151 151 152 0 0 156 156 0 0 0 156 0 0 156 0 0 0 159 0 160 0 159 160 160 161 161 0 0 160 0 158 157 0 156 0 0 0 153 0 154 0 0 0 0 0 148 146 0 143 141 139 0 134 133 132 132 0 131 0 131 131 131 131 0 131 0 0 0 132 133 0 0 133 132 131 130 0 127 127 0 125 124 0 0 0 123 122 124 127 134 0 0 137 136 139 0 0 0 0 145 145 0 143 144 0 148 148 148 147 146 0 0 143 0 142 0 0 0 143 0 143 143 0 0 139 139 139 138 0 139 0 0 0 0 136 136 0 0 135 0 132 133 138 0 144 145 0 0 0 0 0 0 0 145 146 0 0 140 139 0 142 154 0 0 197 0 220 216 0 0 0 0 0 225 0 0 0 222 
99 100 100 0 0 0 99 0 99 98 0 0 88 83 82 83 84 84 85 0 85 85 0 0 85 84 0 85 85 0 0 87 88 89 90 0 92 93 94 95 96 0 0 99 0 0 100 0 0 0 101 0 0 0 103 0 0 0 103 103 103 0 102 104 0 0 0 105 0 0 0 0 104 0 0 0 102 0 0 0 97 94 0 0 85 82 81 81 85 92 0 0 0 104 104 0 0 103 103 0 0 0 103 104 0 103 102 102 0 103 103 103 106 117 124 124 120 118 118 118 121 0 0 0 130 127 128 0 0 0 0 0 103 91 0 0 0 0 0 0 0 102 0 0 104 99 0 0 0 94 94 0 0 0 0 93 0 0 93 92 92 92 0 0 0 88 88 0 0 0 91 0 0 0 92 0 93 93 93 0 94 94 94 94 0 95 95 97 0 0 0 0 98 96 96 95 0 0 0 93 93 0 0 0 93 93 93 94 0 95 0 96 96 0 96 96 96 97 0 0 97 0 98 0 0 100 104 131 0 0 180 180 0 0 178 178 179 0 0 0 0 186 187 189 0 0 0 0 0 194 193 193 194 195 195 199 0 0 199 202 0 0 0 0 196 200 0 0 199 190 188 199 0 0 200 188 187 0 0 0 199 0 0 0 202 199 0 0 0 0 0 187 188 0 0 0 0 0 126 109 102 99 96 93 91 92 96 0 0 0 0 109 109 110 0 109 109 0 111 111 0 111 0 111 0 0 110 109 109 111 0 112 113 0 114 0 0 112 112 112 0 0 0 110 109 0 107 107 109 0 0 116 0 0 0 0 0 108 104 102 101 103 104 106 106 108 109 0 0 109 109 0 111 0 112 0 0 0 0 0 113 0 0 0 110 0 0 0 106 106 109 0 0 0 0 0 0 119 119 0 119 119 120 0 120 121 123 140 0 0 157 0 153 151 0 150 150 0 150 0 149 0 149 0 0 149 0 149 0 147 146 0 150 0 0 0 151 150 151 151 154 0 158 0 0 0 0 124 109 102 107 119 0 0 0 0 0 0 0 0 151 0 0 153 154 0 0 156 0 0 156 155 0 0 155 0 157 158 0 0 161 161 0 0 0 0 0 0 0 0 158 0 156 155 154 0 153 0 0 0 0 151 0 150 0 0 0 0 141 0 139 137 136 134 132 0 131 0 130 131 0 0 0 0 0 0 132 0 132 132 0 0 0 0 131 132 0 0 129 0 127 0 125 124 123 123 123 0 123 0 126 133 0 0 137 137 140 0 0 0 0 145 144 144 143 145 0 0 0 0 0 146 145 144 142 0 142 142 0 142 143 0 143 0 0 140 139 0 139 139 0 139 0 139 0 137 136 136 136 136 0 0 133 131 136 0 0 144 145 145 0 145 0 0 0 145 146 0 0 141 138 140 142 149 0 0 203 0 0 215 0 222 0 225 225 225 226 0 0 222 
0 100 0 0 98 99 98 0 99 97 0 92 0 84 82 0 0 0 85 85 84 84 85 0 84 83 84 0 85 0 0 87 87 0 0 0 91 0 0 95 0 97 98 99 0 99 99 99 100 100 101 0 101 0 102 0 102 0 103 0 103 103 103 104 105 105 105 104 104 104 0 0 104 0 102 102 0 102 101 100 0 0 91 0 0 82 81 81 83 88 0 0 0 0 0 0 0 103 102 103 103 103 0 0 0 103 0 0 102 0 103 105 118 0 0 0 124 118 117 118 123 0 0 0 131 128 130 135 0 0 0 0 105 91 92 93 94 96 97 0 100 101 0 0 0 101 98 0 95 94 0 94 0 0 0 0 0 92 92 93 93 93 0 0 0 88 87 0 0 0 90 90 91 0 92 92 93 93 0 0 94 0 93 93 94 95 96 0 0 101 0 99 97 0 95 95 0 94 0 0 92 0 92 93 0 93 94 0 95 95 96 0 97 0 96 0 95 0 0 0 98 98 98 0 100 100 105 133 0 0 0 180 0 0 0 178 0 181 0 0 0 185 0 186 187 188 189 0 191 190 191 192 0 0 195 195 201 0 0 0 0 0 212 205 196 200 0 0 0 196 193 0 0 0 195 187 188 190 191 194 198 0 0 0 201 0 0 0 0 0 0 187 188 0 0 0 0 0 0 139 116 104 98 97 0 94 93 97 0 0 0 0 109 0 0 109 109 0 111 0 112 112 0 0 111 110 110 109 109 109 109 110 0 0 0 113 113 112 0 113 0 113 0 110 109 0 108 108 109 0 113 0 0 0 0 119 0 0 109 105 105 0 0 0 108 0 0 0 0 109 109 110 0 110 0 112 0 0 112 0 113 113 0 112 0 0 109 0 108 107 105 108 0 0 0 0 0 0 120 0 119 119 119 0 119 120 127 0 0 0 154 152 0 151 0 150 150 150 150 0 0 149 149 0 0 149 0 0 0 146 147 148 151 0 153 152 150 151 152 153 0 0 159 0 0 0 133 113 106 105 115 0 0 0 152 0 154 154 153 152 151 151 152 153 0 0 156 156 0 0 0 155 156 156 156 0 0 159 160 0 0 0 161 161 0 0 0 0 0 156 0 154 153 0 0 151 0 149 0 0 0 0 0 146 145 0 141 139 138 137 135 0 133 132 131 0 0 129 130 0 130 130 130 0 0 0 132 0 0 132 132 0 133 0 132 132 0 130 128 0 0 125 124 0 123 122 123 0 122 123 124 132 0 0 139 138 0 0 0 144 144 0 144 0 144 0 0 0 148 0 147 146 144 144 0 143 142 141 142 142 0 0 143 0 0 140 139 0 140 0 140 140 0 139 0 0 137 0 0 136 0 0 0 132 133 0 0 0 0 145 0 146 0 145 145 0 145 0 0 143 139 0 142 147 175 0 212 0 0 215 218 0 0 225 0 0 0 0 0 221 
0 0 99 98 99 0 99 0 0 0 0 0 86 83 82 83 84 84 0 0 85 84 85 0 84 84 84 84 84 85 86 87 87 88 0 91 91 0 93 94 0 0 0 0 0 0 0 99 0 0 0 101 0 0 102 0 0 0 0 102 0 103 0 0 0 105 105 0 0 103 104 103 104 0 103 0 0 0 0 0 0 95 92 0 86 84 82 81 82 85 0 0 0 103 103 103 0 0 0 102 103 0 103 0 104 0 0 102 101 102 103 109 0 0 0 0 130 121 128 0 0 0 0 0 133 132 0 0 0 0 0 0 106 91 92 0 94 0 96 98 99 99 104 0 0 102 98 0 0 0 0 94 93 0 0 92 92 91 0 0 0 0 0 91 89 87 87 90 0 0 90 90 0 0 92 0 0 93 0 0 93 0 0 0 94 94 97 99 0 0 100 98 96 95 94 94 94 93 92 92 0 0 0 93 0 94 94 0 95 0 97 97 0 97 96 96 96 97 0 97 0 99 100 0 100 99 106 135 0 0 0 0 178 177 178 0 0 182 0 0 184 183 0 183 184 185 186 0 188 188 190 0 0 194 0 0 197 201 0 0 0 213 0 0 200 199 0 0 0 203 203 0 0 203 195 193 0 191 191 192 196 0 0 209 198 0 0 0 0 184 0 186 0 0 0 0 0 0 0 0 0 129 109 101 100 0 94 94 96 0 104 0 0 0 0 111 0 110 0 0 0 0 112 0 0 111 0 110 0 108 107 108 0 0 0 0 113 113 113 0 113 113 0 111 110 109 109 109 0 111 113 115 117 0 0 0 0 0 113 110 108 108 0 109 109 0 110 110 110 110 0 0 0 110 110 111 112 0 0 113 113 113 113 113 0 0 111 0 109 108 106 106 109 113 0 0 0 0 120 0 119 119 0 119 119 120 135 0 0 154 152 150 150 150 0 150 149 150 150 150 149 149 149 149 0 0 149 148 147 148 0 149 0 0 0 151 151 152 154 156 0 0 0 0 0 0 116 109 104 111 123 0 0 152 154 0 0 0 153 152 151 152 153 155 0 158 156 157 0 0 0 156 0 0 158 159 160 0 0 0 161 0 0 0 160 0 158 156 154 152 152 151 150 0 148 0 0 145 0 143 143 0 0 142 0 139 138 0 135 0 0 0 130 130 130 130 0 0 0 128 129 129 129 130 131 0 132 0 133 133 0 0 133 0 132 132 0 0 127 127 126 0 124 122 0 0 0 122 121 122 123 0 0 140 138 138 0 0 144 0 0 144 0 0 144 145 0 0 0 147 0 146 145 0 144 0 0 142 0 141 142 143 143 143 0 141 140 0 140 0 0 140 0 0 0 138 137 137 136 136 0 0 0 132 132 136 0 0 0 0 146 0 146 0 145 145 145 151 0 145 139 140 141 144 159 0 0 212 0 216 216 0 0 0 0 0 0 0 0 220 
0 0 99 0 0 0 98 0 97 95 0 0 0 84 0 0 83 84 0 85 0 0 85 0 85 0 83 0 0 85 0 0 87 88 0 0 92 0 0 0 96 97 97 97 98 99 0 0 98 100 100 100 101 101 101 102 0 102 0 101 102 0 0 104 0 0 105 0 104 0 0 103 0 0 0 0 0 102 0 100 98 96 93 90 0 0 82 81 81 81 89 0 0 102 102 103 103 0 103 102 0 0 103 103 0 0 102 102 0 0 103 108 0 0 0 0 132 134 0 0 0 141 0 0 133 134 0 0 0 0 0 0 109 92 91 0 94 95 0 0 0 99 103 0 0 106 98 96 0 95 94 0 0 92 0 0 92 93 0 94 94 0 0 90 88 88 0 0 0 91 0 0 91 0 92 0 94 94 94 94 94 93 0 94 95 97 0 100 101 0 0 0 96 0 0 94 0 93 93 0 0 92 92 93 94 94 95 0 0 0 0 0 0 97 0 96 0 0 98 98 100 0 0 0 100 100 107 136 0 0 177 0 176 176 0 0 0 0 0 0 0 0 182 182 183 184 185 0 186 187 189 191 193 0 0 0 195 199 0 0 213 213 0 0 0 199 199 205 0 0 0 0 0 199 198 0 0 194 192 192 196 0 0 206 194 0 189 186 182 181 181 0 0 0 194 0 0 0 0 0 0 0 0 117 103 100 96 95 93 95 100 0 0 0 0 0 111 111 0 113 113 0 112 0 0 0 111 111 0 0 107 106 107 0 0 0 113 0 113 0 0 113 0 112 0 109 0 0 109 110 0 114 116 0 0 120 0 0 0 0 110 110 0 0 0 111 110 111 111 111 111 111 110 0 110 0 111 0 0 0 0 0 0 0 113 113 0 0 0 0 108 0 107 109 113 0 0 0 120 0 119 118 119 118 119 122 0 0 154 151 150 150 149 150 0 150 150 150 0 0 0 149 149 149 0 0 149 148 148 149 150 0 0 0 152 151 152 153 0 0 0 159 0 0 0 124 110 106 109 120 0 0 0 0 0 0 156 155 0 153 152 153 154 0 0 158 158 0 0 157 156 156 157 0 0 0 161 0 161 0 160 0 159 0 0 0 0 0 151 0 0 0 0 0 144 143 0 141 0 137 138 0 0 137 0 0 0 133 132 0 129 129 128 128 0 0 129 0 129 128 0 0 0 130 131 132 0 0 133 0 0 0 0 132 132 132 0 130 128 127 0 0 124 122 122 122 0 0 121 0 122 130 0 0 139 139 141 0 143 0 144 143 0 143 144 145 146 147 0 0 0 146 145 144 0 0 142 0 0 142 142 0 0 142 0 0 140 139 140 140 0 140 140 0 139 137 0 0 137 137 137 136 0 134 132 134 0 0 144 0 146 146 0 146 0 0 145 149 0 151 140 0 141 143 151 186 0 217 0 217 214 0 0 0 0 0 0 0 0 217 
100 0 99 0 0 98 97 96 0 94 0 0 0 84 0 0 0 0 84 84 85 85 85 85 85 0 84 84 0 85 0 0 0 87 89 0 92 93 0 94 0 0 0 98 0 99 99 99 99 0 0 100 0 101 0 0 0 102 102 0 0 0 103 104 0 0 0 0 103 103 0 0 0 103 103 103 0 0 0 0 0 0 0 0 87 84 82 0 80 81 85 0 0 0 102 0 103 0 0 103 0 103 103 102 103 0 0 103 0 102 103 106 117 131 140 138 135 146 0 0 0 139 137 0 133 134 0 0 138 139 0 0 110 93 89 0 0 0 0 0 0 98 103 0 0 0 101 96 95 0 93 0 93 92 92 93 0 0 95 95 0 0 92 90 88 88 89 91 0 91 91 90 91 91 92 0 94 0 94 94 0 94 94 94 0 0 0 0 101 0 0 97 95 94 94 94 0 0 0 0 92 92 93 94 94 0 96 96 97 98 0 0 98 96 96 0 97 98 99 100 0 0 0 102 100 102 109 136 0 0 175 174 174 0 0 0 0 0 0 182 182 181 183 0 184 0 0 184 184 186 187 190 192 0 0 195 195 202 0 0 213 0 0 0 0 207 203 205 206 206 207 207 202 198 199 0 0 0 0 193 197 0 0 201 190 188 185 182 180 178 180 181 0 0 0 0 0 0 0 0 0 0 0 0 113 102 99 0 94 93 95 100 0 0 0 0 112 112 0 0 0 113 112 0 111 0 0 0 0 0 0 107 106 107 0 112 113 0 0 114 114 0 113 0 111 109 0 109 109 111 112 0 115 117 0 0 120 0 0 0 113 112 0 112 0 0 0 0 0 0 0 112 111 111 110 110 110 111 111 112 113 0 114 0 114 0 0 0 112 0 110 109 107 106 109 0 0 0 0 120 0 0 0 0 119 129 0 0 151 149 149 0 0 0 150 150 150 0 150 150 0 149 0 0 0 149 149 0 149 150 0 0 0 153 152 152 153 0 0 0 158 0 0 0 0 113 108 107 117 0 0 0 153 0 0 0 0 154 0 0 153 154 0 0 158 0 0 0 0 0 157 0 158 159 160 0 0 0 0 160 0 0 0 0 0 0 0 0 0 0 0 143 142 0 140 0 0 137 135 133 0 0 0 133 0 131 0 0 129 128 127 127 0 127 127 127 128 0 0 129 0 130 130 131 0 132 0 0 132 133 0 0 0 133 0 0 131 0 129 127 0 0 124 0 122 122 122 0 120 0 121 0 0 0 0 140 0 0 143 143 0 0 0 143 144 0 146 147 147 0 147 145 0 144 0 143 142 0 142 0 142 143 0 143 0 142 0 140 0 140 0 140 140 0 139 0 0 0 137 0 0 137 136 0 134 133 136 0 0 0 0 146 0 146 146 0 146 147 0 0 141 141 0 142 147 171 0 220 0 0 212 0 0 0 0 0 0 0 214 212 
100 99 99 0 98 0 95 94 94 94 0 0 87 84 0 83 0 83 83 0 0 0 0 0 0 0 84 0 84 84 85 87 88 89 0 0 92 92 0 94 96 97 0 0 0 99 99 0 98 98 0 100 100 101 102 0 0 102 102 103 0 0 103 104 0 0 0 104 103 102 102 103 0 103 0 0 0 101 101 0 99 0 94 0 0 85 83 82 0 81 83 0 0 100 102 0 0 0 104 0 0 103 0 103 103 102 103 0 103 103 103 105 109 119 134 0 0 154 156 0 0 138 135 0 135 135 0 138 136 138 0 0 112 95 91 91 92 94 0 97 98 99 102 109 0 0 102 96 94 0 93 92 0 0 93 0 0 0 0 0 0 0 0 0 87 0 0 0 92 0 90 0 0 91 0 0 94 94 0 94 94 0 0 95 98 0 0 0 0 99 0 0 94 94 94 0 94 93 0 0 93 93 0 0 95 0 0 0 97 98 98 0 0 96 96 0 97 98 100 0 0 0 0 102 102 102 111 0 0 0 0 171 171 173 174 0 178 179 180 181 181 183 0 0 185 185 0 184 184 185 188 0 0 194 195 196 198 0 0 0 212 0 0 211 0 0 0 0 210 207 208 0 0 201 199 0 0 0 195 192 197 0 0 196 189 0 183 0 179 178 177 179 181 185 189 0 0 0 0 194 193 0 0 0 133 106 101 98 96 94 93 95 0 0 0 0 112 113 0 115 0 113 112 0 111 110 112 112 0 111 0 108 106 104 108 0 0 113 114 114 0 114 0 0 111 109 109 109 0 0 112 114 0 117 119 0 0 0 119 0 0 114 112 0 113 0 0 113 113 113 0 113 0 0 111 110 110 111 0 112 112 113 114 0 0 114 113 113 113 0 0 0 109 107 107 107 111 0 0 0 0 0 120 0 122 0 0 152 0 0 149 149 0 0 149 0 150 0 150 0 149 0 150 0 0 149 149 149 150 152 0 0 153 152 152 154 0 0 0 158 158 0 0 0 118 110 107 115 128 0 0 151 0 0 0 0 0 155 0 154 154 155 0 0 158 0 158 158 157 158 0 0 159 0 161 0 161 0 0 159 0 0 155 153 0 0 145 143 0 0 140 139 0 0 0 0 133 0 0 130 0 131 0 129 128 126 126 126 0 126 125 0 126 126 126 0 127 128 0 129 130 0 130 0 0 132 0 0 132 0 0 133 132 0 0 0 0 0 0 0 0 126 124 123 122 0 0 121 120 119 121 0 0 139 0 140 0 0 143 143 143 143 143 0 144 0 0 0 0 147 0 146 0 144 0 143 142 0 141 141 142 0 143 143 0 0 140 140 140 140 140 140 140 0 139 0 138 138 0 138 0 0 0 0 135 133 135 0 0 0 0 145 0 146 146 0 145 146 0 0 143 141 0 142 144 157 0 0 0 0 207 208 0 0 0 0 213 0 210 209 
0 0 99 98 98 0 0 94 93 0 0 0 87 84 83 0 0 0 0 0 84 0 84 83 84 0 84 84 84 0 0 87 0 0 0 0 0 0 0 0 96 97 98 0 99 99 0 0 0 98 99 100 100 101 102 0 0 0 102 0 0 104 104 104 0 0 0 103 103 0 0 0 103 103 0 102 102 101 101 101 99 96 94 92 0 87 84 0 0 80 81 87 0 0 102 103 103 104 104 0 103 103 103 103 0 103 0 0 0 103 103 105 110 0 0 0 0 0 155 0 0 139 134 0 0 139 0 139 138 139 0 0 0 95 90 90 91 93 95 0 98 0 101 107 0 0 102 95 93 0 93 92 93 93 93 0 95 0 0 0 0 0 89 88 87 88 90 0 0 0 91 91 91 91 0 93 94 94 0 0 93 94 0 97 98 0 0 0 0 98 96 95 0 94 0 0 0 94 94 94 0 94 94 94 95 96 97 98 0 0 98 97 96 96 96 97 0 100 0 0 105 105 0 0 0 103 111 137 0 0 0 170 170 0 172 0 176 177 179 0 182 0 0 0 0 185 0 185 0 186 188 0 0 0 195 197 202 208 0 0 209 0 0 207 210 0 0 0 0 208 207 0 0 0 202 199 199 0 0 191 197 0 0 189 184 182 0 0 177 177 177 178 0 183 186 189 0 0 192 191 0 190 0 0 0 113 102 0 0 96 94 94 95 101 0 0 0 113 0 0 0 0 111 111 0 0 0 0 112 0 0 109 0 104 106 0 0 0 0 0 0 114 114 113 0 110 110 0 0 0 0 113 0 0 0 0 120 0 119 118 0 0 0 113 113 0 0 0 0 0 114 114 113 113 112 111 0 0 0 0 112 0 113 0 115 115 0 114 0 113 0 0 110 0 107 106 107 110 0 0 0 119 0 120 125 0 0 150 150 0 149 149 0 149 0 149 0 150 0 149 0 0 0 0 149 0 0 149 151 0 0 153 152 152 154 0 0 0 156 157 0 0 0 124 110 107 112 126 0 0 0 153 0 0 158 158 157 155 155 154 155 0 0 159 159 158 157 0 157 158 159 159 159 0 0 0 160 0 0 157 0 0 152 0 0 144 140 139 139 138 136 134 0 132 131 130 129 128 125 126 127 127 126 125 124 124 124 124 124 124 124 0 124 0 125 126 0 127 128 0 0 0 131 131 0 0 132 0 133 133 0 0 131 132 0 132 0 0 0 0 128 0 0 0 122 0 121 0 120 119 121 0 0 138 138 139 0 0 0 0 142 142 142 143 0 146 0 147 147 147 0 146 145 144 0 143 0 0 0 141 142 0 143 143 0 0 141 139 140 140 140 0 0 140 0 139 138 138 0 137 0 137 137 0 0 134 134 0 0 0 0 145 145 0 146 0 0 146 0 0 145 141 141 0 144 150 180 0 0 0 201 201 204 206 207 207 207 207 0 0 
100 99 99 98 98 97 96 0 0 0 0 0 85 83 82 83 0 83 0 0 83 0 84 84 84 83 84 84 0 85 86 87 0 0 90 0 91 0 93 0 0 0 97 0 0 0 97 98 98 98 0 0 0 101 0 102 102 0 103 0 0 0 0 105 0 105 104 103 103 0 0 0 104 103 102 0 0 0 0 0 0 98 0 0 0 87 85 83 81 80 81 83 91 0 0 103 103 104 0 0 0 103 103 103 103 0 103 0 0 103 103 105 113 130 0 0 0 0 156 0 0 139 131 136 0 0 0 0 139 0 0 0 0 97 91 0 90 0 0 96 98 0 102 107 0 0 104 94 93 0 0 0 93 0 0 0 95 95 95 95 0 0 0 88 87 0 90 0 0 92 0 91 0 92 93 94 0 94 0 0 94 94 96 98 100 101 102 0 100 98 96 94 0 94 93 93 0 94 0 94 0 94 94 94 0 96 97 0 0 0 0 97 95 95 96 98 100 102 103 0 0 0 0 101 101 102 110 0 0 0 0 167 0 0 171 172 174 176 178 0 0 0 0 0 0 184 184 185 186 187 188 0 191 191 194 200 0 0 0 0 207 0 0 202 203 0 0 0 0 212 208 211 0 0 0 201 199 0 191 190 0 0 190 181 181 178 177 177 177 176 178 179 180 181 184 186 188 190 190 189 189 188 187 0 0 126 104 100 0 0 0 94 93 94 102 0 0 114 115 0 0 114 112 0 0 112 0 0 0 112 0 0 0 105 104 107 0 112 0 114 0 0 0 0 112 110 111 0 111 0 112 113 0 116 117 0 119 119 119 118 118 0 0 115 114 0 115 0 0 116 0 114 0 0 114 113 0 112 111 112 112 0 113 114 0 0 0 114 114 114 113 0 111 110 108 107 106 106 109 113 0 117 0 120 131 0 0 149 149 149 149 149 149 0 149 149 149 0 0 149 0 149 149 0 149 0 150 150 0 0 0 151 151 153 0 0 156 155 0 0 0 0 133 114 108 110 124 0 0 0 0 156 0 0 0 0 0 156 156 0 158 0 159 159 0 0 157 157 158 0 0 0 0 0 0 0 0 157 0 0 152 150 148 0 144 139 137 0 136 0 132 131 0 129 127 127 0 124 122 124 0 124 123 122 122 122 122 122 122 0 122 123 0 123 125 126 126 126 127 0 0 131 130 131 0 131 131 0 0 133 133 0 132 132 132 131 131 130 129 129 128 0 0 124 122 122 121 120 0 0 120 128 0 138 0 0 0 0 142 142 0 142 142 143 0 146 0 0 147 0 147 146 145 144 143 143 0 142 142 142 142 142 143 0 0 0 141 139 0 0 141 0 140 140 0 139 0 138 0 137 0 137 136 137 0 135 135 137 140 0 144 0 145 0 146 0 0 145 157 0 149 141 142 143 145 148 163 0 0 0 200 198 199 0 201 202 202 202 0 203 
0 99 0 0 0 0 0 94 93 92 0 88 84 82 0 83 0 83 83 0 84 0 0 0 84 0 0 85 0 85 0 87 88 89 90 90 91 92 0 94 95 96 97 97 98 98 97 97 96 98 0 99 99 101 0 101 102 102 102 0 0 104 104 0 0 0 103 103 0 102 0 0 0 0 0 0 0 0 0 0 0 0 0 94 90 0 85 83 0 0 80 82 87 0 0 0 0 0 0 0 104 103 103 103 103 0 103 103 103 103 103 105 0 0 142 151 0 0 157 152 0 138 131 0 0 141 0 0 139 0 0 0 0 99 90 90 91 0 0 96 0 0 101 104 0 0 0 98 93 0 0 0 94 94 95 95 0 0 0 0 93 91 89 88 88 0 91 0 92 91 91 91 0 0 0 0 0 94 94 94 0 94 96 99 0 0 0 0 99 0 96 0 94 0 94 0 0 94 0 94 0 0 94 0 96 97 0 0 99 99 0 97 96 96 97 98 0 0 0 0 105 0 101 100 100 100 110 0 0 0 164 164 166 167 169 0 172 175 0 0 0 182 183 183 184 0 185 185 0 187 188 0 190 191 196 0 211 0 0 208 207 0 0 199 199 204 0 0 0 0 0 212 214 0 0 0 197 192 186 186 0 0 183 180 178 176 174 175 177 178 0 180 181 182 184 186 187 189 189 189 189 0 188 0 0 143 110 102 100 98 96 95 93 92 94 103 0 0 0 116 115 114 0 112 111 111 0 112 112 112 0 111 0 106 103 104 0 111 0 113 113 114 0 0 112 111 0 112 111 111 111 0 114 0 117 118 119 0 0 0 119 118 0 0 116 115 115 116 0 0 0 116 0 0 0 0 114 113 112 112 113 0 114 0 0 0 0 116 0 0 0 0 0 0 0 108 0 107 107 109 112 0 0 120 134 0 150 0 149 0 0 0 0 0 149 0 149 0 0 149 0 0 149 0 0 150 150 0 0 153 152 152 154 0 0 0 0 155 0 0 0 0 118 109 110 121 0 0 0 0 156 0 0 159 159 0 157 156 0 0 0 0 159 159 0 158 157 157 158 0 0 0 0 160 159 0 156 154 0 151 0 146 145 0 0 136 135 0 134 132 130 0 128 127 126 126 125 123 121 123 123 123 0 0 121 121 121 121 122 0 122 122 123 124 125 0 0 0 0 129 0 130 130 131 0 132 132 132 133 133 133 0 131 0 132 0 0 130 0 129 0 127 0 124 123 0 0 120 119 0 119 0 0 0 140 0 141 141 0 0 0 0 0 144 0 146 146 0 147 0 0 146 145 144 144 0 143 0 142 0 0 0 0 143 143 0 0 140 141 0 0 0 140 140 140 0 0 0 0 0 0 0 137 0 0 136 135 136 138 0 0 0 0 0 146 0 145 145 155 0 154 142 142 143 144 146 154 188 0 0 200 194 0 196 0 0 0 199 199 199 
99 99 0 98 97 0 95 0 92 91 0 87 84 82 0 83 83 0 0 84 0 0 0 0 84 83 84 0 0 85 86 87 0 0 90 91 0 92 93 0 0 0 0 97 98 98 0 0 97 98 99 99 0 101 0 0 102 0 102 103 103 0 0 0 0 0 0 0 102 102 102 103 0 103 103 0 102 102 102 102 0 0 97 94 0 0 86 83 82 81 80 80 84 92 0 0 103 103 104 0 0 0 0 103 102 103 0 0 103 102 103 104 119 0 0 151 154 0 0 151 143 136 130 134 0 0 0 0 140 0 0 0 120 100 91 0 91 92 94 96 0 99 0 102 111 0 0 101 93 93 93 94 0 95 95 0 0 96 0 95 93 0 88 88 89 0 91 0 0 0 91 91 92 93 94 0 0 0 94 94 94 94 97 100 0 0 0 99 0 97 0 94 94 94 94 0 94 93 0 93 94 0 95 0 0 0 98 98 99 0 98 97 97 98 98 101 0 0 0 0 0 102 102 101 0 103 111 135 0 0 163 162 163 0 0 169 0 0 176 0 180 0 181 182 0 0 0 186 186 0 0 0 190 192 201 0 0 0 0 202 0 0 202 199 199 200 208 0 0 0 0 213 212 220 0 0 199 189 183 186 0 0 180 0 0 176 175 175 177 0 0 182 183 0 185 187 0 189 0 0 0 0 0 0 0 0 122 105 101 99 0 0 94 93 92 95 104 0 0 0 0 113 0 112 111 0 111 111 111 0 0 111 0 0 0 103 107 0 113 113 112 113 0 114 112 113 0 0 0 110 110 112 0 115 0 0 0 0 0 0 0 0 118 0 118 117 0 116 117 117 117 117 117 117 116 116 0 114 0 0 113 113 0 115 115 116 0 0 0 0 0 114 113 112 0 110 109 0 109 108 108 0 113 117 0 0 0 0 148 148 0 148 148 148 0 149 149 0 0 149 149 149 149 0 149 150 152 0 0 152 153 0 0 0 0 156 155 154 0 0 0 125 110 108 120 0 0 0 0 0 0 0 0 0 0 157 0 158 0 0 0 158 0 159 0 158 0 159 159 160 0 160 0 158 156 0 0 152 0 147 0 144 142 0 138 135 134 0 132 131 129 0 128 126 125 126 0 124 122 0 123 123 122 121 120 121 121 0 122 0 123 0 124 0 0 0 126 127 127 128 0 0 130 131 0 132 0 0 133 133 133 0 0 0 0 0 131 130 0 0 128 127 0 0 123 0 121 119 119 119 119 127 0 138 0 0 141 140 141 142 142 142 142 144 0 0 146 0 147 0 0 145 0 144 0 0 143 142 141 142 0 143 143 143 143 0 142 141 141 0 141 141 0 0 140 0 139 138 137 138 138 138 137 0 0 0 0 134 137 0 0 0 145 0 146 0 145 145 152 0 159 143 142 143 144 145 149 173 0 0 203 190 190 191 193 0 0 195 0 0 
99 0 98 97 0 0 0 93 92 90 0 0 84 82 82 83 0 0 84 84 84 84 84 0 0 83 84 85 0 85 0 87 0 0 0 0 0 92 0 94 95 0 0 0 0 98 98 0 98 0 0 0 100 100 102 102 101 102 0 0 0 102 101 102 0 101 102 0 100 101 102 101 0 103 103 103 102 101 100 101 0 0 97 95 93 0 0 84 82 81 0 80 82 88 0 0 0 102 103 104 0 0 104 0 0 0 0 0 103 0 103 102 114 0 0 0 153 156 0 0 0 138 133 134 0 0 141 141 140 143 0 0 0 102 91 0 91 92 0 95 97 0 100 102 110 0 0 106 95 94 94 0 0 0 0 95 96 0 0 0 0 90 88 88 0 91 0 92 91 90 91 91 93 0 0 94 94 94 94 0 95 97 0 0 0 102 101 99 0 96 0 0 94 0 94 0 94 0 94 94 94 0 0 96 96 98 0 99 99 0 98 0 98 0 0 0 0 0 0 0 0 0 0 103 103 105 115 138 0 0 162 161 161 162 0 166 0 172 0 0 178 0 0 181 182 184 0 0 188 0 0 189 190 197 0 0 0 0 201 197 0 0 199 199 199 200 205 0 0 0 0 213 210 216 0 0 201 186 181 0 0 178 175 175 175 176 0 0 0 180 181 0 0 0 187 0 0 0 189 189 189 0 0 190 0 0 140 110 103 101 99 97 95 0 93 92 96 0 0 0 0 113 0 112 0 111 111 0 111 0 112 0 0 0 0 104 106 0 0 0 113 114 0 0 113 114 0 0 114 112 111 112 0 0 0 0 0 118 118 0 119 119 0 0 0 119 0 0 118 118 118 118 0 0 0 0 0 116 0 114 0 0 115 0 116 116 0 0 116 115 115 114 114 0 113 0 0 0 0 109 106 106 108 114 0 0 150 149 147 148 148 0 148 148 0 149 149 0 0 149 149 149 149 149 150 151 0 0 153 152 153 0 156 0 0 155 0 154 0 0 0 113 109 119 0 0 0 154 0 0 158 158 159 0 159 158 158 158 0 0 158 158 159 159 159 159 0 0 0 0 0 0 0 0 0 153 151 0 0 144 143 0 0 0 136 133 132 0 132 131 129 129 128 127 127 127 127 126 125 0 126 124 0 124 122 122 122 123 123 123 124 0 0 125 126 0 127 0 127 128 129 129 130 0 132 132 0 0 133 0 133 0 0 132 0 0 131 130 130 0 128 0 125 123 123 0 121 119 0 118 118 126 0 0 0 0 0 141 0 0 142 142 142 0 145 0 146 147 0 147 0 145 0 145 0 144 0 0 0 142 0 143 143 143 0 0 142 140 141 0 141 140 0 0 139 139 0 138 0 0 138 0 0 0 0 0 136 134 135 138 0 0 145 0 146 0 0 145 151 0 0 144 142 143 0 144 147 160 0 0 207 186 186 187 0 0 0 191 0 0 
99 0 0 97 95 95 0 93 0 0 0 0 84 83 0 83 84 0 0 84 0 83 83 83 84 84 84 85 85 85 86 88 89 90 90 0 92 0 0 94 95 96 0 0 0 0 98 0 97 99 100 0 101 0 102 102 101 101 102 0 102 101 0 0 0 0 100 0 101 0 0 102 0 103 0 0 0 0 101 101 0 100 0 0 93 0 0 85 0 81 0 0 81 84 92 0 0 102 0 103 0 104 104 0 102 102 101 102 0 0 103 103 111 0 0 0 159 154 0 0 0 142 0 0 138 0 0 141 141 143 0 0 0 105 90 90 90 0 0 0 96 98 99 101 108 0 0 0 98 94 0 94 94 0 96 96 0 97 96 0 0 88 88 89 0 91 0 0 92 91 0 0 0 0 0 94 0 93 93 94 96 99 0 103 0 0 100 0 97 96 95 0 0 0 94 0 95 0 0 0 0 0 95 96 97 99 0 99 99 99 98 99 100 0 0 0 103 0 102 103 104 104 104 105 107 117 131 0 0 0 161 160 159 160 162 164 167 170 173 0 177 0 0 181 182 0 0 0 0 0 188 188 195 0 0 0 0 204 191 197 0 0 197 0 0 200 0 208 0 0 0 214 208 210 0 0 202 185 181 0 0 174 173 174 0 0 177 0 0 180 181 183 185 0 188 189 0 0 0 0 188 189 190 0 0 0 0 123 105 103 101 99 97 95 93 93 92 96 0 0 0 113 0 0 111 111 111 0 0 112 0 112 0 110 108 105 105 0 0 113 113 0 0 115 114 115 116 0 0 113 112 112 113 114 115 116 116 0 116 118 119 120 120 120 119 0 0 0 0 119 119 119 119 118 118 0 0 118 0 115 116 116 116 116 116 0 0 116 116 115 115 0 0 115 115 0 0 113 0 0 108 106 105 112 0 0 150 149 0 0 0 0 148 148 0 149 149 149 149 149 149 0 0 149 150 0 0 153 152 152 153 0 0 0 153 153 0 0 0 0 120 109 118 0 0 0 0 0 0 0 158 158 159 159 159 0 159 159 0 0 158 0 0 0 159 0 0 159 159 159 159 0 0 0 0 0 0 0 0 143 0 141 0 0 134 132 132 132 132 0 0 0 129 0 0 129 129 0 129 0 0 128 0 127 0 126 126 125 0 125 126 125 125 126 126 127 0 128 0 129 0 130 131 0 0 0 132 133 133 133 0 0 131 131 0 131 131 0 0 0 129 0 126 0 0 0 0 120 0 117 117 124 0 0 139 0 141 0 141 0 0 142 0 144 144 0 146 0 0 147 0 146 145 144 0 144 0 142 141 142 0 143 143 143 0 0 142 141 141 0 0 140 141 0 140 139 0 138 0 0 138 0 137 137 0 0 0 136 135 138 0 0 145 0 146 0 0 145 148 0 0 145 143 0 0 145 147 153 191 0 0 182 181 0 0 185 186 187 187 0 
0 0 0 97 0 94 93 93 0 0 88 85 83 83 83 0 84 0 84 84 0 83 0 0 84 84 85 0 86 86 87 0 0 90 0 0 92 0 93 0 95 96 97 98 98 0 98 98 98 0 100 0 0 0 0 0 0 0 0 0 100 100 99 100 101 0 0 100 0 0 0 0 0 103 104 0 103 102 0 0 0 100 98 96 93 91 88 0 83 81 81 0 80 81 88 0 0 0 0 102 103 103 0 0 103 0 0 102 0 103 0 103 108 132 0 0 0 154 157 0 0 142 138 138 138 0 0 140 141 143 0 0 0 107 91 89 89 91 92 94 0 0 0 102 106 116 0 0 102 95 95 94 0 96 0 0 96 0 0 0 90 87 88 89 90 92 0 93 0 0 0 93 92 94 0 94 0 93 93 95 97 0 0 103 0 0 99 0 96 0 0 94 94 0 94 95 0 0 95 94 94 0 95 97 99 0 100 100 99 99 0 100 0 102 0 104 103 103 102 103 105 105 108 113 123 137 0 0 0 162 161 159 159 160 161 163 166 167 172 0 176 0 0 181 0 0 0 188 0 0 189 195 0 0 0 0 0 190 186 200 0 0 193 193 194 197 0 0 208 0 0 0 207 205 0 0 0 186 182 0 175 172 173 173 174 176 177 179 0 181 181 0 0 186 0 0 190 190 0 188 187 187 0 0 192 0 0 144 112 104 0 0 99 0 95 94 93 92 95 0 0 0 112 111 111 0 110 0 111 0 0 112 0 0 0 106 104 0 0 113 114 0 0 115 115 116 0 0 0 0 113 0 0 0 0 115 116 116 116 0 0 0 0 0 120 120 120 0 0 0 0 0 120 0 119 119 0 119 0 118 0 117 0 0 0 117 0 0 0 116 116 0 0 116 116 0 0 0 0 112 0 0 106 114 0 0 150 149 0 0 149 148 0 149 149 149 0 148 148 0 0 149 149 0 151 0 153 0 152 152 0 0 0 153 151 152 0 0 0 127 112 116 0 0 0 155 0 0 159 159 0 159 0 159 159 0 160 0 0 157 0 0 158 0 158 0 0 158 0 0 0 0 0 0 150 148 146 144 142 140 140 0 0 136 133 133 0 0 133 133 133 133 133 0 133 132 0 132 0 0 0 0 0 131 0 0 0 129 0 128 0 0 0 128 0 0 128 129 0 0 0 131 0 132 0 0 133 0 0 0 132 0 131 131 131 0 131 0 0 130 129 0 126 125 125 124 0 119 118 116 115 122 0 0 139 0 140 141 141 141 0 142 143 0 0 145 0 0 0 147 0 0 0 143 0 0 0 142 142 0 142 0 143 143 0 0 0 142 142 0 0 141 141 0 0 139 138 137 137 0 0 137 137 137 0 0 0 0 136 136 140 0 0 0 146 0 145 144 146 0 0 148 142 143 144 145 147 150 176 0 0 181 178 0 0 181 181 0 0 184 
0 97 0 0 0 0 0 93 0 0 88 85 82 83 0 83 84 84 84 83 0 83 84 0 84 0 0 86 86 0 88 88 89 90 0 92 91 0 93 94 0 0 97 0 97 98 0 98 98 98 0 0 100 101 101 102 101 102 0 100 99 0 0 99 0 0 100 100 100 101 102 102 103 0 0 0 0 0 102 102 0 0 0 0 94 0 89 86 84 82 0 80 80 81 85 0 0 0 103 103 103 0 0 0 103 0 102 0 102 102 0 103 106 126 0 0 0 155 157 0 0 145 138 138 0 140 141 142 0 144 0 0 0 112 93 90 89 0 92 93 0 97 0 0 106 0 0 0 110 97 95 0 0 0 97 0 97 97 0 0 90 87 88 90 91 0 0 0 0 92 91 0 0 0 94 93 93 0 94 96 99 0 0 104 0 0 98 96 95 95 94 94 94 0 0 95 0 0 0 94 94 94 96 98 100 0 0 101 0 99 98 100 0 0 0 104 0 103 0 104 107 112 121 134 0 0 0 0 0 0 162 0 162 162 0 164 166 0 0 0 176 0 0 0 0 0 0 0 187 187 194 0 0 0 0 0 190 182 185 0 0 202 189 189 190 192 0 201 202 0 0 0 206 199 206 0 199 189 0 177 171 0 0 173 174 176 0 0 0 0 182 182 184 186 0 0 0 0 0 187 187 187 0 0 0 0 0 0 127 107 103 0 0 0 98 96 95 94 93 98 0 0 0 112 112 0 111 0 111 111 0 0 0 0 0 0 105 106 0 0 0 116 116 116 116 0 0 117 116 0 112 112 114 114 115 115 116 0 117 0 119 119 119 0 120 0 0 119 119 0 0 0 0 0 0 119 0 0 0 0 0 118 0 117 117 117 0 117 117 116 116 117 0 0 117 116 116 0 115 0 112 110 109 120 0 0 150 148 149 0 149 149 149 0 0 0 148 148 148 0 0 0 149 149 0 0 0 152 0 152 152 153 152 151 151 151 0 0 0 115 114 0 0 0 0 0 0 0 159 0 159 159 0 159 0 160 161 0 159 157 0 159 158 158 0 157 0 157 156 156 0 154 0 0 0 145 143 142 140 138 138 0 0 135 132 133 134 135 135 0 0 135 0 0 0 0 0 134 0 134 134 134 0 134 0 0 0 0 131 131 131 0 130 130 130 0 0 130 131 0 132 132 0 132 0 0 133 0 133 133 132 0 131 131 0 0 130 130 0 130 0 128 0 126 0 0 0 120 0 0 115 119 0 136 0 0 0 0 141 141 141 142 142 0 0 145 0 147 0 147 0 0 144 144 0 144 0 143 142 0 142 0 0 142 0 0 143 0 142 0 141 0 141 0 0 0 0 137 137 137 137 137 137 0 137 0 0 0 135 135 138 0 0 0 0 0 0 144 146 161 0 154 142 143 143 143 146 148 163 0 0 180 173 0 0 176 177 0 0 0 
95 95 0 0 0 94 0 93 0 0 0 0 83 0 83 0 0 0 0 84 84 0 84 84 0 84 85 0 87 0 88 88 0 0 0 0 92 0 94 94 0 97 0 98 98 98 0 0 0 99 99 0 101 100 101 0 102 0 101 0 98 97 97 98 99 99 100 100 100 0 102 102 103 0 0 102 101 102 102 102 0 0 0 97 95 0 89 0 84 83 0 80 80 80 82 0 0 0 0 103 104 0 105 104 0 0 101 101 101 102 103 103 104 122 0 0 0 157 153 0 0 147 139 138 138 139 0 143 0 145 0 0 0 0 93 90 0 0 0 93 94 96 0 99 102 111 0 0 0 98 95 96 97 0 97 97 97 97 0 93 89 87 0 0 0 0 0 92 92 91 91 92 93 94 0 94 94 0 95 98 100 0 0 0 0 0 0 96 95 0 94 94 94 94 93 0 95 94 95 95 95 95 98 0 101 0 0 0 0 0 99 102 0 0 0 104 103 104 108 112 120 134 0 0 0 0 0 167 164 163 163 0 0 0 165 165 166 0 0 172 175 0 0 0 0 0 0 185 185 191 0 0 0 0 0 191 181 181 186 0 0 198 186 186 187 188 0 0 199 205 0 0 206 196 203 0 193 0 0 173 170 170 171 0 0 0 0 179 0 0 0 0 185 186 0 190 190 0 188 187 187 187 187 188 0 0 0 0 149 116 105 104 0 0 100 0 0 0 95 94 98 0 0 0 112 112 112 0 111 111 111 112 0 0 0 0 106 105 109 0 0 0 117 117 117 117 0 117 0 0 113 113 0 0 115 0 0 0 0 0 118 0 118 0 119 119 119 119 118 117 0 120 0 0 120 119 119 0 120 0 119 118 118 117 117 117 117 117 0 0 0 0 0 118 118 0 118 0 116 115 113 112 112 125 0 0 150 149 149 149 149 0 0 149 149 0 148 148 148 148 149 0 149 149 0 152 0 151 151 0 0 0 150 150 150 150 0 0 121 112 126 0 0 0 0 0 158 158 159 0 159 0 159 0 0 160 0 0 157 158 0 0 0 0 0 156 157 0 0 0 0 152 150 0 0 142 141 0 0 138 0 138 137 135 133 134 0 0 0 137 137 138 138 0 0 0 136 136 0 136 0 135 0 0 0 0 0 0 0 0 0 0 0 0 131 0 0 0 0 133 0 133 133 133 133 133 132 0 0 133 0 132 0 131 131 131 131 130 130 0 0 0 127 0 126 125 123 120 0 117 115 118 0 0 0 0 141 141 141 142 142 142 142 0 145 146 147 0 0 147 0 145 144 0 0 144 0 0 142 142 142 0 0 143 0 0 143 142 141 141 142 0 141 0 140 140 0 0 138 0 0 0 137 136 137 0 137 137 0 0 137 0 143 0 145 0 144 144 144 156 0 160 143 143 0 0 145 147 155 0 0 181 169 169 170 0 172 0 175 176 
0 96 94 94 94 93 93 0 91 89 86 84 83 82 0 82 83 84 84 0 84 0 0 0 0 0 0 86 87 87 0 89 0 91 91 0 0 0 0 95 0 0 0 0 0 0 0 0 0 0 99 0 0 0 0 0 0 0 0 0 0 96 97 0 99 100 0 0 0 102 102 103 103 0 102 102 102 0 102 0 102 101 99 97 0 0 90 0 85 83 0 81 80 80 81 86 0 0 0 104 0 0 0 104 103 0 101 0 0 0 0 0 103 117 0 0 0 0 155 154 0 0 138 138 138 139 0 143 0 0 0 0 0 0 94 89 89 89 91 0 0 0 0 99 101 108 0 0 0 103 97 96 97 0 0 97 0 0 0 92 0 89 0 0 92 0 91 91 0 0 0 92 0 0 0 0 0 95 97 100 103 0 0 0 100 98 97 95 0 94 94 0 93 0 94 94 0 95 0 0 96 0 0 0 0 102 0 101 100 99 99 0 0 106 0 104 105 110 121 137 0 0 0 0 0 0 0 169 166 165 165 166 166 167 167 0 167 0 170 170 173 0 0 0 181 182 0 183 187 204 0 0 0 0 195 184 183 182 188 0 0 194 185 184 185 186 0 0 197 199 0 0 207 199 0 0 194 0 176 169 169 0 170 171 0 0 176 0 0 0 0 0 0 0 0 190 190 0 0 188 0 186 186 186 187 188 0 0 0 135 110 105 104 103 102 101 0 98 96 95 94 97 0 0 0 0 112 112 0 0 112 0 0 113 0 0 106 103 108 0 0 0 0 0 0 117 118 0 0 0 115 0 115 0 115 115 0 115 115 116 116 0 118 118 118 118 0 0 0 118 118 0 0 0 0 0 119 119 120 0 0 0 0 0 0 0 119 0 0 0 0 119 119 119 0 0 0 0 0 0 115 114 114 129 0 0 149 149 0 0 149 0 0 149 148 0 148 0 148 148 148 0 147 0 0 151 151 150 0 151 0 150 149 0 150 0 0 0 113 122 0 0 0 154 0 0 157 158 0 159 159 0 159 158 159 0 0 159 0 158 0 158 0 0 156 156 0 0 0 152 151 149 0 0 143 141 140 140 138 138 0 0 137 136 136 0 137 138 138 138 0 0 0 0 0 137 136 0 0 138 0 137 137 137 136 0 136 0 134 0 0 133 132 0 133 0 134 0 134 0 0 134 133 0 0 133 133 0 0 0 0 131 0 131 0 0 0 0 130 129 128 127 127 127 0 0 123 121 119 0 115 117 0 0 138 0 141 0 0 0 0 143 0 144 145 0 147 0 147 0 146 0 145 144 144 144 144 0 143 0 142 0 0 142 143 0 143 142 141 141 0 0 141 0 140 140 139 0 0 138 0 0 137 137 0 137 137 0 0 136 137 139 0 0 144 0 144 144 143 151 0 0 144 143 0 144 144 146 150 179 0 186 165 163 164 165 166 169 171 172 
0 0 0 0 94 0 93 0 0 0 86 83 82 0 0 82 0 0 0 0 84 84 84 0 0 0 86 0 87 87 0 90 0 91 0 0 94 94 95 95 94 95 97 97 97 97 97 97 97 98 99 100 101 101 101 101 0 0 0 97 96 94 0 0 100 100 101 102 0 0 0 0 0 0 0 103 103 102 102 0 102 101 0 0 95 0 0 0 85 83 82 81 0 80 80 82 90 0 0 0 0 104 0 104 0 103 0 101 100 101 102 0 104 109 128 0 0 0 0 154 0 145 139 0 0 140 0 0 0 0 0 0 0 0 95 88 88 89 90 92 94 96 0 0 101 108 0 0 0 109 97 96 96 0 0 0 97 96 0 90 88 0 90 0 92 92 0 0 0 91 91 93 0 0 95 0 94 95 99 0 0 0 0 100 99 0 96 95 94 93 0 0 0 0 0 94 0 95 96 0 97 99 0 0 102 101 0 100 0 100 102 0 0 106 106 108 118 132 152 0 0 0 0 0 0 176 174 0 170 167 167 0 0 169 0 0 167 0 169 170 172 175 0 0 0 180 180 184 202 0 0 0 0 0 188 185 0 185 193 0 0 189 183 0 0 183 186 0 0 196 202 0 210 209 0 0 192 0 169 166 0 0 0 170 171 173 0 0 0 0 0 182 185 188 0 0 0 0 190 188 187 185 185 185 185 185 187 0 0 0 125 107 105 104 0 0 0 0 98 96 96 95 96 103 0 0 0 112 112 112 112 0 0 113 0 0 0 104 103 0 0 0 0 0 0 0 0 0 118 117 116 115 115 0 0 115 115 115 115 0 116 117 0 117 0 118 0 0 118 118 118 117 117 118 0 0 0 0 120 0 120 119 0 0 120 0 0 0 118 118 119 119 120 0 0 0 0 0 0 0 0 0 115 0 0 151 149 0 148 147 0 149 149 0 0 0 147 148 148 0 148 148 149 0 150 0 0 149 0 0 150 149 149 0 0 0 0 119 114 0 0 0 0 0 0 157 0 157 158 0 0 0 0 158 0 0 159 159 0 0 158 157 156 155 155 0 0 0 153 151 150 149 0 0 142 0 141 0 140 0 0 0 137 137 138 138 0 0 0 0 0 0 0 141 140 138 137 0 0 139 0 0 0 0 137 0 136 136 135 0 0 134 0 134 0 0 134 0 135 135 0 0 0 134 133 133 0 133 0 132 131 131 0 130 130 130 0 0 130 129 0 127 0 127 0 0 0 0 119 0 114 116 0 0 138 0 140 142 0 0 144 144 0 144 0 0 147 147 147 0 146 0 145 0 144 0 0 0 143 0 142 142 142 143 0 0 0 142 142 142 142 0 141 141 0 0 140 0 138 138 0 137 137 137 137 137 0 0 137 135 135 137 0 0 144 0 0 0 144 147 0 0 147 144 0 144 0 144 148 165 0 0 166 163 163 165 165 165 167 170 
96 95 94 0 0 0 93 93 0 90 87 84 83 0 83 83 83 83 84 0 0 84 84 0 84 85 85 0 87 0 0 90 0 0 0 0 94 0 0 0 0 0 0 97 0 97 0 0 0 96 99 0 100 0 0 100 99 98 97 95 95 94 96 99 0 0 102 102 103 0 0 104 0 0 0 0 0 103 103 0 0 0 100 98 96 94 0 87 85 84 0 81 0 80 80 82 87 0 0 103 103 102 103 0 0 103 0 0 101 101 101 102 103 106 118 131 145 0 0 0 150 143 138 0 0 0 0 0 134 130 131 135 0 0 96 89 88 88 0 0 92 0 0 98 100 106 117 0 0 0 98 94 95 0 97 0 0 0 0 89 88 89 91 0 92 0 92 91 92 92 0 0 0 0 0 94 95 97 100 0 0 105 102 100 98 0 96 0 93 93 93 93 0 94 93 94 95 96 0 0 98 0 0 0 0 0 99 98 99 102 0 0 111 111 115 127 147 0 0 0 0 0 0 184 0 0 177 0 173 0 169 0 0 0 170 0 169 169 0 167 170 0 0 0 176 176 182 200 0 0 0 0 0 196 184 184 0 186 198 0 0 183 181 0 0 179 181 0 0 193 198 0 0 0 0 0 187 172 164 165 0 167 167 169 0 0 0 176 0 179 181 183 186 189 193 193 0 0 190 0 0 185 184 183 0 184 186 0 0 0 0 119 108 105 103 103 0 101 0 0 0 96 94 95 101 0 0 0 113 112 112 112 0 113 0 0 109 106 102 104 109 0 0 115 116 116 117 0 0 0 0 115 0 0 0 115 115 115 114 115 0 116 117 0 0 117 117 118 0 0 118 117 116 117 118 118 0 119 120 0 0 120 0 0 0 0 119 119 118 119 119 0 0 121 0 0 119 118 0 0 0 113 115 0 0 151 0 149 148 0 0 149 148 0 0 0 148 148 148 0 148 148 0 0 150 150 150 149 150 0 0 149 149 149 0 0 130 111 126 0 0 0 0 156 156 156 0 157 157 0 158 158 158 158 0 158 159 0 157 0 0 157 0 156 155 0 154 153 152 0 149 148 147 0 142 0 142 142 142 143 0 140 138 0 0 0 141 141 141 0 142 0 0 0 0 0 140 0 0 140 0 0 0 138 0 137 137 0 0 136 0 135 135 135 135 135 135 0 0 134 135 135 135 0 0 133 0 133 132 0 130 131 0 131 130 130 130 0 0 0 0 128 0 127 0 126 124 122 0 0 113 113 0 0 0 0 141 0 143 0 144 144 0 0 146 0 147 147 0 0 146 0 145 0 0 145 0 143 0 142 142 0 0 143 143 0 143 0 0 0 142 142 141 0 141 0 0 0 0 0 137 137 137 137 137 137 137 0 0 0 135 136 139 0 0 143 144 0 143 145 162 0 152 143 144 144 0 0 147 157 0 0 172 166 0 0 171 170 170 170 
95 94 94 94 0 94 93 0 0 0 0 85 83 83 83 0 83 0 0 0 83 84 84 0 0 0 85 0 86 0 0 89 0 91 92 93 93 94 95 95 95 0 96 0 97 97 0 98 0 0 0 0 0 0 0 0 0 0 0 95 95 0 0 0 0 0 0 0 103 0 104 104 104 104 105 0 104 103 0 0 0 0 0 0 0 0 0 0 0 0 0 81 0 80 0 81 84 0 0 0 0 101 102 103 0 0 102 102 0 0 102 102 102 104 114 128 137 147 0 0 0 139 134 0 0 0 131 129 127 126 129 0 0 0 98 88 88 89 90 91 93 95 0 99 0 104 113 0 0 0 99 93 0 0 0 0 0 95 92 88 88 0 0 0 92 0 91 92 0 0 0 0 94 94 93 94 96 100 0 0 0 0 101 99 97 96 0 0 93 0 93 93 94 94 95 0 0 0 0 0 99 0 101 101 100 99 99 99 102 106 109 111 115 125 141 0 0 0 0 0 0 0 0 187 0 182 0 0 175 173 172 0 0 172 171 171 0 169 169 167 169 172 175 176 174 181 199 0 0 0 0 205 198 191 183 0 183 184 0 0 0 179 177 176 175 174 176 179 0 0 191 201 0 0 0 0 185 166 161 163 0 0 0 167 0 0 0 174 175 178 185 191 196 199 199 197 193 191 0 0 0 185 183 182 183 184 0 0 0 0 0 150 123 110 105 103 103 102 0 0 0 97 0 93 94 99 0 0 0 113 112 112 112 0 0 112 0 0 105 102 102 108 0 0 0 0 116 117 0 117 116 117 0 0 116 0 0 115 115 114 115 0 0 0 117 117 117 118 0 0 118 0 117 117 117 117 117 118 119 0 120 0 0 0 119 118 119 120 0 0 0 0 0 121 121 0 119 117 0 115 113 112 115 0 0 151 0 149 0 149 0 149 0 148 148 0 0 148 0 0 148 149 0 149 150 150 0 0 0 150 149 148 149 149 0 0 117 115 0 0 0 154 155 155 0 0 156 156 0 0 157 0 0 0 0 0 0 0 0 0 157 156 0 156 0 0 152 152 151 150 0 148 0 145 143 143 0 144 0 0 0 140 140 0 0 0 142 0 0 142 143 0 143 142 141 0 141 0 0 141 140 0 0 0 137 0 0 0 0 0 136 0 0 0 135 0 0 0 0 0 0 0 135 134 134 0 0 133 132 131 130 130 0 0 0 0 130 0 129 129 0 0 127 0 127 126 0 0 0 0 113 114 0 0 0 0 141 0 142 0 0 145 145 146 0 0 147 147 0 0 146 0 145 0 145 145 0 0 142 141 142 142 0 143 0 0 143 143 142 142 142 0 142 141 140 0 0 0 138 138 0 0 0 137 0 0 0 137 0 136 136 0 138 0 0 0 0 0 142 144 155 0 160 144 0 0 145 145 147 152 0 0 181 175 0 0 0 0 174 172 
0 0 94 94 94 93 0 0 0 0 88 85 83 82 83 0 0 84 0 83 84 0 84 84 85 85 85 86 86 87 0 89 89 90 0 0 93 0 94 0 95 95 95 96 0 97 0 98 98 0 0 98 99 98 0 96 95 95 94 93 95 0 0 0 100 102 103 0 103 0 0 0 0 0 0 0 0 102 103 103 103 103 0 0 97 95 0 90 87 0 83 82 81 0 80 81 82 88 0 0 0 0 0 0 103 0 102 102 0 0 0 0 103 105 119 0 0 152 154 0 0 136 128 132 0 131 126 126 126 127 129 0 0 0 101 88 88 89 90 91 0 95 0 99 100 101 109 0 0 0 104 93 93 96 0 0 0 0 91 88 88 0 92 0 92 0 92 0 0 93 93 0 94 94 93 95 99 0 0 0 0 101 99 98 0 96 0 94 93 94 94 0 0 0 0 0 97 97 98 99 100 0 0 0 0 100 100 102 107 111 114 121 133 0 0 0 0 0 0 0 0 0 0 188 0 0 0 0 178 175 174 174 0 173 0 172 0 0 170 171 173 174 0 178 181 0 0 0 0 0 0 191 191 188 181 182 181 184 0 0 192 175 173 173 173 173 173 174 177 179 187 203 0 0 213 0 183 162 159 161 0 0 0 165 166 0 170 172 179 189 199 0 0 0 0 0 199 195 189 188 0 0 183 181 182 184 0 188 0 0 0 0 0 136 119 109 104 103 102 101 100 0 0 94 94 94 98 105 0 0 0 113 112 0 0 0 0 0 0 103 102 102 105 0 0 0 116 116 116 117 0 0 117 117 116 0 115 0 0 115 115 115 116 117 0 0 118 119 119 0 118 0 0 117 117 0 117 118 120 0 120 0 120 119 118 118 120 0 0 122 122 0 0 121 120 119 0 117 116 0 0 113 116 0 0 150 149 149 149 149 0 148 0 148 148 148 148 148 0 148 148 0 150 150 0 0 149 0 0 0 0 149 149 0 0 0 112 126 0 0 0 154 0 154 154 0 0 155 0 156 156 0 157 157 158 157 0 158 0 157 156 156 0 0 0 0 152 0 150 150 0 148 0 0 0 0 0 145 0 0 0 143 0 0 0 0 0 143 0 144 144 0 0 142 141 140 141 0 0 141 140 139 0 138 138 137 0 0 137 0 136 136 0 136 135 0 136 136 136 136 136 0 135 0 134 134 0 0 132 131 0 130 0 0 0 130 129 0 128 128 0 127 127 0 0 0 125 123 121 0 115 114 122 0 0 139 0 0 142 142 0 0 146 146 147 0 0 147 147 0 146 145 145 145 145 145 145 0 142 142 0 142 142 142 143 0 0 0 142 142 0 0 0 0 0 0 140 139 138 137 0 138 0 0 0 0 137 137 0 136 136 136 137 0 142 0 0 143 142 144 151 0 0 146 145 0 0 146 147 149 175 0 193 181 182 182 182 181 0 178 
0 94 94 94 0 0 0 94 0 0 87 84 83 83 83 83 0 84 84 84 0 84 0 0 0 85 86 0 0 87 0 89 89 0 0 92 93 93 94 0 0 95 0 0 96 0 0 97 0 97 0 0 0 97 0 95 95 0 94 94 95 0 0 101 0 102 0 103 103 103 103 103 103 102 103 0 0 102 0 0 0 0 0 98 96 95 93 90 0 0 84 82 81 0 80 0 81 85 92 98 0 0 0 0 102 0 0 0 101 101 102 0 0 106 120 0 0 0 158 0 0 141 130 127 127 127 126 0 0 127 128 0 0 0 103 89 88 0 0 0 92 94 0 0 0 100 106 0 0 0 107 94 92 95 0 98 0 0 90 88 89 0 92 0 0 0 91 92 0 93 93 93 0 94 0 98 102 0 0 0 0 98 97 97 97 96 95 95 0 0 0 0 96 0 0 97 97 98 99 100 0 0 0 0 0 102 102 107 113 120 129 145 0 0 0 0 0 0 0 0 0 0 0 188 186 0 0 0 0 177 0 175 0 0 0 172 172 0 0 0 0 0 178 184 199 0 0 0 0 0 195 184 188 0 185 181 181 185 0 0 187 172 171 0 0 0 173 173 176 183 0 0 0 207 0 0 179 162 161 161 161 0 162 161 161 164 167 179 0 0 0 0 0 0 0 0 0 201 193 187 186 0 184 182 181 183 0 0 0 189 0 0 0 0 0 142 127 117 110 105 101 99 98 97 0 95 94 96 102 0 0 0 114 113 113 113 0 0 109 106 104 101 99 102 0 0 0 0 116 117 118 0 118 0 0 115 115 0 0 115 0 0 0 116 0 0 119 0 0 0 119 118 118 0 118 118 119 120 0 0 120 119 119 119 120 121 0 122 0 122 0 0 121 120 0 118 0 0 115 0 113 113 119 0 0 150 149 149 149 149 0 147 0 148 148 148 0 0 148 148 148 0 150 0 0 0 149 149 149 149 149 0 0 0 0 121 115 0 0 0 0 153 0 153 153 154 0 155 155 155 0 156 0 0 0 157 157 157 157 156 155 0 155 0 154 153 152 151 0 0 149 148 146 145 144 0 0 145 0 0 0 143 144 0 0 0 0 143 0 0 0 144 0 141 140 141 0 0 0 141 0 0 139 0 0 138 138 0 136 135 136 0 0 136 136 136 0 0 0 0 136 0 134 0 0 134 0 133 0 131 130 0 0 131 0 129 0 0 127 127 127 127 0 128 0 0 126 124 0 0 115 113 120 0 0 138 0 0 142 142 144 0 0 0 147 0 0 147 148 0 146 145 0 0 0 0 0 0 142 0 142 141 141 142 0 0 0 143 0 142 142 0 0 0 142 141 140 139 0 138 0 0 0 137 137 0 137 137 0 0 136 135 135 138 0 142 143 0 142 143 148 0 0 149 145 145 0 146 147 148 165 0 0 187 188 188 0 186 185 184 
0 0 0 94 0 92 93 94 0 0 87 84 83 83 0 83 0 0 83 0 0 85 85 0 0 86 86 0 0 88 88 89 90 91 0 92 93 0 93 94 0 94 95 0 96 0 97 0 96 96 96 96 97 0 0 0 95 0 0 94 95 0 0 0 0 102 101 0 103 0 103 0 0 0 102 102 102 101 0 102 103 0 0 0 0 95 0 0 0 0 85 82 82 81 80 80 80 82 0 0 0 102 101 102 102 101 102 102 100 0 0 102 0 104 116 0 0 0 0 0 0 0 132 126 126 0 127 0 0 0 128 0 0 0 104 90 87 88 89 90 91 0 96 98 0 99 104 119 0 0 113 94 93 95 0 0 0 93 90 89 90 0 0 0 0 92 0 0 93 93 0 94 94 95 96 100 0 0 0 0 101 98 96 0 0 0 96 0 0 0 94 95 0 96 96 97 98 0 100 0 0 103 103 103 103 105 109 116 126 139 0 0 0 0 0 188 191 0 0 0 0 0 189 186 186 0 0 0 181 0 0 175 0 0 173 173 173 0 0 0 0 177 181 0 0 0 0 0 0 200 186 181 187 0 0 187 181 188 0 0 182 171 170 171 171 171 172 178 189 0 0 0 206 209 0 0 172 162 161 161 161 161 160 158 157 161 175 0 0 0 0 0 0 0 0 0 0 0 200 192 186 185 0 0 181 182 183 184 0 187 188 0 0 0 0 0 0 0 0 140 120 106 101 99 97 96 94 94 96 99 0 0 0 0 113 113 0 0 0 0 106 103 101 100 100 106 0 0 0 118 118 118 118 0 117 115 0 116 115 116 116 117 0 117 118 118 0 0 0 0 0 0 117 118 119 0 0 0 0 120 119 119 120 0 0 0 0 0 0 0 0 0 0 118 0 0 0 114 114 113 112 111 120 0 0 149 149 149 149 0 148 148 0 148 148 148 0 0 148 148 148 0 150 149 149 149 0 149 149 149 0 0 0 0 0 113 124 0 0 151 0 0 0 0 153 153 154 0 0 0 0 155 0 0 0 0 0 0 156 0 0 0 154 0 153 0 0 0 0 0 0 0 0 0 146 0 0 145 0 146 144 144 0 145 145 0 0 0 144 0 0 143 0 141 140 0 0 0 142 140 0 139 0 138 138 138 0 0 0 135 136 0 0 136 0 136 0 137 0 0 137 0 135 0 0 0 0 0 0 0 130 0 0 129 0 128 128 0 126 126 0 0 0 128 0 0 0 0 0 0 115 114 117 0 0 137 0 141 142 143 144 0 0 147 0 148 148 0 0 148 146 145 0 0 0 145 0 144 142 0 0 141 140 0 0 0 143 143 142 141 142 0 0 142 0 141 140 0 138 138 0 138 0 137 136 0 0 137 137 0 136 135 136 138 0 0 0 142 142 0 146 0 0 154 144 144 145 146 147 148 159 0 0 196 0 193 0 0 0 191 
94 94 94 94 0 92 93 94 0 0 88 85 83 83 83 0 0 0 84 0 85 0 85 0 86 86 86 86 0 0 89 0 0 91 92 0 93 0 93 94 94 94 95 96 0 0 0 96 95 95 0 0 0 96 95 95 95 94 0 0 95 98 0 0 0 0 103 0 103 0 0 102 102 0 102 0 101 101 0 102 102 102 102 0 98 95 94 0 90 0 85 0 0 0 80 80 80 80 86 0 0 0 102 102 102 102 0 102 102 0 101 101 102 102 112 0 0 0 0 0 0 0 132 126 126 127 0 129 0 0 129 0 0 0 105 90 87 88 89 0 91 0 0 0 0 99 102 115 0 0 0 99 93 95 0 0 0 91 89 0 0 0 0 0 0 91 91 92 0 0 0 0 95 96 99 104 0 0 0 102 98 96 96 96 96 0 0 0 95 0 94 95 0 0 96 98 100 0 102 103 0 103 104 105 107 113 121 133 0 0 0 0 0 0 185 187 190 193 0 0 0 190 187 185 0 0 0 0 0 0 0 174 0 173 173 174 0 0 0 178 177 180 194 0 0 0 0 0 0 189 181 181 184 0 0 0 194 197 0 0 179 171 171 171 173 179 188 0 0 0 0 192 198 0 0 193 165 164 0 162 162 0 0 159 158 169 0 0 0 0 0 0 227 227 0 0 0 0 0 0 188 185 0 183 181 181 182 183 184 185 186 188 190 194 0 0 0 0 0 0 0 147 121 107 100 98 96 0 95 94 97 103 0 0 0 113 113 0 0 0 0 106 0 101 99 100 104 0 0 0 0 118 118 118 0 116 116 116 0 0 117 0 0 0 0 118 119 0 0 120 0 0 119 119 0 0 0 0 121 0 0 0 0 0 0 0 0 0 0 118 0 0 0 116 115 114 0 112 0 0 111 111 126 0 0 150 149 149 0 148 147 148 0 148 148 148 0 0 0 148 0 0 0 0 149 149 0 0 0 149 0 0 0 0 125 113 0 0 0 150 151 0 152 152 0 0 153 0 154 0 154 154 154 0 156 156 156 0 155 153 0 153 0 0 152 152 151 150 149 147 147 147 0 0 0 0 145 0 0 0 0 144 144 0 0 0 0 0 143 0 143 0 0 141 140 0 0 0 140 139 139 138 0 137 138 0 0 137 0 136 136 0 136 136 136 137 137 0 0 0 137 0 0 134 133 132 132 131 130 130 130 130 0 0 128 127 127 0 126 0 125 0 0 127 0 0 0 124 0 0 116 113 115 0 0 136 0 141 0 0 144 0 0 146 0 148 0 0 0 0 0 145 145 145 0 0 0 144 142 141 141 0 141 141 142 0 0 0 142 141 0 0 142 140 0 141 0 0 139 138 138 0 137 0 0 137 0 0 0 137 0 136 0 137 0 0 0 142 0 143 144 157 0 162 146 144 145 146 147 148 155 0 0 202 200 199 0 0 0 0 
94 0 0 94 0 93 0 0 0 0 88 85 0 83 83 83 83 84 0 0 85 85 85 85 0 86 86 86 0 0 89 90 91 0 0 0 93 93 94 0 95 0 0 0 0 96 96 96 95 95 96 96 95 95 95 95 95 95 95 95 95 98 0 102 0 103 103 103 103 102 102 101 102 102 101 0 0 101 101 0 102 0 102 0 0 0 94 0 0 0 85 0 0 0 81 80 0 80 82 89 0 0 102 102 0 0 103 103 103 0 101 100 101 103 108 127 0 0 0 0 0 0 131 127 127 0 0 130 0 129 131 0 0 0 107 89 87 0 0 89 90 92 0 96 98 0 101 112 0 0 0 105 94 94 0 96 0 91 89 90 91 91 91 91 92 92 0 93 0 0 95 0 96 98 103 0 0 0 104 98 97 96 0 0 95 0 94 95 95 95 95 96 97 97 98 100 0 0 103 104 105 106 107 112 118 130 141 0 0 0 0 0 0 0 0 0 0 0 0 0 0 187 185 0 0 0 182 181 0 0 0 174 173 172 173 175 0 0 180 179 179 191 0 0 0 217 0 0 192 180 179 181 182 188 0 0 0 0 0 0 188 185 187 190 0 0 0 0 0 0 181 175 201 0 0 181 164 0 164 0 0 163 162 161 163 178 0 0 0 0 0 0 0 0 0 0 0 0 0 0 190 186 0 0 182 0 182 182 0 183 183 185 190 0 199 0 0 0 0 0 0 0 0 143 117 104 97 97 96 95 93 94 99 0 0 0 0 0 113 0 0 0 0 104 101 100 99 101 0 0 0 0 118 118 0 117 116 116 0 0 117 0 0 0 117 117 117 0 0 119 0 0 0 0 0 121 122 0 121 0 0 120 120 120 0 119 117 116 115 115 115 114 114 113 112 112 0 0 111 110 110 110 128 0 0 149 0 0 0 148 148 0 0 148 148 0 0 0 0 148 0 0 148 149 0 149 0 0 0 149 149 0 0 0 116 118 0 0 0 150 0 151 151 0 0 152 152 0 153 153 152 0 154 155 155 0 0 155 154 152 0 152 0 0 0 0 0 0 0 145 145 0 0 145 145 145 0 145 145 0 144 0 0 144 144 144 143 143 142 0 142 141 0 140 0 0 141 0 139 0 0 0 0 138 138 0 138 137 0 0 0 0 136 135 0 0 0 0 0 0 137 136 0 0 0 131 0 0 0 0 130 0 0 0 128 127 0 0 0 0 124 124 125 127 0 128 127 125 0 0 0 114 114 0 0 136 0 140 0 0 143 0 0 0 0 147 0 148 0 0 146 145 0 145 145 0 0 144 0 141 141 0 142 142 143 0 143 143 142 141 141 142 0 142 0 141 141 0 139 0 0 138 137 136 0 0 136 0 0 0 0 136 134 135 0 0 0 0 0 142 143 153 0 0 147 145 0 146 0 148 152 0 0 209 205 0 202 202 202 0 
0 0 0 0 93 93 94 95 0 0 0 84 83 83 83 83 83 0 84 84 0 0 85 85 0 0 86 87 0 88 89 90 0 0 92 0 93 0 0 95 0 96 96 96 0 0 0 96 0 95 0 0 0 95 0 0 95 0 95 0 0 0 0 102 0 0 0 0 0 0 0 0 102 0 0 0 101 101 101 102 101 102 0 0 0 96 94 0 0 88 85 83 83 82 81 0 80 0 81 86 0 0 102 0 102 0 0 0 0 103 102 0 101 102 106 116 131 144 0 0 0 139 129 127 128 0 0 0 130 129 131 136 0 0 109 89 86 87 88 88 90 92 0 96 0 0 101 109 0 0 0 113 95 94 0 0 0 90 90 0 0 91 0 92 0 0 0 93 93 94 95 95 97 100 0 0 0 105 101 97 96 95 0 0 95 94 93 0 95 95 0 0 0 99 100 102 0 0 105 105 107 109 115 126 0 0 0 0 0 0 169 171 0 0 0 0 0 0 0 186 184 184 183 183 182 0 0 0 0 0 173 0 172 172 173 0 0 0 181 181 190 0 0 0 217 214 0 0 181 175 0 0 181 181 186 0 0 0 0 0 0 0 0 0 0 0 0 0 0 175 166 174 0 0 0 171 165 0 165 0 0 164 164 164 167 183 0 0 0 0 226 227 0 0 0 0 0 0 0 0 192 186 0 0 183 0 0 182 182 181 181 183 0 0 0 0 207 0 211 0 0 0 0 0 0 133 109 101 98 98 95 93 93 96 101 0 0 0 0 113 112 110 0 0 0 103 101 100 101 107 0 0 0 119 119 118 117 117 116 117 117 0 116 116 0 115 115 0 0 117 0 0 0 0 0 0 0 0 0 0 119 0 0 0 0 116 115 114 113 113 113 113 112 112 0 110 111 111 110 111 0 112 132 0 0 149 0 0 0 148 0 0 0 0 0 149 0 148 148 0 0 149 149 0 0 0 149 0 0 0 149 0 0 129 111 124 0 0 0 150 151 0 150 0 0 151 0 152 152 152 0 153 0 0 154 0 0 154 0 0 150 150 150 150 0 149 148 0 144 144 144 144 0 0 0 144 0 0 0 143 143 143 142 143 0 0 143 142 0 0 141 140 140 139 0 0 140 139 139 138 138 0 0 0 138 0 0 136 0 0 0 0 136 135 136 0 137 0 0 137 0 0 134 133 132 131 131 0 0 0 130 0 0 0 0 127 126 0 125 124 123 122 124 0 0 128 0 0 0 121 0 116 114 0 0 0 0 140 141 142 143 0 146 0 0 146 147 0 0 0 145 0 145 145 145 0 0 144 143 142 142 141 0 0 0 0 0 0 0 0 142 142 0 142 142 0 0 0 0 138 137 138 0 136 0 136 135 0 137 137 0 0 135 134 137 0 0 0 142 0 143 149 0 0 152 146 146 146 146 147 150 181 0 0 208 207 207 0 0 206 
94 94 0 92 92 93 94 94 0 0 89 83 83 83 0 0 0 84 84 84 84 84 0 0 85 0 86 87 0 88 0 0 91 92 92 0 0 94 0 0 0 0 96 96 0 97 0 96 96 0 0 0 95 95 95 0 95 95 0 95 96 100 0 102 102 0 0 0 103 0 0 102 102 102 102 0 0 0 0 0 0 0 101 100 98 96 0 0 91 0 86 0 0 82 0 81 0 0 80 83 0 0 0 102 101 101 0 0 0 0 0 0 0 103 105 113 124 131 136 0 0 0 129 128 0 131 0 0 0 130 132 136 0 0 112 91 88 0 88 89 90 92 0 95 97 99 101 106 121 0 0 119 100 96 0 0 91 89 89 0 0 0 0 93 93 92 93 93 0 0 95 95 99 104 0 0 107 102 0 97 96 95 95 0 0 0 94 0 0 0 96 97 0 100 0 104 0 107 108 108 113 122 135 0 0 0 0 0 0 0 165 165 166 169 173 0 0 180 181 0 0 181 0 181 0 0 0 176 174 172 171 171 171 171 172 0 0 180 181 188 0 0 0 0 214 0 0 186 175 173 0 0 0 0 181 182 192 0 0 0 0 0 0 0 0 0 186 177 169 164 164 183 0 0 189 166 165 165 0 0 165 165 166 167 172 0 0 0 0 0 0 0 0 0 0 0 0 0 0 201 192 186 184 0 0 183 0 0 181 180 179 180 185 0 0 0 0 212 0 0 214 0 0 0 0 0 150 126 113 106 100 98 95 93 94 98 103 0 0 0 0 112 111 109 0 0 104 102 100 101 103 109 0 0 0 0 119 118 117 117 0 116 115 115 114 114 113 114 115 115 116 116 0 117 117 118 0 0 0 0 0 116 115 115 0 0 114 0 113 112 112 0 0 112 0 111 110 111 111 0 112 116 0 0 150 150 0 149 148 148 0 149 149 149 149 149 0 148 149 0 0 150 0 0 149 149 149 149 149 149 149 0 0 118 114 0 0 0 150 151 0 0 151 151 151 151 0 151 0 152 152 153 0 0 153 153 153 0 0 0 148 0 0 0 0 146 145 0 144 143 0 143 141 0 0 143 143 142 143 143 142 0 142 142 0 0 0 0 142 0 141 140 140 140 0 140 0 139 139 0 138 138 138 0 137 0 137 136 136 136 0 0 136 136 136 137 0 0 137 0 0 135 134 0 132 131 131 131 0 130 130 0 129 128 127 0 126 125 124 122 122 122 123 0 0 127 0 0 124 122 0 116 113 122 0 0 0 0 141 0 0 144 145 0 146 146 0 0 146 146 146 0 145 145 145 0 0 0 143 0 0 0 142 0 142 0 0 143 143 0 142 142 142 0 0 142 141 140 0 138 0 0 0 137 0 137 137 137 137 137 0 0 0 134 135 0 0 0 141 0 143 146 0 0 159 147 146 146 0 148 150 175 0 0 211 211 211 0 211 0 
94 94 93 92 92 93 94 0 0 0 0 85 83 0 83 83 0 84 84 0 84 0 0 85 0 85 86 87 0 88 0 0 92 92 92 92 0 93 94 95 0 0 0 0 0 96 0 0 0 0 95 95 95 95 0 96 0 96 0 96 0 0 0 102 102 102 103 102 101 0 102 0 100 0 102 0 0 101 0 0 102 0 101 100 0 0 95 93 91 89 87 0 84 82 0 81 81 0 81 82 88 0 0 0 102 102 0 103 102 103 103 102 102 103 105 113 0 0 130 134 0 0 130 129 0 0 133 132 131 130 132 0 0 0 0 91 87 87 0 0 90 0 0 96 0 0 0 106 118 0 0 0 107 97 0 0 89 89 89 90 0 0 93 0 0 93 93 93 0 95 96 97 102 0 0 0 0 0 98 96 0 0 95 0 0 95 95 95 96 96 97 98 98 101 0 106 108 110 113 120 132 0 0 0 0 0 0 166 164 164 163 162 163 164 166 169 171 173 176 0 0 0 0 0 0 176 174 0 172 171 171 170 170 0 172 174 177 180 186 0 0 0 0 212 0 0 192 178 172 170 172 175 0 0 0 179 195 0 0 182 178 181 180 178 175 171 166 165 164 163 166 0 0 0 179 165 165 0 0 165 166 0 0 171 176 0 0 0 0 0 0 227 0 0 228 0 0 0 0 0 189 185 0 0 183 183 0 0 0 180 178 179 183 192 0 0 0 0 0 0 0 0 0 0 0 0 0 0 0 141 124 111 102 96 94 94 95 98 104 0 0 0 0 113 111 108 107 105 0 102 100 100 104 0 0 0 0 0 119 117 117 116 115 0 0 114 0 0 114 114 114 114 114 114 114 115 115 114 114 115 114 113 113 113 0 113 113 0 113 0 0 112 112 112 0 111 0 0 0 0 112 118 0 0 149 150 0 149 0 0 0 0 0 0 149 149 148 147 0 0 151 0 150 149 149 149 0 0 149 0 0 0 0 113 119 0 0 0 151 0 151 150 0 151 151 0 151 151 0 151 152 154 0 154 153 0 152 0 150 149 147 0 0 146 145 143 142 0 142 142 0 0 142 142 0 142 0 0 0 0 0 142 0 142 142 141 141 0 142 0 141 0 0 0 0 0 140 139 0 0 0 138 0 137 137 0 0 0 136 136 136 136 136 136 0 0 0 0 0 136 136 0 0 0 131 0 0 130 130 0 129 0 0 0 126 126 0 0 123 122 121 122 0 0 0 127 0 126 124 0 0 0 114 120 0 0 0 0 141 0 0 144 145 0 146 146 147 0 146 146 146 0 145 0 0 0 0 0 143 142 142 142 142 142 142 0 0 143 0 0 142 142 0 0 0 0 0 141 140 139 0 0 137 137 137 0 0 0 0 138 0 137 135 134 134 137 0 141 0 142 142 144 159 0 0 149 147 145 0 148 149 164 0 0 215 0 0 0 0 0 
0 0 93 92 93 0 95 0 0 0 0 85 82 0 82 82 0 84 84 83 84 85 0 0 0 85 85 87 88 88 89 0 0 0 0 0 0 0 93 94 95 0 96 96 0 95 0 96 0 96 0 95 0 0 96 96 0 97 0 98 0 101 102 0 102 102 0 102 102 0 100 0 100 0 102 101 101 100 101 101 100 0 0 0 0 97 0 0 91 88 0 0 84 82 0 81 81 0 80 80 84 0 0 0 0 0 102 102 102 0 0 0 102 101 103 111 0 0 0 136 133 127 126 128 0 0 135 0 132 131 132 137 0 0 0 93 87 87 88 0 91 92 94 0 97 99 102 104 114 0 0 0 113 99 97 94 91 89 0 91 93 0 93 92 0 93 0 0 0 95 97 100 106 0 0 0 100 98 96 96 0 95 95 0 96 95 0 0 97 98 99 0 100 104 0 110 111 117 128 143 0 0 0 0 0 0 0 0 0 164 0 163 163 163 164 166 167 0 172 0 175 0 176 0 0 173 172 172 172 173 173 173 172 0 172 172 175 182 199 0 0 0 212 0 0 0 181 174 170 170 170 172 173 174 175 178 0 0 0 171 165 166 165 165 164 164 164 164 163 163 173 0 0 0 172 164 0 0 0 166 0 0 0 174 177 189 0 0 0 0 0 0 227 227 227 0 0 0 0 194 184 181 0 182 183 0 0 0 181 0 0 179 181 192 0 0 0 0 216 217 0 0 0 0 0 0 0 0 0 0 0 0 131 112 102 96 94 92 93 98 105 0 0 0 0 115 110 108 107 105 103 100 100 101 103 109 0 0 0 0 0 117 117 116 114 114 114 113 113 0 0 113 113 113 113 112 113 113 113 113 0 112 0 112 0 0 113 0 0 113 0 0 0 0 0 0 0 0 112 0 111 119 0 0 149 150 0 149 149 149 149 0 148 0 149 0 149 149 0 0 150 0 151 150 0 0 0 149 149 0 0 0 121 112 127 0 0 150 0 0 151 150 151 151 0 151 151 151 151 152 0 0 0 154 0 0 0 0 149 148 147 0 0 144 143 142 141 141 141 141 141 0 0 0 0 141 141 0 142 142 0 0 142 0 0 141 140 141 0 0 0 140 0 140 0 0 0 0 139 0 138 138 0 137 136 136 136 136 0 0 135 135 0 136 136 136 136 136 0 0 0 0 0 131 130 130 130 130 129 0 128 128 128 127 0 0 0 0 122 0 0 121 0 125 126 127 0 0 125 0 0 0 115 118 0 0 136 138 141 0 143 0 145 145 146 0 0 0 146 146 0 0 145 0 146 146 0 144 142 142 142 0 0 0 141 0 143 0 0 143 142 142 0 143 143 143 0 0 0 139 137 137 137 137 137 0 0 138 0 0 138 0 0 0 135 136 0 141 0 142 142 143 154 0 0 151 147 146 0 0 148 160 0 0 218 218 0 0 217 216 
94 93 93 93 94 95 95 0 0 0 89 84 83 0 83 83 0 84 0 84 85 0 85 0 0 0 86 0 0 0 89 0 92 0 92 92 92 0 0 93 93 0 95 95 0 95 94 0 0 95 0 0 0 0 96 0 0 97 98 99 0 0 101 0 0 101 101 0 0 101 100 100 101 0 0 102 0 0 0 101 101 101 101 100 99 0 95 0 91 88 88 86 84 83 82 81 81 0 80 80 82 89 0 0 0 0 0 0 0 0 104 0 0 0 104 108 119 130 0 0 0 128 124 127 131 0 0 136 133 131 132 136 0 0 0 95 87 87 0 0 0 0 93 0 0 0 101 103 110 125 0 0 121 103 96 94 92 91 0 0 0 0 0 93 0 0 0 0 94 95 99 0 0 0 0 103 96 95 0 95 95 94 95 96 0 96 0 97 98 0 101 0 103 106 112 118 127 140 0 0 0 0 0 169 169 0 167 165 0 164 164 0 164 0 0 167 0 0 169 169 170 0 0 0 172 173 173 175 0 0 0 0 0 0 172 172 179 195 0 0 0 211 210 0 0 182 176 172 170 170 170 170 171 172 172 180 0 0 188 166 163 0 163 0 0 0 0 0 162 164 182 0 0 0 167 163 163 0 0 167 0 0 0 174 175 183 0 0 0 0 0 0 0 0 0 0 0 0 0 188 181 178 179 181 0 0 183 182 181 0 179 0 181 0 0 0 213 0 216 217 0 0 0 0 0 0 199 193 0 0 0 0 0 0 140 121 110 105 100 98 98 99 107 0 0 0 0 117 111 109 107 105 103 102 101 100 101 106 111 0 0 0 0 0 118 116 116 114 113 0 113 113 0 0 0 0 112 0 112 112 0 0 112 111 112 112 0 113 0 0 112 0 111 111 111 111 111 0 0 111 111 122 0 0 150 0 150 149 149 0 0 148 148 0 0 149 149 0 0 150 150 0 0 0 0 149 149 0 150 150 0 0 113 115 0 0 0 0 0 151 0 151 0 0 0 152 0 0 151 152 155 0 155 154 153 152 151 150 149 0 0 145 144 143 0 141 0 140 140 0 0 141 140 0 141 140 0 141 141 141 0 0 141 0 0 0 0 141 141 140 0 140 139 0 139 0 139 139 138 0 138 0 0 137 0 136 136 135 0 0 135 135 0 0 135 135 134 134 0 0 134 0 0 0 130 129 129 0 129 128 128 128 0 0 126 125 0 123 0 121 121 0 0 0 0 0 0 0 0 0 0 0 117 117 0 0 0 0 0 0 0 0 0 144 146 0 147 0 0 146 145 0 0 146 0 146 0 0 143 142 0 141 141 0 142 142 142 0 0 0 142 142 0 0 143 0 0 142 0 0 138 137 0 0 0 137 137 137 0 138 0 0 137 136 135 136 0 0 0 0 0 143 150 0 0 156 147 147 147 147 148 157 0 0 220 220 0 220 0 217 
0 94 93 0 0 0 0 0 0 0 89 84 83 83 0 0 0 84 0 0 0 0 85 85 85 86 0 0 88 89 0 0 0 91 91 92 92 92 93 93 93 0 0 95 0 95 93 0 0 95 0 96 96 0 96 97 96 98 0 99 0 100 0 0 101 101 101 101 101 0 101 101 102 102 0 102 0 101 101 101 0 0 100 100 99 0 96 0 0 0 0 86 0 83 82 0 81 81 0 80 81 86 0 0 0 0 102 103 0 104 104 103 103 102 103 108 0 133 142 0 0 0 126 124 128 0 0 0 135 132 132 136 0 0 0 94 86 0 87 89 90 91 93 0 0 0 99 101 107 0 0 0 0 108 97 94 92 91 0 0 93 93 0 0 93 94 94 95 96 97 103 0 0 0 104 98 96 95 0 95 94 95 0 0 97 97 97 0 100 101 104 105 107 115 126 140 0 0 0 0 0 0 170 0 167 167 0 165 164 0 164 165 0 0 0 167 167 167 166 166 166 167 167 167 170 173 0 0 0 177 176 177 0 0 176 177 192 0 0 0 210 208 0 0 186 177 174 171 170 0 0 170 0 171 172 186 0 0 179 163 163 163 163 0 0 162 161 161 161 166 195 0 0 190 162 161 162 163 165 167 170 0 173 0 174 177 190 0 0 0 0 0 0 0 0 0 0 0 189 180 176 176 177 180 182 0 182 181 180 0 177 176 180 190 0 0 0 0 217 0 0 220 0 0 0 0 202 197 195 193 192 0 0 0 0 0 0 0 143 134 126 120 116 114 117 124 0 0 0 118 114 110 108 106 104 101 101 100 100 100 103 108 0 0 0 0 0 0 115 115 114 113 113 112 112 112 112 112 111 112 112 0 0 112 0 0 0 112 112 112 111 111 111 111 111 111 111 111 0 110 110 125 0 0 149 0 0 149 149 149 148 0 0 0 148 149 150 0 150 150 0 0 151 150 149 0 149 0 0 0 0 125 111 123 0 0 0 151 0 0 0 152 152 152 0 0 152 152 153 0 0 0 154 153 0 151 0 0 0 147 145 0 0 141 140 0 0 139 139 140 0 140 0 0 140 140 0 0 0 140 141 141 140 140 140 0 0 0 0 140 139 0 0 139 0 0 139 0 138 138 138 0 137 0 0 0 0 135 0 0 134 134 0 0 0 0 0 133 0 133 133 0 132 131 130 0 129 0 0 128 128 0 0 126 125 0 124 123 0 121 122 0 124 0 0 124 124 123 0 124 0 0 118 116 0 0 0 0 140 141 0 144 0 0 146 0 146 146 0 145 0 0 145 146 0 146 145 144 142 0 0 0 0 0 0 142 142 143 0 0 141 141 142 0 143 0 142 0 0 0 139 138 138 138 138 0 137 137 137 138 0 137 136 0 135 134 136 0 141 0 142 142 148 0 0 164 148 147 0 147 149 156 189 0 222 0 0 0 0 219 
0 0 0 94 95 96 96 97 0 0 89 84 83 83 0 0 0 84 0 0 85 85 85 85 85 0 87 87 0 0 89 90 91 91 91 0 0 93 93 93 94 95 0 96 0 0 0 94 0 95 0 0 96 0 0 0 0 0 0 98 98 0 98 0 100 0 0 0 101 0 0 0 0 0 102 102 102 0 101 0 0 0 0 0 99 0 96 94 0 91 88 86 0 83 82 0 0 81 0 0 80 83 0 0 0 0 102 101 102 103 0 0 102 102 104 107 0 0 146 0 0 0 125 122 128 0 0 0 140 135 133 137 0 0 0 94 86 86 87 88 0 91 0 0 0 0 0 100 104 117 0 0 0 116 100 94 92 0 0 92 93 93 0 94 94 94 94 0 96 101 0 0 0 107 101 97 96 95 95 95 0 96 96 0 0 98 98 100 0 106 109 112 121 136 0 0 0 0 0 0 175 172 169 167 166 0 0 163 163 163 164 0 0 0 0 167 166 167 0 166 166 166 166 166 171 0 0 0 0 178 0 177 0 178 181 193 0 0 0 210 207 0 0 189 176 172 171 171 171 171 170 170 170 170 174 0 0 0 171 162 0 0 162 162 161 0 160 160 160 171 0 0 0 178 160 0 0 0 164 167 0 0 0 173 174 175 181 0 0 0 0 0 0 0 0 0 0 185 177 171 172 0 177 0 0 0 181 180 179 177 175 175 179 186 0 0 0 0 0 0 0 0 0 0 0 0 204 199 0 0 194 193 195 0 0 0 0 0 0 0 0 0 0 0 146 138 128 122 125 0 0 0 114 110 108 106 105 0 102 101 100 101 102 106 108 0 0 0 0 0 0 0 114 113 113 113 113 111 112 0 112 112 112 0 112 111 111 111 0 0 0 0 0 0 0 111 111 0 110 110 111 0 0 149 149 0 148 149 0 0 148 0 0 148 148 149 150 0 150 150 0 150 150 0 0 0 150 0 0 0 0 116 115 0 0 0 150 151 151 0 151 0 153 153 153 153 0 152 0 0 0 155 153 0 0 151 0 148 147 146 0 0 0 139 138 0 138 138 0 0 0 0 140 0 0 0 140 140 140 140 140 0 140 139 139 140 0 0 140 0 0 0 139 0 0 0 0 138 0 0 138 0 136 0 0 136 0 134 135 135 0 0 134 134 134 0 133 133 0 132 132 131 131 130 0 129 0 0 127 0 128 0 0 125 123 123 0 0 0 121 121 0 0 123 123 0 0 123 0 0 0 121 119 116 123 0 134 137 0 0 0 143 144 0 145 146 0 146 146 146 0 0 0 145 0 146 0 144 143 0 142 141 0 141 0 0 141 142 143 0 141 141 142 0 142 0 0 0 142 0 0 0 138 0 0 0 0 0 138 0 0 137 137 0 0 134 135 0 140 0 141 141 146 166 0 0 149 147 0 147 150 158 185 0 0 222 0 0 220 220 
93 0 93 94 0 96 96 0 0 0 89 85 82 0 0 83 83 0 84 84 84 84 0 85 85 0 87 0 0 89 0 0 0 0 91 92 0 94 0 0 0 95 96 0 96 96 0 94 94 95 96 95 96 97 97 98 0 0 98 98 98 0 97 99 100 100 100 100 101 102 0 102 0 102 102 0 0 0 102 0 103 102 0 0 0 0 95 0 0 0 88 0 85 0 82 0 0 81 0 0 81 81 88 0 0 0 0 0 102 0 0 0 102 0 0 106 121 0 0 0 0 134 123 122 130 139 0 0 0 139 135 138 0 0 0 95 87 0 0 0 89 90 92 94 96 0 99 100 101 114 0 0 0 0 102 93 0 92 92 0 93 0 93 0 0 94 94 97 99 0 0 0 108 102 97 96 0 95 0 0 96 0 0 98 0 0 101 104 107 112 119 130 148 0 0 0 0 0 0 178 174 171 0 166 165 0 163 162 162 0 0 0 0 167 166 166 167 167 167 0 0 167 167 169 173 0 0 0 0 179 0 176 176 181 193 0 0 0 208 205 0 0 0 175 169 170 171 0 0 0 171 0 0 169 177 0 0 0 165 161 0 161 0 0 0 0 0 158 160 181 0 0 0 166 158 159 160 161 163 166 0 0 173 172 173 0 176 181 189 0 0 0 0 0 0 189 181 173 169 167 170 173 0 178 0 0 0 180 179 177 175 176 178 182 0 0 0 0 0 0 0 0 0 0 0 0 203 199 197 0 0 0 0 0 195 0 0 0 0 0 0 0 0 0 0 0 0 136 122 121 125 0 0 0 117 112 109 108 106 105 103 102 103 101 101 102 104 108 111 0 0 0 0 0 0 0 115 114 114 113 112 112 112 112 0 111 111 111 111 111 0 0 111 0 0 111 111 0 110 110 114 0 0 0 0 149 148 0 0 0 0 0 0 0 149 0 150 150 150 150 150 150 149 150 150 150 150 150 0 0 128 112 121 0 0 0 151 0 151 151 152 0 0 0 0 0 0 153 0 0 0 154 153 0 151 150 0 147 0 0 144 142 0 138 138 137 138 138 139 0 0 139 139 0 140 0 139 139 0 139 139 0 0 139 139 139 139 0 0 0 0 139 139 139 138 0 138 137 0 0 0 137 136 136 0 136 135 134 0 135 0 0 134 0 133 133 0 132 0 132 131 130 0 0 128 129 0 128 127 0 0 0 126 124 123 123 123 122 0 120 121 0 123 123 123 123 122 0 0 122 122 0 0 117 119 0 131 136 0 0 142 0 144 0 145 0 0 146 146 0 145 145 144 143 0 0 0 0 0 0 0 141 141 141 141 0 141 142 0 0 141 0 0 142 141 142 143 0 142 141 0 138 0 138 137 136 137 0 138 0 138 137 0 0 136 135 134 136 0 0 141 141 143 160 0 0 155 147 147 148 150 158 182 0 0 223 0 222 221 220 
0 93 93 0 0 0 96 96 0 0 0 85 81 81 82 82 83 83 83 84 84 0 84 0 0 0 0 88 87 88 0 90 0 92 0 92 0 0 95 0 0 0 96 0 0 96 0 96 0 96 0 0 0 97 0 0 0 98 97 0 99 99 99 0 100 0 0 0 0 0 103 103 102 101 102 102 102 102 0 103 0 103 0 101 99 98 0 95 93 0 0 87 85 84 82 82 81 81 80 80 0 81 85 0 0 0 102 101 0 102 0 102 103 102 103 103 115 0 0 0 140 127 125 128 0 0 0 0 0 0 139 139 0 0 0 95 86 86 86 87 89 0 92 93 94 96 0 0 100 109 0 0 0 0 106 92 92 92 92 0 0 0 94 94 0 0 95 98 105 0 0 0 103 99 97 96 0 0 0 96 96 97 98 99 102 104 106 110 115 125 141 0 0 0 0 0 0 182 0 177 0 0 167 0 0 0 161 160 161 164 0 167 169 0 167 167 0 167 169 170 0 170 169 170 0 0 0 0 180 179 0 177 179 193 0 0 0 207 201 0 0 0 177 167 166 0 170 0 0 0 0 0 0 166 182 0 0 179 161 160 0 160 0 0 157 157 156 156 163 0 0 0 187 161 157 0 158 159 162 165 0 0 0 0 0 172 173 176 178 181 184 186 184 181 179 174 170 167 165 166 169 173 0 178 0 181 181 181 0 0 0 175 176 180 190 0 0 0 0 0 218 0 0 0 0 0 202 198 196 0 0 192 0 193 0 194 0 0 193 191 190 0 0 0 0 0 0 0 153 138 128 125 129 0 0 0 121 116 111 109 108 107 106 104 104 103 102 102 103 104 107 110 112 0 0 0 0 0 0 0 115 115 114 113 113 112 111 112 111 112 112 112 111 111 112 112 111 111 0 111 119 0 0 149 0 149 0 148 148 148 0 0 148 0 149 0 150 149 0 0 0 150 150 0 150 150 150 150 0 0 118 113 0 0 0 0 0 0 0 0 152 153 0 154 154 0 154 155 0 0 0 152 0 0 149 0 0 0 0 0 0 0 0 138 137 0 138 0 138 138 138 138 138 0 139 139 0 0 0 138 139 0 0 0 139 139 0 139 139 138 0 0 0 0 138 0 0 138 0 138 137 137 0 136 0 0 135 135 0 135 134 0 133 0 0 0 132 132 0 132 0 131 0 130 129 129 0 128 0 0 127 126 125 124 123 123 0 122 0 121 122 0 0 123 0 0 122 0 0 0 0 121 0 119 119 0 0 0 0 139 141 0 0 0 0 144 145 0 146 0 0 145 144 145 0 146 146 0 144 142 141 141 0 0 141 0 141 0 0 0 141 0 142 0 142 0 0 0 0 141 0 138 138 137 137 136 0 137 0 138 0 0 0 0 136 135 134 135 0 0 0 141 142 152 0 0 164 148 148 148 149 159 181 0 0 223 222 222 0 221 
92 0 93 0 0 0 96 0 0 0 0 84 82 82 0 83 0 0 0 0 85 85 0 86 0 87 0 87 88 0 0 90 90 0 0 0 0 0 94 94 95 0 0 0 96 96 0 0 0 0 0 0 0 97 97 97 97 0 97 0 0 0 0 0 100 0 102 0 0 0 0 0 0 0 0 102 101 102 103 0 0 103 102 0 100 99 0 95 93 0 90 0 86 84 0 0 81 81 0 80 0 81 82 89 0 0 102 101 0 101 102 103 0 0 103 103 110 0 0 0 0 131 128 131 136 0 0 0 0 0 142 139 0 0 0 99 86 0 0 87 0 0 92 0 0 96 0 99 100 105 121 0 0 0 0 95 91 92 0 93 93 0 94 94 94 95 97 103 0 0 0 104 99 96 96 95 0 96 95 96 97 97 99 102 105 108 114 123 135 0 0 0 0 0 0 0 0 181 0 176 172 167 165 163 0 160 159 159 161 164 167 0 0 0 0 0 0 171 171 0 0 0 170 172 0 0 0 0 180 179 179 182 194 0 0 0 203 196 203 0 0 181 170 166 166 167 170 171 0 0 0 0 165 167 0 0 0 167 159 159 0 158 158 157 155 0 155 156 174 0 0 0 177 158 157 157 157 0 160 0 0 0 0 172 0 171 171 173 175 0 177 177 174 171 170 167 166 164 165 167 0 0 0 177 0 0 181 0 0 0 176 174 174 178 186 0 0 0 0 0 0 0 0 0 0 0 199 195 193 0 193 191 190 0 0 0 0 189 188 187 186 0 0 184 181 182 0 0 0 0 0 156 146 141 140 140 0 0 0 125 119 114 110 108 107 106 106 105 105 105 105 105 105 106 107 110 112 115 0 0 0 0 0 0 0 117 116 116 116 116 117 117 116 115 115 115 115 114 114 114 125 0 0 148 0 148 147 0 0 148 0 148 148 148 0 0 150 150 150 0 0 150 150 0 150 149 0 0 0 0 112 121 0 0 149 150 0 151 152 152 153 154 0 154 0 154 154 156 0 0 153 151 150 149 148 0 143 142 140 139 139 138 0 136 136 0 0 0 137 0 137 0 137 138 0 138 139 138 138 139 0 0 0 139 139 139 0 0 0 138 138 0 138 137 137 0 138 138 0 137 137 0 0 136 135 135 0 0 0 135 0 133 132 132 132 0 132 131 0 131 0 0 130 130 0 129 128 127 0 0 126 126 0 124 0 123 0 122 122 121 122 0 0 0 123 122 121 120 119 120 0 119 0 119 118 124 0 0 0 0 0 0 142 144 0 145 145 0 0 145 145 0 0 145 0 146 146 0 0 143 142 142 0 0 141 0 141 141 142 0 142 141 0 0 0 142 142 0 143 0 140 0 0 0 0 136 0 138 0 136 0 0 137 137 0 0 133 133 136 0 0 140 142 147 177 0 179 151 148 148 149 159 182 0 0 223 222 222 0 0 
92 0 93 95 0 96 96 0 0 0 89 83 82 0 0 83 0 84 0 0 85 85 0 86 86 87 87 87 0 89 0 90 90 91 91 92 0 94 94 0 0 0 95 95 95 95 95 95 95 96 0 0 97 97 0 97 95 96 96 97 98 0 99 99 0 0 0 0 102 101 102 102 0 0 0 0 0 0 0 0 0 0 0 0 100 0 0 0 0 92 90 0 0 85 84 0 82 0 0 81 0 80 81 83 92 0 0 102 101 102 0 103 104 0 104 104 108 123 0 0 0 137 130 132 0 0 0 0 0 0 146 142 0 0 0 102 87 86 0 87 88 0 91 0 95 96 0 99 100 103 116 0 0 0 0 100 92 0 93 93 0 0 94 0 95 97 100 0 0 0 0 100 97 96 0 0 95 0 0 97 98 99 104 108 114 121 135 0 0 0 0 0 0 0 0 0 182 0 0 0 171 166 0 162 159 158 158 158 161 164 0 0 0 0 0 0 173 0 0 0 0 0 173 175 0 0 181 181 181 179 182 195 0 0 0 0 188 197 0 0 187 171 166 167 167 0 170 0 171 170 167 167 165 175 0 0 181 160 159 0 156 156 0 0 0 0 155 160 187 0 0 0 167 156 0 156 0 157 159 0 164 167 0 0 0 170 169 170 0 0 0 0 0 166 165 164 0 162 164 167 0 173 175 177 0 0 181 0 0 0 176 173 173 175 183 192 199 0 208 0 212 212 0 0 208 0 199 194 193 0 0 0 187 185 185 184 183 183 183 183 183 0 182 181 180 181 0 0 0 0 0 0 0 0 0 165 155 150 147 143 0 135 128 122 117 113 110 108 107 107 106 104 106 106 107 108 109 110 112 113 116 117 120 120 122 124 0 0 0 0 0 0 0 0 0 0 0 0 0 131 140 0 0 147 0 0 148 0 147 147 0 0 0 148 0 0 150 150 0 150 150 149 150 0 0 149 0 0 0 121 111 0 0 0 149 150 151 151 0 0 154 0 0 0 0 154 155 0 0 154 150 0 148 0 0 0 140 0 0 138 137 136 136 136 135 136 137 0 0 0 137 137 137 138 0 139 0 0 139 0 0 0 0 0 0 138 138 138 0 138 138 138 0 137 137 0 138 0 137 137 137 0 136 0 135 0 0 134 134 0 0 133 132 132 132 132 0 0 0 131 131 0 130 130 0 129 128 127 0 127 0 0 126 125 124 123 0 0 122 122 0 0 0 0 0 0 120 0 118 118 118 0 0 118 118 122 0 0 137 139 139 0 142 0 0 0 0 145 145 144 0 0 0 145 146 0 146 0 144 144 0 143 142 142 141 141 141 141 141 0 0 0 0 0 0 141 141 0 0 0 140 138 138 137 0 137 137 0 0 137 0 137 137 137 0 0 134 132 135 138 0 140 141 145 165 0 0 156 149 149 149 158 183 0 0 222 222 222 222 222 
92 92 0 95 0 96 96 0 0 0 88 84 83 0 82 0 84 84 84 0 85 85 0 0 87 0 87 0 0 89 90 0 0 0 90 91 0 0 0 0 93 93 94 0 0 0 0 93 94 95 96 0 97 97 0 0 0 95 0 0 0 98 98 99 0 101 101 101 0 0 101 0 102 0 102 101 100 0 0 102 0 0 0 0 100 0 98 0 0 92 0 89 87 0 84 0 0 82 0 81 80 80 81 82 88 0 0 102 0 102 103 0 0 0 104 103 105 117 134 0 0 0 131 132 137 144 0 0 154 0 150 146 146 0 0 107 87 85 86 86 87 89 90 0 0 0 0 98 100 103 115 0 0 0 0 109 94 94 0 0 0 93 0 95 96 99 107 0 0 0 101 97 97 0 95 95 96 96 98 99 101 104 110 119 134 152 0 0 0 0 182 181 182 183 183 0 0 0 176 0 0 167 0 0 158 158 0 0 0 0 0 0 172 0 173 0 0 0 175 0 0 0 177 178 0 0 0 183 182 186 0 0 0 0 0 183 187 0 0 0 175 165 166 0 0 170 0 0 170 0 0 167 167 185 0 0 166 157 157 0 156 156 156 156 155 155 155 163 0 0 0 188 162 156 156 156 0 156 158 160 162 164 0 0 0 0 167 167 0 0 0 166 164 163 0 161 160 160 0 166 0 0 0 177 0 0 0 0 0 0 177 173 173 175 181 188 0 0 0 0 0 0 209 208 0 0 199 0 0 192 0 188 0 183 179 178 178 0 0 0 179 178 179 180 181 0 183 183 0 186 187 189 0 0 0 0 0 0 0 165 160 156 155 152 148 141 134 127 122 118 115 112 110 110 111 112 112 114 117 120 0 0 0 0 0 0 0 0 0 0 0 0 0 0 139 140 139 141 145 150 0 152 150 149 0 0 0 0 146 147 0 0 149 0 0 150 150 150 0 150 0 0 150 0 149 0 0 0 0 112 116 0 0 0 0 0 0 153 0 0 0 0 0 0 155 155 0 0 0 151 0 0 0 145 143 0 139 0 0 0 135 0 0 135 136 0 137 137 137 137 0 0 137 0 0 0 141 0 140 0 140 139 0 139 138 138 0 138 0 138 138 138 0 137 137 0 0 0 137 0 0 0 0 0 134 0 134 134 134 0 0 132 132 132 0 132 132 0 131 131 0 130 0 0 0 129 128 128 127 127 127 127 0 0 0 124 0 0 122 0 0 0 0 123 122 0 120 119 118 0 117 0 117 0 116 120 0 132 0 0 0 0 142 142 0 0 0 145 145 145 0 144 145 0 0 0 146 145 145 144 0 0 143 0 0 0 140 0 141 142 0 143 0 0 0 141 140 142 0 0 141 0 137 0 0 136 0 0 0 137 137 137 136 137 0 0 134 133 134 137 0 140 141 143 157 0 0 166 151 150 150 158 183 0 0 221 0 222 222 0 
92 93 94 95 96 0 96 97 0 93 0 84 83 83 83 0 0 0 0 85 0 85 85 0 87 0 0 0 0 89 90 0 0 0 0 0 92 93 93 93 92 93 0 0 0 94 0 0 94 94 95 0 0 97 97 0 96 95 95 96 0 0 0 0 0 100 0 100 100 100 101 0 0 0 101 0 100 100 101 0 101 101 99 99 99 0 0 95 94 93 0 0 87 0 84 0 83 82 0 81 80 0 81 82 87 0 0 0 0 102 103 105 106 0 0 104 107 0 133 0 0 0 132 132 136 144 0 0 0 0 0 0 149 0 0 108 88 85 86 86 87 0 0 0 0 95 0 0 100 104 112 127 0 0 0 117 97 94 0 0 93 93 94 95 99 106 0 0 0 102 98 96 0 0 96 96 97 97 100 103 108 117 130 149 0 0 0 0 0 0 182 181 181 181 181 0 178 0 0 0 0 166 0 0 159 158 0 160 162 0 167 170 0 174 175 0 0 176 175 176 0 0 0 0 0 0 185 186 190 0 0 0 0 0 181 179 0 0 0 181 166 165 0 0 170 0 0 0 0 0 0 167 172 0 0 181 160 157 157 157 0 0 156 156 155 155 156 170 0 0 0 176 158 156 156 157 0 157 157 158 160 161 164 0 0 0 0 0 165 0 162 160 159 159 159 158 157 159 0 0 169 0 173 0 0 0 0 0 0 0 177 174 173 174 0 0 190 0 0 0 0 0 0 206 0 0 199 196 193 0 0 186 184 0 178 174 173 174 177 177 176 177 178 0 182 183 183 0 185 186 189 0 0 0 0 0 0 0 0 0 0 0 0 0 0 0 0 0 167 158 147 138 132 128 126 125 124 124 125 128 131 134 134 136 136 135 135 134 133 133 134 136 137 141 146 153 161 170 178 0 0 154 150 149 149 0 0 147 147 0 147 147 0 0 150 150 150 150 0 149 149 0 0 149 149 0 0 0 123 109 125 0 0 0 0 152 153 154 0 0 154 155 155 0 154 154 0 0 151 148 0 0 144 142 0 0 136 0 135 0 134 134 0 135 0 0 0 0 0 136 136 0 137 139 0 0 0 0 0 0 140 140 0 139 138 0 0 139 139 0 138 0 0 0 137 137 137 0 136 136 136 136 0 135 0 0 0 0 132 133 0 0 132 132 0 132 0 131 0 0 0 130 129 129 129 0 0 0 0 0 127 0 0 126 125 124 0 124 124 0 125 125 0 0 0 0 0 0 119 0 117 116 115 0 116 117 0 131 0 0 0 0 141 142 144 145 0 0 0 0 145 145 145 145 0 146 145 0 0 0 144 0 0 142 0 140 140 0 0 142 0 142 143 143 0 0 141 142 0 0 141 139 137 137 137 136 0 0 139 0 0 0 137 137 0 137 135 134 133 136 0 140 140 142 151 0 0 183 154 150 152 161 186 0 0 220 0 222 222 0 
92 0 0 0 0 0 97 97 0 0 88 84 0 0 0 84 85 0 85 84 85 0 85 0 87 87 87 88 0 88 0 0 90 89 0 92 92 0 93 0 93 93 92 0 0 0 94 0 94 0 0 0 96 0 0 96 96 0 96 96 97 98 99 99 98 0 100 100 0 100 100 0 101 0 0 100 100 100 0 0 0 100 0 99 99 0 0 96 0 0 0 0 87 0 85 84 83 0 82 0 81 0 81 81 83 0 0 0 0 102 0 105 0 107 106 105 107 119 0 0 140 133 131 133 138 0 0 0 157 156 0 0 152 0 0 107 87 0 0 0 87 88 88 91 93 94 0 98 99 102 110 0 0 0 0 0 102 94 0 93 93 93 95 97 105 0 0 0 104 98 96 0 0 96 96 97 99 100 104 113 129 148 0 0 0 0 0 0 187 184 0 181 179 0 0 178 176 175 0 171 0 165 163 0 158 156 158 0 162 164 166 0 0 0 0 177 177 177 0 177 178 0 0 0 183 185 188 193 0 0 0 0 0 179 172 188 0 0 0 171 164 165 166 0 0 0 171 0 170 0 0 167 182 0 0 166 158 0 157 157 157 157 0 0 0 0 158 174 0 0 0 165 158 0 157 0 0 0 157 158 158 160 161 163 0 0 0 0 161 158 157 156 155 0 155 156 157 159 0 166 169 171 172 174 177 0 179 0 0 0 177 0 174 176 0 184 187 192 198 201 202 203 0 204 0 0 0 195 0 0 187 0 183 0 0 175 173 174 175 176 178 0 180 0 0 0 184 185 186 187 192 0 0 0 0 199 199 200 0 0 0 0 0 0 0 0 0 0 0 0 0 0 0 0 164 160 158 155 153 153 153 155 155 155 153 151 152 153 156 160 166 174 0 0 0 0 0 0 0 0 0 155 148 148 0 0 0 0 147 0 146 146 0 0 150 150 0 0 149 149 149 149 0 149 149 0 0 0 114 111 0 0 0 149 0 152 153 0 0 155 154 0 0 153 153 0 0 0 148 146 0 0 142 0 0 136 134 133 133 0 0 0 133 134 135 136 0 137 0 135 135 136 135 0 0 0 140 140 140 140 140 0 0 139 139 139 139 139 0 0 137 137 136 137 0 0 136 136 0 136 136 136 0 135 134 0 134 0 0 132 0 0 131 132 0 0 131 131 131 131 0 130 0 0 129 0 129 128 128 127 127 127 127 0 0 0 0 125 0 0 0 125 0 0 0 121 121 120 0 0 117 115 114 114 114 115 122 0 0 0 141 0 142 0 0 0 0 145 0 145 0 0 0 145 0 0 0 0 0 0 143 143 0 0 0 140 140 140 0 0 0 143 0 0 143 142 141 141 0 0 142 140 138 137 0 137 137 0 139 0 138 0 138 0 0 137 0 134 133 134 0 0 0 141 146 173 0 0 162 151 153 166 0 0 0 221 0 222 0 0 
93 0 95 0 96 97 0 97 0 92 87 84 0 0 84 0 85 0 0 0 86 0 0 0 0 0 87 87 0 89 89 90 0 90 0 92 92 0 0 93 93 0 94 94 94 94 94 94 94 0 95 95 95 95 0 0 0 96 0 0 0 0 0 99 99 0 0 100 100 100 100 100 100 100 0 100 100 0 0 100 100 100 100 100 0 99 0 95 94 92 90 89 87 86 0 0 0 83 82 0 81 81 81 81 81 88 0 0 101 101 103 0 107 0 0 106 106 115 0 0 0 133 131 134 140 148 0 0 0 159 0 0 0 0 0 108 89 86 86 0 87 0 88 0 0 0 0 98 0 101 107 121 0 0 0 0 107 94 93 93 0 94 97 102 0 0 0 107 100 97 95 96 96 97 98 99 102 109 122 144 0 0 0 0 0 0 191 187 185 182 0 0 0 0 0 176 0 0 0 0 0 164 162 160 158 156 158 161 163 164 166 170 173 176 0 0 178 0 178 177 177 179 181 0 182 185 194 0 0 0 0 0 180 169 176 0 0 0 182 164 163 0 166 167 0 0 0 0 169 0 166 172 0 0 179 160 158 0 156 157 0 157 0 157 157 158 158 178 0 0 187 161 157 0 0 157 158 158 158 0 158 159 160 160 0 159 160 158 157 156 156 155 155 0 155 156 156 159 0 166 0 0 172 0 175 0 0 0 0 0 0 0 173 175 0 183 0 194 197 199 199 200 201 0 0 0 0 193 0 187 184 183 181 181 0 177 175 0 176 0 0 0 181 0 0 185 185 185 187 189 0 0 0 202 0 200 199 199 202 207 0 0 0 0 0 0 0 0 0 0 0 0 0 0 0 0 0 0 0 0 0 0 0 0 0 0 0 0 0 0 0 0 0 0 0 0 0 0 0 0 0 155 148 0 0 148 148 148 0 0 147 0 0 150 0 150 0 150 149 149 0 0 149 149 149 0 0 0 108 117 0 0 0 0 0 152 154 0 0 0 0 0 0 152 152 0 151 0 146 143 142 140 139 0 136 135 0 133 132 132 133 0 133 0 0 136 137 0 136 0 0 136 136 0 0 0 140 140 140 140 140 140 0 140 0 139 139 139 139 0 138 0 0 0 0 0 136 0 136 136 136 0 0 0 133 0 0 0 0 132 132 131 131 132 132 0 131 131 0 0 0 0 130 0 0 128 128 128 0 0 127 0 0 0 127 0 126 125 125 125 125 0 124 0 0 122 0 0 120 0 116 115 114 112 112 114 118 0 0 0 141 0 141 142 143 0 0 145 0 0 145 144 143 145 0 0 145 144 145 0 144 143 0 0 141 141 0 141 0 0 0 142 0 0 0 142 141 141 142 0 0 0 138 137 0 0 138 0 0 138 138 138 138 0 0 0 136 134 133 133 0 139 140 141 144 160 0 0 176 154 151 163 195 0 0 221 222 222 0 223 
94 0 95 95 95 0 0 0 0 91 87 83 83 83 0 84 85 85 86 0 86 86 86 0 88 0 88 0 89 0 89 0 0 91 0 0 0 93 92 93 0 0 94 94 94 94 93 0 94 95 0 95 95 0 95 95 95 96 96 97 98 0 99 0 0 0 100 100 100 0 101 0 101 0 101 100 101 101 101 0 99 0 0 0 0 0 0 96 94 0 0 0 87 85 84 84 84 0 0 82 81 81 81 81 81 84 92 0 0 102 104 0 107 0 108 107 106 114 0 0 0 138 132 136 0 0 0 0 0 160 0 0 0 0 0 112 90 86 0 86 87 0 88 0 0 0 0 98 0 101 104 117 0 0 0 0 115 96 93 94 94 96 101 0 0 0 107 100 98 96 0 96 98 101 102 106 117 135 0 0 0 0 0 0 0 0 189 186 183 0 0 0 175 174 174 174 174 0 0 0 166 164 0 161 0 158 160 0 164 166 169 171 0 177 0 0 180 0 178 179 0 0 181 182 184 193 0 0 0 0 0 180 169 167 185 0 0 0 173 163 163 165 166 167 167 169 169 0 167 166 167 182 0 0 163 157 157 157 157 157 0 157 0 0 159 160 162 186 0 0 183 159 157 0 157 158 0 158 0 0 158 159 0 159 159 158 157 156 156 156 156 156 156 157 157 157 157 158 0 0 0 0 0 0 0 174 174 176 0 0 173 0 172 174 176 183 0 0 0 199 199 199 199 199 0 0 0 190 187 184 182 0 181 0 180 0 177 177 178 0 0 0 181 182 0 0 0 187 0 193 0 0 0 0 0 200 199 199 203 0 214 0 0 0 225 225 0 227 227 0 0 0 0 0 0 0 0 0 0 0 0 0 0 0 0 0 0 0 0 0 0 0 0 0 0 0 0 0 0 0 182 152 147 0 0 148 0 0 147 147 147 0 0 149 149 0 0 0 0 149 149 0 149 149 0 0 0 118 107 125 0 0 0 152 153 0 0 0 0 153 0 0 151 150 150 0 148 0 143 140 0 0 0 0 135 133 0 0 132 131 132 0 134 135 136 0 0 0 135 135 136 0 0 0 0 0 141 0 0 140 140 0 0 0 0 0 0 139 139 0 0 0 0 136 136 136 136 0 0 0 0 0 135 134 133 132 0 0 132 0 0 0 0 0 0 131 0 0 0 130 130 130 0 129 0 129 0 0 0 127 0 128 0 127 127 0 0 0 125 0 0 124 124 123 123 122 121 0 0 0 116 0 0 112 0 113 115 0 0 0 0 0 0 0 141 142 144 145 0 0 0 144 144 0 0 0 145 145 145 0 0 0 0 0 141 141 0 141 141 142 0 143 143 144 0 0 142 141 142 0 0 0 139 136 136 0 0 0 0 138 138 0 0 0 0 0 0 0 134 133 0 0 0 141 142 152 0 0 193 161 152 161 194 0 0 222 0 223 223 223 
94 0 0 0 94 0 0 0 0 91 87 83 82 83 0 84 0 0 86 86 86 86 86 0 0 0 88 89 0 0 89 0 90 0 91 92 93 0 0 0 93 94 0 94 94 0 94 0 0 0 0 0 95 94 94 95 95 0 97 0 0 0 0 0 0 99 0 0 100 0 0 0 0 0 101 0 0 0 102 0 101 0 100 100 0 98 0 96 0 0 91 89 87 0 0 0 83 83 0 82 0 81 81 81 81 82 88 0 0 102 104 0 0 109 0 107 106 114 0 0 0 138 130 137 143 152 0 0 0 161 160 163 0 0 0 116 90 85 86 86 87 88 88 90 0 94 0 96 99 101 102 113 0 0 0 0 0 101 95 0 95 98 107 0 0 0 101 96 97 97 97 98 100 105 112 127 151 0 0 0 0 0 0 0 0 0 188 184 181 0 0 0 171 171 0 0 172 0 0 167 0 164 0 0 0 160 162 0 167 0 0 173 176 179 181 181 181 181 181 181 182 181 182 185 195 0 0 0 0 195 181 171 166 172 0 0 0 0 169 165 166 166 0 0 0 0 169 0 167 165 172 0 0 170 157 156 156 157 0 158 158 158 159 0 160 160 175 0 0 0 180 158 157 0 0 0 158 0 159 0 159 159 159 0 158 0 156 156 158 158 159 158 160 160 158 158 159 160 162 164 0 0 170 0 0 0 0 0 0 171 0 170 171 173 178 186 0 0 0 0 0 0 196 0 0 0 0 0 183 181 181 181 181 0 0 0 178 178 179 0 0 181 181 182 0 186 0 0 0 194 0 0 0 0 0 200 199 200 204 0 0 0 0 0 0 227 0 228 0 0 0 0 213 210 211 0 0 218 0 219 0 0 218 217 0 212 207 203 0 0 208 212 0 0 0 0 0 0 0 0 174 151 147 149 0 0 0 147 146 146 147 0 150 0 0 149 149 0 0 149 0 0 149 149 0 0 0 110 112 0 0 0 0 0 0 0 154 153 0 151 0 0 0 0 148 147 145 143 139 138 137 136 135 0 0 132 132 132 132 132 132 0 135 0 0 137 0 137 135 136 137 138 0 0 0 142 141 140 0 0 0 0 0 0 140 0 139 139 139 0 137 135 135 0 0 0 0 135 135 134 134 0 0 134 133 132 132 132 0 131 131 132 132 132 0 131 130 130 130 0 0 0 129 129 0 0 129 0 0 128 0 128 0 127 0 0 0 0 125 125 124 0 0 0 0 0 122 0 0 119 0 0 115 114 113 112 112 119 0 0 0 141 141 0 141 0 0 0 0 0 144 143 144 145 0 0 0 0 145 0 144 143 0 142 141 141 141 0 140 141 0 143 143 0 0 0 142 142 0 143 0 0 0 137 136 136 138 139 139 0 139 139 139 139 139 138 137 136 134 133 135 0 139 140 142 147 181 0 0 175 155 162 0 0 0 223 0 0 0 0 
94 95 95 95 94 95 0 0 0 0 0 83 82 83 83 84 85 0 86 0 86 0 0 86 86 87 88 89 0 89 0 0 90 90 91 91 93 0 0 0 93 0 0 93 0 0 0 95 0 96 0 96 95 95 95 0 0 0 97 0 98 0 99 99 99 99 98 99 0 100 100 101 101 101 101 101 102 102 0 0 0 101 100 0 0 98 0 96 0 93 91 0 89 87 87 0 84 83 82 81 0 81 81 81 81 82 85 0 0 0 103 105 0 0 0 108 106 110 128 0 0 135 131 139 146 0 0 0 0 164 162 164 0 0 0 123 93 86 0 87 0 88 0 0 92 93 95 97 0 0 102 110 0 0 0 0 0 109 95 95 98 105 0 0 0 104 98 96 97 98 98 102 109 120 140 0 0 0 0 0 0 0 0 0 0 0 185 182 180 178 0 0 169 169 0 0 0 169 167 0 165 163 0 162 0 162 0 166 0 0 0 176 0 181 0 0 0 0 0 184 185 185 190 199 0 0 0 0 193 181 175 170 167 181 0 0 0 181 167 167 0 0 0 0 0 170 0 0 165 166 0 0 176 159 157 0 0 157 158 0 159 0 0 0 159 164 0 0 0 0 175 158 0 157 157 158 0 0 159 0 0 159 159 0 158 157 157 158 161 0 0 0 0 0 165 163 163 0 0 163 164 166 167 0 0 0 0 0 167 166 167 0 169 174 181 0 0 0 198 0 0 0 193 193 0 189 185 182 180 179 0 0 0 180 0 0 178 0 0 0 0 0 0 181 0 0 187 0 0 192 0 0 0 202 0 200 199 200 204 0 215 220 0 0 0 0 0 0 0 0 0 0 213 208 209 0 0 216 217 218 0 0 220 0 0 0 208 203 0 0 205 207 0 0 0 216 216 216 0 0 166 150 148 0 0 148 147 0 146 146 148 0 150 0 0 0 0 0 149 0 148 148 149 0 0 0 125 108 119 0 0 149 151 153 0 0 0 152 0 0 149 0 0 0 0 0 0 0 139 137 135 134 133 133 0 132 0 132 0 133 133 0 136 0 137 0 0 137 137 137 137 139 0 0 0 142 141 0 140 139 138 138 139 0 0 139 0 0 0 137 0 0 135 0 135 134 135 0 134 134 0 134 134 0 0 0 132 132 0 131 0 0 132 0 132 0 131 130 130 0 131 130 129 129 0 0 129 128 128 0 0 0 128 127 0 126 0 125 125 0 124 0 124 124 123 122 0 0 120 119 118 117 116 0 113 112 111 114 0 0 0 141 141 142 0 0 142 144 0 0 142 143 0 145 0 146 0 0 0 145 0 144 0 142 141 141 141 140 140 0 0 0 0 142 0 0 0 0 0 143 0 0 140 137 137 137 138 0 139 0 139 139 0 0 0 0 0 0 135 134 134 0 0 140 141 146 169 0 0 187 162 166 200 0 0 223 0 224 0 224 
0 0 0 95 0 95 96 0 0 0 86 82 82 0 0 0 0 0 86 0 0 0 0 86 86 87 88 89 0 0 90 90 90 91 91 0 0 0 93 92 93 93 93 93 93 94 0 95 96 96 97 97 0 96 96 0 0 96 97 0 0 98 98 0 99 0 98 99 100 100 100 100 100 0 101 101 0 102 0 102 0 100 0 0 99 0 0 0 0 93 0 0 90 0 0 86 85 0 83 0 82 81 81 81 81 81 82 90 0 0 0 106 0 0 110 108 107 111 126 0 0 137 135 0 148 0 0 0 0 166 165 167 0 0 0 0 96 87 0 87 87 88 89 0 0 94 0 0 98 99 102 108 120 0 0 0 0 117 98 98 105 0 0 0 106 100 96 96 98 101 106 116 132 0 0 0 0 0 0 0 0 0 196 0 190 186 182 181 0 0 0 169 164 165 0 167 167 0 166 0 0 163 163 0 162 162 165 0 0 174 177 0 181 0 0 0 0 186 186 187 191 197 0 0 0 0 0 191 181 178 0 170 171 189 0 0 0 178 170 0 0 0 0 0 0 171 169 167 164 172 0 0 162 157 157 0 157 157 0 0 160 160 160 160 160 175 0 0 0 0 171 158 0 0 157 157 158 158 158 0 159 159 159 0 0 158 159 0 0 0 0 0 0 0 0 0 166 164 0 0 163 163 164 164 165 165 164 164 164 163 164 166 171 0 0 0 193 0 196 195 195 0 192 190 0 185 182 0 177 176 0 179 0 0 0 178 177 178 0 0 0 0 0 180 0 0 0 0 0 190 0 0 0 0 200 0 199 199 0 0 0 0 0 0 0 0 229 0 0 0 222 0 0 207 208 0 0 214 216 0 220 221 0 0 0 0 209 203 204 0 204 203 206 208 210 211 212 212 0 0 161 149 148 0 150 148 0 0 145 147 0 0 149 149 0 0 0 149 0 147 0 148 148 0 0 0 114 109 126 0 0 150 0 0 0 0 0 0 150 0 0 146 144 0 143 142 0 139 137 0 134 133 0 0 132 131 131 0 0 133 0 0 0 137 0 138 0 138 138 0 138 140 0 0 0 141 141 140 0 139 0 139 139 139 0 0 138 138 137 136 135 0 134 134 134 0 0 0 0 0 0 0 133 0 0 0 132 0 0 130 0 131 0 0 132 0 0 0 130 130 0 0 130 0 0 0 129 128 128 128 128 0 0 0 127 126 126 125 125 125 125 0 0 0 123 122 122 0 0 119 118 0 116 0 113 112 111 112 125 0 0 0 0 142 0 141 142 0 0 0 0 0 0 0 0 0 0 145 0 0 144 0 0 141 141 0 0 0 141 0 142 142 0 143 0 143 142 141 142 142 0 0 141 138 137 0 0 138 0 139 138 0 0 0 139 0 138 0 0 134 133 136 0 0 142 145 158 0 0 199 175 170 203 0 0 223 0 0 0 0 
94 95 0 95 95 95 0 0 0 90 84 82 82 0 0 85 0 0 85 86 0 87 87 87 87 87 88 0 89 89 0 0 0 0 0 90 92 92 93 93 93 93 0 0 94 0 94 95 0 0 97 0 0 0 96 96 96 0 0 98 98 0 97 98 0 0 99 0 0 0 0 0 0 0 100 101 102 0 0 0 0 100 99 99 99 99 98 97 95 94 0 91 0 0 88 0 85 0 0 83 0 82 0 81 81 81 81 87 0 0 103 106 109 0 0 0 109 112 0 0 0 0 137 0 148 0 0 0 0 0 167 169 0 0 0 0 96 87 0 87 86 87 88 90 0 0 0 0 98 98 101 108 0 0 142 0 0 0 105 105 0 0 0 107 101 98 96 98 103 112 126 0 0 0 0 0 0 0 0 0 191 0 0 0 186 0 182 0 0 0 0 165 161 162 164 165 0 0 164 163 0 163 163 0 163 163 165 0 0 0 0 0 0 0 0 0 188 187 189 194 0 0 0 0 0 0 188 179 177 0 0 171 176 0 0 0 0 175 171 173 174 175 0 175 0 0 169 166 172 0 0 165 158 0 156 157 157 158 158 0 0 160 160 160 166 0 0 0 0 0 167 157 0 0 157 157 0 158 0 158 158 0 159 159 159 160 0 0 0 0 172 0 0 0 0 0 0 164 161 161 0 161 0 160 0 0 160 0 161 161 162 165 173 0 0 0 0 0 195 194 193 0 191 188 0 0 181 0 174 175 0 177 0 0 0 178 0 178 0 0 179 178 178 178 0 181 0 0 0 188 0 0 0 0 0 0 198 199 201 207 0 0 0 0 227 0 229 0 227 0 220 0 0 202 0 0 0 212 216 0 0 0 223 222 0 0 0 204 204 0 0 201 203 204 206 208 211 0 0 0 155 147 148 0 0 148 148 0 0 145 0 0 149 149 149 149 149 0 0 0 147 0 0 0 0 0 110 114 0 0 0 0 0 153 0 152 0 150 0 0 0 143 141 140 139 139 138 136 135 0 0 133 133 0 132 131 132 133 133 134 135 136 0 138 0 139 139 138 139 0 140 142 0 0 143 0 0 140 0 138 139 0 0 0 138 138 0 136 135 0 0 133 0 0 133 0 134 134 133 132 133 133 133 0 133 132 132 0 0 0 0 131 131 0 132 132 131 0 130 130 130 130 130 0 0 0 129 0 0 0 0 128 127 0 127 0 126 0 0 125 125 0 124 0 123 0 122 0 120 119 118 117 116 115 0 112 0 111 119 0 0 141 141 0 0 141 141 0 0 144 143 143 0 0 0 0 145 145 146 0 145 0 143 142 141 141 141 0 141 0 0 0 143 143 143 143 0 142 0 142 143 0 0 139 136 137 0 138 0 0 139 0 139 139 0 138 137 0 0 134 132 134 0 0 141 143 150 191 0 0 187 178 0 0 0 222 0 222 222 222 
0 0 0 95 95 0 0 0 0 89 85 83 83 0 84 84 0 0 85 0 0 0 87 0 0 0 88 0 89 90 0 0 0 0 91 0 0 93 93 0 0 0 93 94 0 0 94 0 0 97 97 0 0 97 97 0 96 0 0 98 98 0 97 97 98 0 0 100 100 0 0 100 100 100 0 0 102 0 0 102 0 0 0 99 99 0 0 0 95 94 0 92 0 0 87 0 0 84 83 0 0 0 0 0 81 81 81 84 0 0 0 106 0 0 0 0 111 112 121 0 0 135 136 0 147 155 162 0 0 0 169 171 0 0 0 0 97 86 0 0 0 87 88 0 0 94 0 0 0 99 101 105 117 0 0 0 0 0 117 116 0 0 109 100 98 98 101 108 122 139 0 0 0 0 0 187 187 186 184 183 183 183 183 183 183 182 0 0 0 0 0 164 162 161 162 0 0 0 0 162 162 0 0 0 0 165 167 0 0 177 179 182 0 186 188 190 192 197 0 0 0 0 0 0 0 186 181 178 0 0 0 173 181 0 0 0 190 174 174 0 175 176 0 0 0 172 170 173 0 0 172 159 157 157 157 0 158 158 0 0 0 0 161 162 178 0 0 0 0 0 164 157 157 156 156 0 0 158 0 0 158 159 0 0 159 162 0 0 0 171 173 0 0 0 0 0 0 167 160 159 159 159 158 157 157 157 157 158 158 159 162 167 0 0 0 0 0 0 194 0 0 192 0 0 184 0 0 0 173 172 174 0 0 0 177 0 0 178 0 0 178 0 177 177 177 179 0 182 0 184 185 186 190 0 0 0 0 0 0 202 0 0 0 0 227 0 0 0 0 0 0 0 203 195 199 0 0 214 217 0 0 0 0 0 0 0 0 207 204 0 0 201 0 204 206 209 0 0 0 0 152 146 149 0 0 0 0 146 144 145 0 149 148 0 149 0 0 148 147 147 146 147 0 0 0 123 110 123 0 0 0 0 152 152 0 151 149 148 0 144 0 0 138 138 0 0 0 134 133 133 0 0 132 0 132 132 0 133 134 135 136 0 0 0 0 140 140 140 140 0 140 143 0 0 142 141 0 0 139 139 0 0 0 0 137 137 0 135 134 133 132 131 0 131 131 0 133 133 0 0 0 0 132 132 132 0 0 130 129 130 130 0 131 131 0 0 0 131 130 0 130 130 130 0 129 129 129 128 128 0 0 128 127 127 127 0 0 126 125 125 0 0 123 123 0 123 0 0 120 0 0 117 116 115 0 0 111 111 115 0 0 0 141 141 0 141 142 0 0 0 142 0 144 145 145 0 0 146 0 146 145 0 143 142 141 0 141 140 140 0 142 142 0 0 0 0 142 142 0 142 142 0 142 0 137 137 137 0 0 139 139 0 0 0 138 137 0 0 0 0 133 133 0 0 140 142 147 178 0 0 199 187 209 0 0 220 0 0 0 220 
0 0 95 0 96 97 0 0 0 89 85 83 83 84 0 0 0 84 84 85 86 86 87 87 87 88 88 89 0 90 0 91 91 91 90 92 0 0 93 93 0 0 94 94 94 94 0 0 96 0 96 97 97 0 0 0 96 96 0 0 0 98 98 98 0 99 0 0 100 0 0 100 0 99 99 0 0 0 101 0 0 0 100 99 0 0 99 0 95 93 0 92 90 0 88 86 85 0 0 83 0 82 82 0 81 81 81 81 87 0 0 106 0 112 113 112 0 111 118 126 131 132 136 0 146 155 164 0 171 170 170 172 0 0 0 0 102 86 86 0 87 87 88 0 0 93 94 97 0 99 100 102 111 126 0 0 0 0 131 0 0 113 102 97 99 104 116 134 0 0 0 0 0 0 0 182 183 182 181 180 179 177 178 179 180 0 0 177 172 169 166 164 0 161 160 0 0 0 0 160 160 0 0 163 164 165 169 0 0 0 0 182 187 189 194 199 0 0 0 0 0 0 0 194 184 181 179 178 177 0 174 174 187 0 0 0 186 174 175 0 176 0 0 176 0 172 174 0 0 0 163 159 157 156 157 158 0 0 0 160 160 160 161 167 0 0 212 210 0 0 162 157 0 0 157 0 158 157 0 158 0 0 0 0 160 0 0 0 0 172 0 175 0 175 175 175 0 0 162 158 0 157 156 155 155 155 155 0 156 158 162 167 0 0 0 187 190 192 193 0 0 0 189 0 182 0 175 171 0 0 0 0 0 174 175 0 0 177 0 0 177 0 0 175 175 176 0 178 0 179 179 181 183 186 0 0 0 189 189 193 203 0 0 0 0 0 0 0 0 0 0 210 201 196 198 204 0 0 0 0 0 225 0 0 0 216 212 208 204 200 199 0 0 0 0 0 0 0 0 178 150 146 0 0 152 0 0 0 145 147 0 148 149 0 148 148 0 0 146 146 0 0 0 0 0 116 113 0 0 0 150 0 151 0 0 0 0 145 0 142 140 0 135 0 136 0 134 132 132 132 133 0 133 133 0 133 133 0 135 0 0 0 139 139 140 0 141 141 0 141 142 143 145 0 142 140 140 0 0 0 139 0 137 136 136 0 0 0 0 131 0 129 129 129 0 0 132 132 0 0 132 0 0 131 131 131 130 129 129 0 130 0 131 131 0 0 0 0 0 0 0 130 130 130 129 129 129 0 128 0 0 0 127 127 126 0 0 126 125 0 0 0 123 0 0 123 122 121 0 0 119 0 116 115 114 113 112 112 113 0 0 0 0 141 0 142 0 0 0 0 143 143 144 144 0 0 146 0 0 146 145 0 142 0 0 141 0 0 141 141 0 142 143 143 143 0 142 141 141 0 143 0 0 0 137 137 0 0 0 0 139 0 139 139 138 137 0 0 0 135 133 132 0 0 139 141 144 162 0 0 212 199 212 0 0 216 0 0 0 0 
94 94 94 95 0 0 0 0 0 87 83 82 83 0 0 0 0 84 84 0 86 86 0 0 0 0 0 0 89 90 0 90 90 91 91 0 0 94 0 93 0 0 94 94 0 93 94 95 96 0 97 97 96 97 0 0 95 95 96 0 97 0 0 0 0 98 98 99 0 100 0 100 100 99 99 100 100 0 101 101 101 100 100 100 100 0 99 98 0 95 0 92 90 0 0 87 0 85 84 83 82 82 82 0 81 81 81 81 85 93 0 0 0 0 0 113 112 112 117 0 0 0 0 139 145 157 0 0 0 171 0 173 0 0 0 0 103 86 86 0 86 87 88 89 90 0 0 0 0 99 99 102 111 0 0 0 0 0 0 0 0 105 99 103 111 127 0 0 0 0 0 179 181 182 182 182 182 181 181 180 178 176 177 178 179 181 180 178 172 167 165 163 162 161 159 158 158 158 157 157 158 160 162 164 165 167 170 173 175 176 0 183 0 0 0 0 0 0 0 0 0 0 192 183 181 0 0 0 176 0 173 176 193 0 0 0 183 175 176 176 176 0 0 0 174 174 189 0 0 170 160 158 157 157 0 0 0 160 160 0 0 160 162 179 0 0 204 0 0 184 161 157 157 157 157 158 158 158 158 158 0 0 0 160 161 164 0 0 0 172 0 0 0 175 175 0 0 0 163 158 0 0 0 153 153 153 0 154 154 156 161 166 0 0 182 185 0 0 192 193 0 0 0 0 0 0 170 166 166 166 167 167 170 171 0 174 0 0 0 0 175 0 0 0 0 0 0 174 0 174 175 177 179 181 182 0 181 180 181 185 0 0 0 0 0 0 0 0 0 0 0 0 203 199 199 203 0 0 0 0 0 0 0 0 0 215 212 0 0 198 193 194 0 0 0 0 209 0 0 172 148 147 0 0 0 150 148 0 146 0 0 149 149 0 148 0 0 147 146 146 0 0 0 0 0 110 119 0 0 149 0 150 150 0 149 0 0 143 141 0 0 135 133 0 134 0 0 132 0 132 0 0 0 133 0 134 134 0 136 137 138 0 141 0 142 0 0 142 0 141 0 0 0 0 0 140 0 0 139 138 0 0 0 136 0 134 133 132 0 129 127 127 127 129 0 131 0 0 132 0 131 131 130 0 0 130 0 129 0 130 130 0 0 0 0 131 0 0 0 130 130 130 0 0 0 129 129 0 0 128 127 128 0 0 126 0 126 0 0 126 0 124 124 0 0 123 121 121 121 0 0 117 0 0 0 0 0 111 112 0 0 140 0 141 0 0 0 0 143 143 0 143 0 0 0 0 146 0 0 146 145 143 0 141 141 141 0 0 140 141 0 142 0 0 0 0 142 141 141 0 143 143 0 140 136 0 137 0 138 138 139 0 139 0 0 137 137 0 0 0 0 132 133 0 0 140 142 152 0 0 0 211 214 0 0 211 0 0 0 0 
94 94 94 94 97 0 0 0 0 87 83 82 0 83 84 85 85 0 85 0 86 0 87 87 0 88 0 0 89 0 0 0 0 92 0 93 0 0 0 93 93 94 94 94 94 94 94 0 0 96 0 0 0 97 97 0 95 0 96 96 96 0 0 97 0 0 98 99 99 101 101 0 0 0 0 100 100 0 100 101 0 101 0 0 100 0 0 0 0 0 0 92 0 89 88 87 86 0 84 83 82 82 82 0 81 81 0 0 83 89 0 0 110 0 115 0 113 112 116 0 0 129 130 136 146 0 0 0 0 172 172 174 177 0 0 0 104 86 86 0 0 0 0 89 90 92 94 0 97 99 0 103 109 121 0 0 0 0 0 125 110 105 110 124 0 0 0 0 0 173 176 179 181 181 182 183 0 0 182 181 0 179 180 183 0 0 0 0 0 0 170 164 163 0 0 156 155 155 155 155 157 161 164 165 0 0 0 0 0 176 0 183 0 0 0 0 0 0 0 200 193 188 184 181 178 0 0 0 0 174 173 178 0 0 0 0 181 177 178 0 177 0 0 177 177 189 0 0 178 164 161 0 0 158 158 0 0 0 161 0 0 161 166 0 0 0 195 0 0 180 161 158 158 0 0 0 0 158 0 0 0 158 159 0 160 164 0 0 0 174 175 0 176 0 175 174 0 0 161 156 0 0 153 151 151 152 0 0 153 155 0 165 0 0 0 0 0 0 0 0 0 0 0 0 0 173 169 166 167 167 166 167 167 0 171 172 0 173 174 0 0 0 171 169 169 0 0 0 0 171 0 174 176 0 0 0 174 173 176 181 193 0 0 213 216 217 217 0 217 0 0 0 205 201 201 204 208 213 0 0 0 223 0 219 216 0 0 0 0 0 189 186 190 0 0 0 209 0 0 165 147 150 0 153 152 150 148 146 146 0 149 149 149 149 0 0 0 146 146 147 0 148 0 0 123 109 0 0 0 0 0 149 149 0 147 145 143 141 0 136 135 0 132 131 132 132 0 131 131 131 132 0 0 134 134 134 0 0 136 137 139 0 0 143 143 0 143 142 142 142 143 0 0 0 0 139 139 0 138 137 136 136 136 0 134 132 0 130 129 127 126 126 0 0 0 131 0 0 0 131 0 130 0 0 0 129 128 0 0 0 131 0 131 131 131 131 131 131 0 129 129 130 0 130 0 129 0 129 0 128 0 0 128 127 126 0 125 0 0 0 0 0 0 123 123 0 122 0 121 120 118 117 116 0 0 0 0 111 112 124 0 139 140 140 141 0 0 0 143 142 0 142 143 144 145 0 146 0 0 146 0 144 0 142 0 0 141 141 141 0 0 0 0 0 0 0 142 0 141 0 0 143 0 140 137 136 136 137 0 0 0 138 138 0 138 137 0 137 136 0 0 132 133 0 0 139 140 146 183 0 0 220 219 0 0 206 204 0 0 0 
0 94 0 96 97 99 0 0 92 87 83 82 83 83 0 0 85 0 84 85 86 0 0 87 87 88 88 88 88 89 90 0 0 92 0 93 0 93 93 93 0 94 94 94 0 94 94 0 95 95 96 97 0 0 96 96 95 95 0 96 0 95 97 97 0 0 99 0 0 0 0 101 101 101 0 100 0 0 0 100 0 0 100 99 0 99 99 98 96 95 93 92 0 90 0 0 87 0 84 83 83 0 0 82 0 0 0 81 82 87 0 0 0 0 0 0 115 114 117 0 126 126 131 140 0 160 0 0 0 174 174 174 0 0 0 0 107 86 85 85 85 86 0 0 90 0 0 95 0 0 0 103 107 117 0 0 0 0 0 127 114 120 138 0 0 0 0 170 171 173 177 0 0 0 0 185 186 0 0 0 182 181 185 0 0 0 0 0 0 0 0 171 164 160 0 155 154 154 155 157 160 0 0 0 0 0 0 175 176 177 0 183 188 0 0 0 0 200 195 189 186 184 181 178 176 175 175 174 174 173 173 181 0 0 0 202 187 183 182 180 178 177 176 176 183 0 0 188 169 163 161 0 159 159 158 160 161 0 161 0 162 161 177 0 0 199 191 0 0 177 161 160 0 160 159 159 0 0 0 159 159 159 159 159 160 163 0 0 173 0 0 0 176 0 0 0 0 0 158 153 0 0 152 151 151 151 0 151 152 154 158 163 0 0 0 182 184 0 0 0 0 0 0 0 0 172 0 0 0 0 0 0 167 0 0 170 0 0 0 0 0 0 0 165 165 165 164 166 167 0 170 0 173 0 173 171 170 171 175 181 189 0 0 209 0 213 213 214 214 213 0 0 207 205 0 206 208 211 216 0 0 0 0 217 215 213 0 0 0 0 188 183 186 196 0 207 210 0 0 160 148 0 0 154 0 150 148 146 148 0 149 149 0 0 0 148 147 145 0 0 148 148 0 0 114 114 0 0 149 0 0 0 0 0 145 0 0 138 0 135 133 0 131 130 131 131 0 131 130 131 0 134 0 135 134 135 0 0 138 138 0 0 0 144 144 0 143 142 0 143 0 0 0 142 140 139 138 138 137 136 0 0 135 0 133 0 0 129 0 0 126 0 0 129 130 0 131 0 130 130 0 129 129 128 0 128 127 128 129 0 0 131 131 130 0 0 131 131 0 129 129 0 130 130 0 129 129 129 128 0 128 128 128 0 0 125 125 0 125 125 125 0 124 123 123 0 0 0 121 0 119 0 0 115 114 112 112 0 112 122 0 0 139 0 141 141 0 0 0 142 142 141 142 143 144 0 146 0 0 146 0 144 0 142 142 0 0 141 0 0 142 142 143 0 142 0 142 0 140 0 142 143 0 0 138 136 136 0 138 0 0 138 139 0 0 138 0 137 136 136 0 133 132 134 0 138 140 143 171 0 0 225 223 0 0 197 195 0 195 195 
93 94 0 97 0 0 0 0 0 86 83 0 0 84 0 0 84 84 85 85 86 87 0 87 0 0 87 88 0 0 90 90 90 91 92 93 0 93 93 0 0 94 0 0 0 94 95 0 95 0 0 96 0 0 96 0 0 0 0 96 0 95 0 0 0 0 99 98 100 0 0 101 0 0 0 0 100 0 0 100 0 100 99 98 0 0 0 97 95 95 93 91 90 0 0 0 0 85 0 0 0 0 83 82 0 0 81 81 81 85 94 0 0 0 0 0 116 0 117 123 0 132 136 0 151 0 0 0 0 0 175 176 0 0 0 0 108 87 86 86 0 0 87 87 0 91 0 94 96 0 100 102 104 113 0 0 0 0 0 142 141 0 0 0 0 0 171 171 171 175 0 0 0 0 0 0 188 189 189 0 186 187 0 0 0 193 0 190 188 186 0 0 169 160 156 155 154 154 156 0 0 0 166 0 0 0 174 175 177 0 0 0 185 189 0 0 193 191 189 186 0 0 0 175 174 173 0 173 174 174 174 182 0 0 0 207 199 0 0 188 181 178 176 178 0 0 0 174 167 165 162 161 0 0 160 0 161 0 0 0 161 165 0 0 0 184 192 0 0 174 161 0 0 161 0 0 159 158 158 159 0 0 159 0 160 162 0 0 173 174 175 0 0 0 174 0 0 0 156 152 0 152 0 151 0 0 150 150 151 152 156 161 166 0 0 0 183 0 0 0 0 0 0 0 176 172 0 0 0 170 0 0 167 167 169 169 169 0 0 167 167 0 165 163 162 162 162 163 164 0 167 0 0 171 170 167 169 172 177 181 188 0 202 0 208 0 212 212 0 212 0 0 207 0 207 0 209 210 214 0 218 218 217 216 0 0 0 0 0 0 186 183 187 196 0 0 212 0 0 156 149 0 0 0 0 150 147 148 0 0 150 0 0 148 0 0 0 146 0 0 0 0 0 0 111 124 0 0 0 0 148 148 0 0 143 0 138 136 0 133 132 131 130 131 131 132 0 130 130 132 133 134 0 136 0 137 0 0 139 140 142 143 145 145 0 0 143 0 142 143 0 0 0 142 139 139 0 137 0 136 135 134 0 0 131 0 129 0 126 126 125 0 127 128 0 0 130 0 129 0 129 128 0 128 0 127 127 128 0 0 130 0 0 131 130 131 0 131 0 0 129 0 0 130 0 0 129 0 129 0 128 0 0 0 0 124 124 124 124 0 124 123 0 0 0 123 122 121 121 0 0 118 0 0 0 0 111 111 111 120 0 0 0 140 0 141 141 0 0 0 0 0 141 142 144 0 146 0 0 146 0 0 141 141 142 0 0 141 140 141 0 142 142 0 0 142 142 141 140 141 142 0 0 0 139 137 136 0 137 137 138 139 0 0 0 138 0 0 0 136 0 134 132 132 0 0 139 141 159 0 0 229 227 0 0 191 186 187 187 187 
94 95 96 0 0 0 0 0 0 84 82 0 0 84 84 84 84 0 85 0 0 87 0 0 88 0 88 0 89 89 90 90 0 0 0 92 0 93 0 93 0 0 94 0 94 94 0 0 95 0 0 95 95 95 0 0 95 95 0 0 95 0 0 0 0 0 98 98 0 0 0 0 100 100 99 100 0 101 0 0 100 100 100 100 0 100 100 0 97 0 0 92 0 90 90 89 87 85 85 0 0 84 83 0 0 81 81 81 81 83 90 0 0 0 0 116 116 116 118 0 0 0 139 144 149 160 0 0 0 175 175 177 178 0 0 0 110 89 0 86 0 87 0 88 89 90 0 93 94 0 100 101 103 111 0 0 0 0 0 0 0 0 0 0 0 175 174 0 174 0 0 0 0 187 188 190 0 0 0 191 190 0 0 197 0 0 195 193 190 189 0 0 173 162 157 156 0 155 157 0 0 0 167 0 172 174 175 176 0 0 180 181 0 185 185 186 186 187 0 185 0 0 0 174 172 172 174 175 176 177 178 187 0 0 0 0 207 0 0 0 0 183 177 184 0 0 177 170 0 165 0 162 0 160 160 0 161 0 0 161 161 175 0 0 0 176 196 0 0 170 161 0 0 0 161 160 159 158 158 158 160 0 160 0 159 161 165 0 0 0 174 0 0 0 0 0 0 160 154 152 0 151 151 150 150 0 0 149 150 151 154 0 163 0 0 0 181 183 0 0 0 0 181 177 174 173 172 0 171 171 0 0 0 0 170 169 167 166 165 165 165 164 162 161 161 161 161 161 0 163 165 166 0 170 170 170 172 0 0 184 190 0 0 0 0 0 0 0 0 0 0 0 207 207 0 0 209 210 212 0 0 216 0 214 0 210 207 0 0 193 186 185 189 197 0 0 0 0 0 152 149 0 0 154 0 150 148 150 0 0 150 149 148 146 146 146 0 0 0 146 0 0 0 121 114 0 0 0 149 0 0 0 145 0 141 138 137 136 0 133 0 132 132 132 132 0 133 132 132 0 0 0 136 137 0 0 139 139 140 0 143 0 0 0 0 144 0 0 142 144 0 0 144 141 139 0 138 0 136 0 0 133 0 131 130 0 127 126 125 125 0 126 0 0 0 0 129 129 129 0 128 128 0 0 127 126 127 0 0 128 0 0 0 0 0 131 0 0 0 129 128 0 0 0 129 129 0 0 0 0 128 127 127 0 124 123 123 123 123 0 0 123 0 0 123 0 0 120 0 0 0 0 0 116 115 0 112 110 110 116 0 0 139 140 0 141 141 0 0 142 0 141 0 0 0 0 0 0 146 146 0 143 141 142 0 142 141 141 140 0 0 141 0 0 0 142 0 141 0 140 141 0 0 142 139 137 0 0 137 137 0 0 139 0 0 0 138 138 137 136 0 134 133 131 134 0 139 142 152 0 0 230 229 0 0 189 181 181 181 181 
0 95 0 0 101 101 0 94 87 83 81 82 83 0 84 0 0 0 0 0 86 0 88 87 88 0 88 0 89 0 90 0 91 90 90 92 0 92 92 92 93 0 93 0 93 0 0 0 0 0 0 0 94 94 94 94 94 95 0 96 96 95 96 96 98 98 99 99 99 100 0 100 100 0 0 0 101 101 0 99 100 0 0 0 0 0 0 0 0 0 0 93 91 0 0 89 0 86 85 84 0 0 0 0 82 0 0 0 81 82 87 96 0 0 116 0 0 117 119 0 0 0 0 0 150 158 0 0 0 0 177 0 179 0 0 0 112 88 86 85 86 0 87 0 89 90 0 0 95 0 0 0 102 110 125 0 0 0 159 0 0 0 0 182 0 178 177 178 180 182 184 184 186 189 191 0 0 0 0 195 195 0 0 200 0 199 0 0 193 0 0 0 0 166 159 156 155 156 0 0 0 165 166 170 173 0 176 177 0 180 180 0 181 182 0 183 183 0 0 0 0 0 174 171 171 173 0 0 179 181 184 195 0 0 0 0 210 0 0 0 0 0 186 0 0 180 171 169 166 0 163 0 162 161 161 161 162 162 162 161 165 188 0 0 182 173 0 0 0 166 162 0 162 0 161 160 160 160 0 160 0 0 0 0 162 163 165 0 0 0 0 0 0 0 0 0 161 156 153 151 0 151 0 151 150 150 0 148 149 150 152 156 161 165 0 0 0 0 0 0 0 0 176 175 173 173 172 0 0 0 172 0 0 0 0 0 0 166 165 164 0 162 162 161 0 0 161 161 161 162 164 165 167 170 172 174 0 0 0 0 0 195 199 202 205 207 0 0 209 208 0 209 207 208 0 0 210 209 0 212 0 0 0 212 210 208 0 0 0 192 188 190 194 199 0 210 0 0 179 150 151 0 0 0 152 150 149 0 0 0 149 148 0 0 146 145 144 144 144 145 146 0 0 116 124 0 0 148 148 148 147 146 145 143 140 0 0 135 134 0 132 133 0 0 0 0 0 134 134 0 0 137 138 0 139 140 0 140 0 0 0 0 146 0 146 144 0 143 143 145 0 0 143 140 138 0 137 0 135 134 133 0 0 0 0 128 126 0 125 125 0 125 126 127 128 129 0 0 0 128 0 127 0 0 126 126 0 126 126 127 0 0 130 0 130 0 0 129 0 128 128 128 128 129 129 128 128 127 0 128 127 0 0 125 122 0 122 0 123 123 0 124 124 123 123 122 0 121 0 120 0 0 117 0 114 113 112 111 110 114 0 0 139 140 0 0 0 0 0 141 140 140 0 142 143 0 145 0 0 146 0 144 143 143 0 142 0 141 0 0 141 140 140 0 0 0 0 140 0 0 140 142 0 0 0 136 135 136 0 137 0 138 138 0 139 139 138 138 0 135 0 0 0 132 132 0 0 141 146 179 0 0 231 0 0 189 178 176 178 177 
96 97 0 0 0 0 0 93 87 0 82 82 0 83 84 0 84 85 85 86 86 0 0 0 0 0 0 89 88 0 0 0 91 0 0 0 0 92 92 0 0 94 94 0 94 0 0 95 0 0 0 93 94 0 94 93 94 95 95 0 0 96 0 97 0 0 0 99 99 99 0 100 100 100 0 101 0 0 0 99 100 0 100 100 100 100 0 98 97 96 0 93 92 0 91 0 88 0 85 85 0 84 83 82 82 0 81 81 0 82 85 94 0 0 0 0 0 119 120 125 0 0 0 0 146 156 0 0 0 177 0 0 0 0 0 0 115 89 87 86 86 0 87 88 89 90 90 93 95 97 99 0 101 107 121 0 0 152 156 0 0 0 185 184 183 182 182 183 184 186 188 187 189 0 195 0 0 200 199 199 199 200 0 0 0 0 0 0 195 0 0 0 0 169 161 158 156 157 159 0 0 166 167 171 0 0 0 178 0 0 180 180 180 180 0 0 0 0 0 0 0 175 172 170 172 0 0 179 181 185 193 0 0 0 0 216 212 0 0 0 0 0 0 0 186 171 169 167 165 164 163 0 0 162 161 163 165 166 167 167 175 0 0 0 172 177 0 0 0 165 162 162 162 0 0 162 0 161 0 0 162 163 0 163 163 164 0 166 166 169 0 0 0 0 0 160 157 154 152 0 151 151 152 0 0 150 149 0 0 149 151 154 0 163 167 171 0 0 0 0 177 176 175 0 174 173 0 171 0 0 172 0 173 0 172 0 0 0 165 0 0 162 0 0 0 0 162 0 0 164 165 0 0 0 0 0 0 0 185 0 0 0 197 200 203 0 207 207 0 207 0 0 0 209 0 0 0 209 209 210 0 0 0 0 208 0 0 0 0 194 194 0 0 200 0 210 0 0 170 150 153 0 0 0 152 150 150 0 151 149 148 147 146 0 0 0 143 143 0 0 0 0 130 116 0 0 0 0 0 147 146 145 0 142 140 138 136 135 0 0 134 134 135 135 135 136 136 135 136 137 138 139 0 140 140 141 0 141 141 0 146 0 147 0 0 144 0 144 0 0 0 0 142 139 138 137 0 134 133 133 0 0 0 129 128 0 0 125 125 0 0 125 0 127 0 0 128 0 128 126 0 0 0 126 125 125 125 126 0 0 128 129 0 130 0 0 130 129 128 127 127 0 128 128 0 0 0 128 0 0 128 0 0 0 123 122 122 122 122 0 0 124 0 0 123 122 0 120 0 119 0 0 116 0 114 0 0 0 110 112 0 0 0 0 0 141 0 0 140 140 139 139 0 142 0 144 145 0 0 0 0 0 143 0 0 142 142 141 0 142 0 141 140 140 141 142 0 140 0 140 140 142 0 0 0 136 135 135 0 136 137 0 138 0 139 0 0 138 0 135 135 0 134 132 132 0 137 139 142 162 0 0 232 0 0 192 176 175 0 0 
98 0 100 101 0 0 0 0 85 82 82 82 83 0 84 84 0 85 0 0 86 0 87 87 88 0 0 89 89 90 90 91 91 0 92 0 0 0 92 92 0 0 0 0 94 0 95 95 95 95 0 94 0 0 94 94 94 96 96 97 97 97 0 0 0 100 100 0 99 99 100 100 99 100 0 101 101 101 0 100 100 0 99 99 99 100 0 98 0 0 0 93 92 0 91 0 88 0 86 85 85 84 0 83 82 82 81 0 81 81 83 90 0 0 0 0 0 121 122 126 0 133 135 138 145 157 0 0 177 177 177 177 180 0 0 0 117 90 86 86 0 87 0 0 0 0 91 93 0 96 98 100 101 105 117 0 0 0 153 166 0 0 189 187 186 186 189 0 0 0 0 0 194 195 198 200 0 0 0 0 202 0 0 0 0 0 0 0 0 195 0 0 0 170 162 158 0 158 160 163 0 166 0 172 0 177 0 0 0 181 181 0 180 179 179 177 177 177 0 175 174 173 170 171 174 177 0 181 184 190 0 0 0 0 0 217 212 211 0 0 208 0 0 0 177 170 167 166 165 163 162 163 163 162 163 0 0 0 0 177 189 0 0 189 166 181 0 0 187 163 161 162 0 0 163 0 163 162 162 0 163 164 0 0 164 164 165 166 165 166 166 164 163 160 157 155 154 152 151 151 151 0 0 152 0 151 149 149 148 149 151 154 157 0 164 167 0 171 171 172 172 173 0 0 0 0 173 172 172 171 172 0 0 0 172 171 0 167 166 0 0 0 0 163 164 163 163 165 166 167 170 172 0 176 0 0 182 0 185 187 0 0 0 0 201 0 0 0 0 207 207 0 0 210 0 0 0 0 0 0 208 0 0 0 0 0 0 0 198 196 0 0 0 202 0 210 0 0 161 151 0 0 0 0 152 150 0 0 0 148 147 147 0 145 144 0 143 143 0 145 0 0 123 123 0 0 0 148 147 0 0 0 0 141 0 137 136 0 135 134 135 0 0 137 137 0 138 138 0 0 0 0 0 0 0 0 142 143 144 0 0 0 0 0 0 143 144 0 145 0 0 0 141 139 0 136 135 134 0 132 131 130 128 128 127 125 125 124 124 125 0 125 0 126 0 0 128 0 0 125 125 0 0 0 125 0 124 0 0 0 128 0 129 129 0 0 0 129 128 127 128 0 0 0 129 0 128 128 0 0 0 126 124 123 0 121 0 122 123 0 0 0 0 0 123 122 120 120 0 118 118 116 116 0 0 0 112 0 110 112 0 0 0 0 140 140 140 0 140 0 139 139 140 141 0 0 0 146 0 145 145 0 144 143 0 0 0 141 0 0 0 141 0 141 0 0 0 141 0 0 140 142 0 0 141 138 136 0 135 135 136 137 138 0 0 0 139 138 0 0 135 135 0 0 132 133 0 138 141 152 0 0 231 0 0 198 176 175 174 175 
101 0 101 102 0 100 0 90 84 82 82 0 0 0 0 84 0 85 85 0 86 86 86 87 88 88 89 90 0 0 90 0 0 0 0 93 93 92 91 92 0 94 93 92 93 94 94 95 0 93 94 0 0 0 94 0 0 0 0 0 0 98 99 0 100 0 100 0 0 100 0 0 0 0 101 101 101 99 0 100 100 0 99 99 99 100 0 0 97 94 94 93 0 0 90 0 0 0 0 0 85 0 0 83 0 82 82 0 0 0 82 86 95 0 0 0 0 0 0 126 0 131 134 141 150 0 0 0 177 0 178 179 0 0 0 0 118 89 86 86 0 0 0 0 0 0 92 0 0 96 0 0 101 102 109 0 0 0 151 163 0 0 0 0 0 195 0 0 0 0 0 0 0 0 200 202 0 0 0 0 205 0 0 0 0 0 202 200 0 0 193 0 0 167 162 158 158 0 161 0 166 0 0 174 0 178 180 0 182 182 182 181 181 180 178 176 175 173 173 173 172 172 172 174 0 179 181 184 188 195 0 0 0 0 0 0 215 212 0 211 0 0 0 188 176 171 169 167 165 164 0 164 164 165 0 0 0 0 181 184 0 0 0 180 167 189 0 0 181 162 162 0 163 163 163 164 0 0 163 164 164 0 0 166 166 167 167 0 0 0 169 166 164 162 159 155 153 152 0 151 152 0 0 153 0 0 150 149 0 151 152 154 156 159 161 0 166 0 0 169 169 170 0 173 173 0 0 0 172 171 171 172 172 172 0 171 0 167 0 165 163 163 164 164 166 167 170 0 0 0 0 0 177 178 0 0 0 0 185 186 0 0 0 0 0 0 0 0 0 0 0 0 0 0 0 0 210 0 207 0 0 0 202 201 202 0 199 199 198 198 199 0 201 202 205 209 0 0 155 152 0 0 0 0 151 150 0 151 149 148 0 147 0 0 143 142 142 142 143 144 0 0 118 130 0 146 0 147 0 0 145 144 0 141 0 137 137 0 135 136 136 137 138 0 0 140 0 0 141 0 0 142 142 0 142 143 144 0 146 147 0 0 148 0 145 144 143 0 0 0 0 143 140 138 0 0 135 0 132 131 130 0 127 0 0 125 0 124 124 0 0 125 125 126 0 0 127 127 0 125 125 0 123 124 124 0 0 125 126 0 128 0 129 0 0 0 0 0 127 0 0 0 128 128 0 0 128 128 0 0 0 125 123 0 0 121 0 0 0 124 124 125 0 0 122 0 0 0 118 0 0 116 0 0 113 113 112 111 0 110 0 0 138 139 0 0 0 140 0 139 0 138 0 141 142 143 144 145 0 146 145 144 144 0 0 0 142 141 142 0 141 141 0 0 0 0 0 141 0 0 0 0 143 0 0 139 136 135 135 0 135 136 0 0 0 0 0 139 0 0 136 135 0 0 131 132 135 137 140 145 181 0 0 234 0 204 176 174 174 174 
0 0 0 0 0 0 0 0 84 83 82 0 0 0 0 84 84 0 0 85 0 87 87 0 88 89 0 90 0 0 89 90 0 90 92 0 0 92 92 0 0 0 0 0 0 0 0 95 0 95 0 0 94 0 95 95 96 0 0 99 0 0 100 0 0 0 99 99 100 0 0 101 101 0 101 0 0 0 0 0 100 99 99 0 0 0 0 0 97 95 94 0 0 0 90 89 88 87 87 86 0 85 0 84 0 0 82 0 81 81 81 84 90 100 0 0 0 122 123 125 0 132 136 143 152 0 0 0 177 0 179 180 0 0 0 0 120 90 85 0 86 0 87 88 90 0 91 93 94 0 97 0 100 101 107 120 0 0 149 160 0 0 0 201 0 0 0 201 200 200 200 0 0 0 0 203 0 0 0 0 205 0 0 0 0 0 203 200 0 0 0 0 0 167 162 159 159 0 162 0 167 170 173 175 0 0 181 0 183 184 184 183 183 182 180 177 174 172 171 172 0 173 0 0 0 182 184 188 0 198 0 0 218 0 0 0 217 214 213 212 0 0 0 0 179 174 0 0 166 164 0 165 166 171 0 0 181 183 185 194 0 0 0 179 175 0 0 0 178 161 162 0 163 0 164 0 165 165 165 166 167 166 167 167 0 170 172 0 174 174 0 173 0 0 0 162 155 153 152 152 153 0 0 154 0 0 152 0 0 0 0 0 0 159 160 162 164 166 0 0 167 0 0 0 0 0 0 0 0 172 171 171 0 171 0 0 170 0 0 165 163 164 165 0 0 0 0 0 0 0 0 0 0 0 181 182 0 0 0 185 186 186 187 189 0 0 199 201 203 204 205 207 0 208 0 0 0 207 0 203 201 198 196 198 199 199 199 199 199 200 201 202 202 203 206 208 0 0 152 0 0 157 0 0 151 151 0 150 147 147 0 0 0 0 143 141 142 142 0 0 0 130 117 0 0 0 0 146 145 0 145 0 142 140 0 138 138 0 0 0 138 139 140 0 142 0 0 0 143 0 0 143 143 0 0 144 145 0 147 148 0 148 0 0 145 144 143 144 0 0 0 141 138 137 135 0 0 0 131 0 129 127 127 0 0 124 124 0 123 124 124 124 0 125 0 0 0 126 125 0 0 123 122 123 124 124 0 124 125 0 0 128 129 0 0 0 127 0 127 126 0 0 127 127 0 129 0 0 127 128 0 125 0 122 121 121 0 0 123 0 0 125 0 0 122 120 0 118 116 0 0 0 0 0 112 0 0 0 0 109 121 0 0 0 139 140 0 140 0 138 138 139 140 0 141 0 144 0 146 0 0 144 144 0 143 142 142 142 0 0 140 140 141 0 142 0 141 141 140 140 140 141 143 0 0 0 136 135 0 0 0 0 138 139 0 0 0 0 0 0 136 135 0 0 0 133 134 0 139 142 163 0 0 234 0 0 177 173 0 174 
0 0 0 103 0 0 0 88 84 0 0 82 83 84 0 85 0 85 0 0 0 0 0 88 0 0 0 0 0 90 89 89 0 90 91 93 0 0 93 93 93 0 93 92 92 94 95 95 0 95 95 95 95 0 95 0 96 0 98 98 0 100 100 101 101 0 99 0 100 100 0 0 0 0 100 0 0 102 0 101 100 0 100 0 0 100 0 0 97 0 0 93 91 0 0 90 89 0 87 0 85 84 0 0 84 0 82 81 0 0 81 82 88 98 0 0 0 122 123 125 130 134 139 145 154 164 0 0 0 0 0 181 0 0 0 0 122 90 85 0 86 86 87 88 89 0 0 0 0 95 96 0 99 100 105 115 0 0 148 155 0 0 0 204 0 0 0 0 0 201 0 0 0 0 0 0 0 0 0 0 0 0 0 0 0 0 0 0 0 0 0 0 0 0 161 159 0 161 163 166 169 0 175 177 0 0 182 183 185 188 188 189 0 0 184 0 176 173 0 172 0 175 177 179 182 0 0 0 0 200 0 0 0 221 222 0 0 217 0 214 0 0 0 192 181 177 174 171 167 165 0 167 170 0 0 182 184 186 189 200 0 0 196 182 184 0 0 0 174 162 162 162 163 0 165 166 166 0 170 0 0 0 0 169 170 173 0 0 0 0 0 0 0 0 0 0 163 157 154 153 0 0 0 155 154 153 154 0 0 155 0 157 158 0 161 161 162 164 0 166 0 0 0 0 0 169 170 0 0 0 0 0 0 170 170 170 0 0 167 166 164 165 0 0 0 0 0 0 179 0 0 181 181 0 181 182 183 183 184 185 0 185 184 185 187 190 194 0 201 203 205 0 207 207 208 208 207 206 204 202 199 195 193 196 199 199 200 202 203 205 206 206 206 207 207 0 0 167 151 155 0 0 0 153 150 0 0 0 148 0 147 0 0 144 142 142 142 143 0 0 0 124 120 0 0 0 0 147 146 0 144 0 142 141 140 139 138 0 0 138 140 141 142 0 144 143 143 0 144 0 145 0 0 0 0 145 145 0 148 0 0 0 0 146 0 0 143 144 0 0 143 139 137 0 135 0 133 131 130 0 128 127 126 125 0 124 0 122 0 0 123 124 0 125 0 0 0 0 124 0 123 122 122 0 0 124 124 124 0 126 127 128 128 0 129 128 127 0 0 126 0 126 126 127 0 129 0 0 0 0 0 124 0 0 121 121 0 122 123 124 0 0 0 0 0 119 117 116 0 114 0 112 111 111 0 110 0 0 0 107 119 0 0 0 139 0 0 0 0 139 139 0 0 0 140 142 0 0 0 0 0 144 145 0 0 0 0 0 142 0 141 141 0 0 142 0 141 141 0 140 140 140 0 0 0 0 136 135 135 135 136 137 138 0 0 139 139 0 0 137 135 134 0 0 134 134 134 136 138 140 151 0 0 234 0 0 179 173 0 0 
103 0 0 0 0 0 91 86 83 81 0 81 82 0 0 85 85 85 85 86 0 87 87 88 89 0 0 0 0 90 0 0 0 0 91 0 0 0 93 0 94 94 93 93 93 0 0 96 95 95 95 96 0 94 95 96 0 0 0 99 99 100 0 0 0 0 0 0 100 99 99 0 99 100 0 101 0 101 101 0 100 99 100 0 0 99 98 98 97 96 94 92 91 91 0 0 0 0 0 0 86 0 85 0 84 0 0 82 0 81 81 82 85 94 0 0 0 122 124 127 131 0 0 147 154 0 0 0 178 0 0 0 0 0 0 0 124 91 85 0 86 86 87 0 88 0 0 92 93 95 96 97 99 0 103 111 0 0 0 154 0 0 0 207 206 0 0 0 0 0 200 199 199 200 0 202 0 0 0 202 202 203 204 0 0 0 0 0 0 0 0 180 0 167 162 159 160 161 0 167 171 174 0 0 0 182 183 186 191 0 0 0 0 0 0 184 0 175 174 174 174 176 178 0 184 0 0 0 199 203 209 0 0 221 221 221 220 219 218 0 214 0 0 192 183 0 0 173 170 167 166 166 172 0 0 184 186 189 194 0 0 0 195 189 194 0 0 0 171 162 0 162 162 164 166 0 170 0 0 0 0 0 173 171 172 175 0 182 0 0 0 184 182 181 0 0 0 164 158 155 155 0 156 0 155 155 0 0 0 0 0 158 159 0 0 162 162 163 164 164 165 165 166 165 165 166 0 0 0 172 0 0 170 169 169 169 169 169 0 166 165 167 0 175 0 0 180 181 181 181 182 183 183 183 183 183 183 184 185 186 187 187 186 186 186 188 192 198 201 0 206 207 208 208 208 207 207 207 206 204 202 199 199 200 203 205 0 0 209 0 211 0 212 212 0 0 0 159 153 0 0 0 0 152 149 0 0 149 148 0 0 146 144 0 0 141 142 143 144 0 0 119 125 0 0 0 0 147 0 0 0 0 143 0 0 140 140 140 0 141 0 143 144 0 0 0 144 0 0 0 146 0 146 146 0 145 145 147 0 0 149 148 147 0 144 143 0 0 0 0 141 138 136 134 133 0 0 130 129 128 0 0 0 125 0 123 0 123 0 123 123 124 0 125 125 124 124 0 123 122 122 0 0 123 123 124 124 125 0 126 127 0 128 0 0 127 0 0 126 126 126 0 126 0 128 128 129 0 128 0 0 123 122 121 0 120 0 122 123 0 0 0 0 0 0 116 115 114 112 111 0 110 0 109 108 108 107 107 106 105 116 0 0 0 0 139 0 138 0 139 139 0 0 0 0 0 143 144 0 146 0 0 0 0 143 0 0 0 141 0 0 140 141 0 142 0 141 141 0 0 140 141 0 0 0 140 137 0 135 134 135 136 0 0 139 0 0 0 139 0 136 135 135 135 135 0 134 135 0 138 145 184 0 232 0 0 182 173 173 174 
0 0 102 102 0 0 90 85 82 81 0 82 0 83 84 84 0 85 85 86 86 87 87 0 89 89 89 90 90 89 0 0 0 0 92 0 93 0 92 0 0 0 0 0 0 0 0 0 97 0 97 0 0 95 0 96 96 98 0 99 0 100 101 101 101 0 100 100 100 0 98 0 0 99 100 0 0 101 101 0 99 99 100 0 100 99 98 0 0 0 0 0 0 0 91 90 90 89 87 0 87 0 86 85 0 0 83 82 81 81 0 0 84 91 0 0 0 0 0 0 131 0 0 147 153 0 0 0 0 0 0 181 182 0 0 0 127 93 86 86 86 86 87 0 88 88 0 91 93 0 0 0 0 0 103 108 120 0 0 152 173 0 0 0 207 0 206 205 0 201 199 0 0 0 0 0 0 199 199 200 200 0 200 201 0 0 0 0 190 186 181 177 0 166 163 161 161 163 166 0 0 0 0 0 182 184 186 192 0 0 0 0 0 0 0 0 182 178 174 175 0 0 178 181 186 0 0 199 0 205 208 0 0 0 0 0 220 220 0 0 0 0 0 193 186 182 179 0 172 0 165 166 173 0 0 186 188 190 199 0 0 203 194 194 200 0 0 0 167 163 0 0 164 165 0 0 0 0 0 0 0 0 176 174 176 180 0 187 0 191 191 191 189 187 184 0 175 0 0 157 156 0 156 0 156 0 0 156 156 157 158 158 160 162 0 163 163 163 0 163 163 164 164 164 164 165 167 0 172 171 171 170 169 169 169 170 170 170 170 167 167 171 175 178 181 183 183 183 185 186 187 188 188 189 189 188 189 189 191 193 194 194 193 193 194 194 196 199 0 207 208 0 210 210 210 209 209 210 210 209 0 0 0 207 0 0 212 214 0 0 0 217 0 0 0 0 174 155 156 0 0 156 0 150 148 0 149 148 0 147 146 0 0 143 0 142 141 143 0 0 0 114 129 0 0 0 147 0 147 146 0 144 0 142 142 141 141 0 142 0 0 144 0 0 0 145 146 0 0 0 147 0 0 146 145 0 146 0 149 0 149 0 146 144 143 142 143 0 0 0 140 137 135 0 132 0 130 129 0 126 126 0 125 0 0 122 0 122 0 123 0 124 0 0 0 123 123 122 121 121 121 0 0 0 123 0 0 125 0 0 127 0 128 0 0 0 125 125 125 126 126 126 126 0 0 129 0 0 128 0 125 0 122 121 119 0 121 122 0 0 0 0 0 119 0 114 0 112 111 109 109 108 108 107 107 0 105 105 104 104 114 0 0 137 0 138 138 138 138 0 139 0 140 140 140 141 142 143 0 0 0 145 0 0 143 142 141 141 141 142 0 141 141 140 0 0 0 141 141 0 140 140 142 0 0 0 137 136 135 134 134 0 0 138 139 140 0 0 139 0 137 136 0 0 0 0 134 134 0 136 142 169 0 0 0 0 187 173 0 0 
102 102 0 0 0 0 0 85 82 82 82 0 83 0 84 84 85 0 86 0 0 0 0 0 0 89 0 0 0 0 90 90 91 0 91 92 92 0 92 0 95 0 95 94 0 0 97 0 0 0 98 0 97 96 96 0 0 0 0 0 0 0 0 0 0 99 99 0 100 0 0 0 100 0 0 0 102 101 101 0 0 0 0 0 99 99 0 97 0 95 0 0 0 92 90 90 0 89 88 0 87 0 0 85 85 84 0 0 82 0 81 82 83 88 0 0 0 122 124 128 132 136 142 0 152 0 0 0 0 175 0 0 0 0 0 0 130 94 86 0 86 86 0 0 88 89 90 0 93 94 95 0 0 100 102 105 117 0 0 150 164 0 0 0 208 206 205 0 0 0 198 0 194 194 0 0 194 195 0 0 0 0 197 0 0 0 191 188 183 181 0 0 169 164 0 163 164 166 0 171 174 0 179 181 0 186 191 0 0 0 0 0 0 0 195 0 0 181 177 176 176 0 179 181 0 0 0 200 0 206 208 0 0 0 0 222 221 0 0 0 0 0 200 0 188 0 181 178 174 170 167 169 176 0 0 188 190 193 0 0 0 199 194 196 0 0 0 187 166 163 0 164 164 167 0 0 0 0 0 0 0 0 0 179 181 184 188 192 0 0 0 0 0 0 0 0 179 172 166 158 156 156 156 156 156 156 156 156 157 158 160 161 162 163 165 165 164 163 164 164 164 164 164 164 165 167 170 171 175 175 174 174 174 175 176 177 177 177 176 176 177 181 182 186 189 190 192 0 0 0 0 0 0 0 0 0 0 199 200 201 0 0 0 0 0 202 203 205 208 0 212 0 214 213 214 214 214 0 0 0 213 212 213 214 0 217 0 0 0 221 221 222 222 0 0 188 160 154 0 157 0 0 0 148 148 0 148 148 0 0 145 145 144 143 0 0 142 143 0 0 129 114 0 0 0 147 146 147 147 0 0 0 0 143 0 0 0 0 143 144 145 146 147 147 0 147 0 147 147 0 0 0 0 146 146 146 0 0 149 0 0 0 0 142 142 142 143 0 0 0 0 135 134 0 132 0 129 128 0 125 125 125 124 0 123 0 0 122 123 123 0 0 124 124 0 123 122 0 121 121 121 121 122 0 122 123 124 124 125 126 127 0 128 0 127 126 125 125 0 0 126 126 0 129 0 130 0 0 127 0 124 0 0 0 120 0 0 0 0 122 121 120 0 0 0 113 0 111 0 110 108 108 107 106 106 105 105 104 105 104 112 0 0 137 0 138 0 0 0 137 139 0 0 140 139 140 0 143 0 0 0 145 0 144 142 142 142 0 142 0 0 0 0 140 0 0 142 141 141 0 140 0 141 0 0 0 139 0 135 134 134 135 0 138 0 0 140 139 139 138 0 0 0 0 135 0 134 133 0 136 140 155 0 0 0 0 193 174 173 173 
0 102 102 101 0 0 88 83 82 0 83 83 84 0 0 85 0 86 0 0 87 87 0 87 88 89 0 0 89 0 0 90 0 91 91 0 92 91 92 0 0 0 0 94 95 96 97 0 98 98 98 0 0 96 95 97 98 99 99 99 0 100 0 0 100 0 99 0 0 0 0 0 100 0 100 0 0 0 0 101 0 100 0 100 99 0 0 98 0 94 93 93 93 92 91 0 90 89 0 0 88 0 0 86 0 0 84 0 0 82 0 81 81 85 94 0 0 0 125 129 133 0 0 144 148 160 0 0 0 171 174 0 0 183 0 0 0 95 86 86 85 0 86 87 0 88 0 91 0 0 95 97 99 0 101 103 113 0 0 148 157 0 0 0 207 0 0 0 0 0 196 193 191 190 0 190 190 192 193 0 0 194 193 0 0 189 186 183 0 0 0 0 165 164 0 165 166 0 0 173 175 178 180 182 185 189 0 0 0 0 0 0 0 0 0 0 191 0 182 180 178 178 180 181 186 0 0 201 0 0 208 211 0 0 0 222 0 0 0 216 0 204 198 193 190 186 0 0 177 174 172 173 0 0 0 190 192 199 0 0 0 197 194 198 0 0 0 182 166 164 164 163 165 0 0 175 176 0 0 181 0 0 0 182 185 188 192 197 0 0 0 201 201 0 0 0 185 177 170 163 159 159 159 159 160 159 160 161 162 164 166 167 170 171 172 173 173 172 171 172 173 174 173 174 176 176 178 179 181 182 183 185 186 187 188 0 0 188 187 188 189 0 0 0 0 0 0 0 204 0 0 0 0 0 207 0 0 0 0 0 0 0 0 209 0 209 210 211 212 215 0 0 218 218 0 0 220 220 0 0 220 0 0 220 0 222 223 225 225 226 0 227 227 0 0 171 157 155 0 157 0 0 150 147 149 0 149 0 0 0 0 0 143 142 0 143 143 0 0 0 122 118 0 0 146 0 0 0 0 0 146 0 143 143 143 0 0 143 144 0 0 0 0 0 0 0 0 147 0 0 148 0 0 0 147 0 0 149 0 0 0 0 145 143 141 142 0 143 142 0 137 0 133 132 0 0 128 127 126 125 0 0 0 0 121 122 0 0 0 0 0 123 122 0 0 122 0 121 0 121 0 121 0 0 122 122 124 125 0 0 127 0 128 0 0 0 125 125 0 126 126 127 0 129 0 130 0 0 126 0 123 122 120 119 0 120 121 122 0 0 120 118 117 116 115 113 0 111 111 0 0 108 108 0 107 106 106 106 106 107 111 0 0 137 0 0 138 0 138 0 0 139 0 0 0 0 0 143 0 0 0 0 145 143 143 142 0 0 142 0 142 141 140 141 141 0 142 141 0 0 140 140 141 142 0 0 0 137 135 0 0 135 136 0 139 0 0 0 0 138 137 137 136 135 135 0 0 133 134 136 138 147 188 0 0 0 199 175 173 0 
101 102 0 0 0 92 86 83 0 83 0 0 0 0 0 0 85 86 0 87 87 88 0 87 88 89 89 0 90 89 90 90 90 91 0 92 92 92 92 0 93 94 94 95 0 96 97 0 98 0 98 98 0 0 95 0 0 0 0 99 0 100 0 0 100 0 100 99 99 99 99 0 100 101 0 0 101 101 0 100 0 100 100 0 0 0 0 98 0 96 94 93 0 0 0 0 90 88 89 89 88 88 0 0 85 84 84 0 83 82 0 82 82 83 88 100 0 0 0 0 133 0 0 141 145 160 0 0 0 171 174 0 0 0 0 0 0 97 86 0 0 0 85 86 0 88 0 91 0 94 95 97 0 0 101 103 110 0 0 0 152 0 0 0 205 0 203 202 0 0 193 190 188 0 0 186 187 0 190 0 0 0 188 188 0 184 0 0 0 0 167 165 163 164 0 167 169 0 0 0 0 0 0 184 186 193 0 0 0 0 205 0 202 0 0 0 0 0 0 0 0 180 181 182 186 0 0 0 0 0 0 210 212 0 217 220 0 0 216 0 206 199 196 0 0 0 0 183 0 0 175 176 0 0 0 193 195 205 0 0 202 196 194 200 0 0 0 179 167 166 164 164 167 0 175 176 177 179 181 181 181 182 183 184 188 194 198 202 0 207 0 206 204 204 0 199 0 185 178 174 170 169 0 170 172 173 174 175 177 178 0 181 182 183 184 185 0 0 185 185 0 0 0 0 0 189 189 0 0 0 0 0 0 0 0 0 0 0 0 0 0 0 0 0 0 0 0 0 212 0 213 213 0 0 0 0 0 0 0 0 216 216 216 216 216 216 217 217 218 220 222 222 223 223 224 225 226 226 225 226 0 226 227 227 228 229 229 230 232 232 233 233 0 0 188 162 156 0 0 156 0 152 148 147 0 0 148 147 146 0 0 0 143 142 143 143 0 143 0 0 118 125 0 0 0 146 145 0 146 146 0 0 143 143 0 144 144 143 145 0 148 0 0 0 0 148 0 0 0 0 147 0 0 0 147 0 149 149 149 148 0 0 0 142 141 142 143 0 0 138 135 133 132 0 129 128 0 0 125 0 0 124 0 122 121 120 0 122 122 123 0 122 121 0 121 0 0 120 0 121 121 120 121 122 123 0 124 0 0 0 126 0 0 0 126 125 125 0 0 126 0 127 128 129 0 0 0 127 125 124 123 121 120 120 120 120 0 0 0 0 0 117 116 0 0 114 0 0 111 111 110 0 109 108 108 0 108 0 107 108 112 0 0 137 0 0 0 137 0 0 137 138 138 0 139 0 141 143 0 0 146 0 0 0 0 142 0 143 142 0 0 141 141 141 0 0 0 0 0 0 0 139 141 0 0 0 140 137 134 134 134 134 135 0 138 139 139 0 0 139 138 0 136 135 135 0 134 134 134 136 137 142 170 0 0 0 0 176 174 0 
0 102 0 0 0 0 86 83 0 83 83 84 84 85 85 84 0 86 86 87 0 0 0 88 0 0 89 0 0 0 0 91 91 92 0 93 93 93 93 0 0 94 0 0 0 0 97 98 0 0 0 98 0 0 96 96 97 98 0 98 0 99 0 0 0 0 0 0 98 0 99 0 0 101 0 101 101 0 0 100 0 99 0 0 99 99 98 0 0 0 0 94 93 92 92 0 0 90 0 0 89 0 87 0 85 85 0 83 0 0 82 0 82 83 86 96 0 0 0 0 134 139 0 144 150 0 0 0 0 178 179 181 0 0 0 0 0 99 86 85 85 0 86 0 87 0 0 90 0 93 95 97 99 0 101 101 107 119 0 0 148 165 0 0 201 201 0 0 0 0 190 0 0 0 0 182 184 0 0 186 185 185 184 183 182 0 0 172 167 166 164 161 161 0 0 0 170 0 0 0 0 181 183 185 189 0 0 0 0 0 205 0 0 0 0 0 0 0 0 182 0 183 183 184 187 192 197 0 0 207 208 208 209 210 212 0 0 214 211 207 202 198 194 192 190 188 186 0 0 0 177 177 181 187 0 196 198 0 0 0 199 195 196 202 0 0 0 177 171 170 169 169 173 176 179 181 181 183 185 185 186 187 190 192 196 200 0 208 0 211 211 0 210 0 0 0 0 0 191 186 183 183 183 184 186 0 188 0 0 0 0 0 0 0 0 0 0 0 0 0 0 0 0 0 0 0 0 0 0 0 0 0 0 0 0 0 209 209 0 0 212 213 0 0 216 217 218 219 219 0 220 220 221 221 221 220 0 221 222 222 222 223 223 223 224 224 225 225 226 227 229 229 230 231 231 232 233 233 0 234 234 234 235 0 236 237 0 0 0 0 240 0 0 0 177 158 155 0 156 155 0 149 147 146 0 149 0 146 144 0 144 143 0 0 0 0 141 0 0 0 117 0 0 0 146 0 144 144 0 145 0 144 143 0 144 0 144 145 0 0 0 0 0 148 0 147 146 0 147 0 145 0 0 145 146 148 0 0 149 0 0 0 143 141 140 0 0 0 139 136 0 131 0 0 0 127 124 125 124 0 123 123 0 121 0 120 121 122 0 0 122 121 0 0 120 120 120 120 0 121 0 0 122 123 124 0 125 126 0 0 126 127 0 127 126 125 125 126 0 125 0 127 0 129 0 0 127 126 125 124 0 0 0 0 120 120 121 121 121 120 119 118 0 116 115 114 0 0 113 112 111 0 110 0 110 0 110 110 110 111 113 0 0 0 137 137 136 136 0 0 0 0 137 137 0 139 0 0 144 0 0 145 145 145 144 144 0 143 142 0 0 142 0 140 141 0 141 142 0 141 140 140 141 0 0 0 140 0 135 0 0 0 0 0 137 0 0 0 140 0 0 0 0 0 134 0 0 134 0 0 137 139 157 0 0 0 0 179 174 0 
102 102 0 0 95 90 85 83 82 82 0 0 0 0 0 85 0 86 86 87 0 0 0 87 0 0 90 90 0 90 0 91 0 0 0 0 0 0 0 0 93 93 0 94 95 0 97 0 0 0 0 0 0 96 0 96 0 0 0 98 0 97 98 98 98 98 98 99 99 98 99 99 100 100 0 0 101 0 100 99 100 99 0 99 99 0 97 0 97 0 95 94 0 0 0 0 91 0 0 90 0 88 87 87 0 0 0 83 0 83 82 82 82 82 85 94 0 0 122 129 0 0 0 147 152 162 0 178 179 0 0 0 0 0 0 0 0 98 86 0 85 85 86 0 0 0 0 91 92 93 0 97 0 0 0 101 104 113 0 0 147 158 0 0 0 0 0 0 0 0 0 0 0 178 177 178 0 0 0 0 0 181 180 0 0 0 172 166 165 162 161 160 161 0 167 0 170 173 175 0 0 182 184 186 190 0 0 0 205 205 0 0 202 201 0 200 0 0 186 182 0 0 186 188 0 192 196 200 0 0 0 0 207 208 0 0 210 208 207 0 200 197 194 191 190 189 187 186 186 183 181 180 181 186 0 198 204 0 0 207 199 197 198 206 0 0 0 181 178 178 179 181 182 0 0 190 192 0 0 0 0 0 199 201 0 207 0 0 0 216 216 0 216 0 215 0 0 0 0 199 0 0 0 0 0 0 0 0 0 0 0 0 0 0 0 0 0 0 0 0 0 0 211 0 212 0 0 213 214 214 215 216 216 216 216 217 217 218 219 220 221 222 222 223 224 225 0 227 226 227 227 228 229 229 229 228 229 229 229 230 231 232 0 0 0 0 0 0 0 0 0 0 0 0 0 0 0 0 0 0 0 0 0 0 0 0 0 0 0 0 0 0 0 0 176 156 154 0 0 0 0 147 145 0 0 0 0 0 0 0 143 142 143 143 0 0 141 0 0 128 120 0 0 0 0 0 0 0 144 144 0 0 0 143 0 0 144 0 0 147 148 148 0 0 146 146 146 146 0 144 0 0 0 144 145 0 0 0 149 148 0 143 141 140 139 0 0 0 0 0 132 131 0 128 0 0 125 0 0 122 0 0 121 120 121 121 122 0 0 122 0 0 120 119 119 120 120 120 121 122 0 122 0 0 125 0 0 127 0 0 127 127 127 0 0 125 125 0 0 126 0 128 0 129 129 0 0 125 0 0 0 121 119 0 0 0 121 121 0 120 119 118 0 116 0 116 115 115 0 0 0 111 111 0 111 111 0 112 0 0 113 0 0 136 136 0 135 135 136 136 135 136 135 135 0 136 139 0 143 0 0 0 145 0 0 144 0 0 143 143 142 0 142 0 0 0 141 141 0 141 140 0 141 141 0 0 141 137 136 135 134 134 0 0 137 0 139 0 0 0 0 138 0 0 135 135 0 134 134 0 137 139 149 0 0 0 0 184 174 0 
0 101 0 0 94 89 85 82 82 0 0 0 0 0 0 84 85 86 0 0 87 87 87 87 0 0 90 90 0 89 90 90 0 92 0 0 93 93 93 93 93 94 0 95 0 0 0 97 97 97 96 96 96 0 95 95 0 0 0 0 97 97 98 0 97 0 98 0 0 0 98 0 0 100 0 0 100 100 100 0 0 0 100 0 99 0 97 0 97 96 94 0 93 0 0 92 0 91 0 0 89 89 0 0 0 0 85 84 83 83 0 82 81 81 84 91 101 0 0 0 135 0 0 0 153 163 0 0 0 180 181 184 0 0 0 0 0 99 85 85 0 0 86 86 87 88 0 0 0 0 95 97 0 0 0 101 103 110 123 0 0 154 0 0 0 193 0 0 0 185 0 0 174 171 170 173 175 176 176 0 0 0 0 0 0 0 167 165 0 160 160 160 162 0 167 0 0 174 177 0 0 0 185 187 190 196 0 203 0 203 0 203 0 201 200 0 0 0 182 182 184 0 190 0 0 0 197 199 201 203 204 205 206 209 0 210 207 207 205 0 200 197 194 193 194 0 192 191 191 189 187 186 187 190 196 201 0 0 0 207 202 201 201 210 0 0 199 190 190 190 191 192 0 0 0 0 0 0 0 0 0 207 0 209 0 213 0 0 0 0 0 0 0 0 0 0 0 0 0 209 0 0 0 0 0 0 212 213 0 214 215 0 0 0 0 217 0 217 0 219 0 220 220 221 221 222 222 222 223 224 224 225 226 0 0 227 227 228 228 229 0 231 0 232 233 234 235 0 0 235 236 0 0 0 0 0 0 0 0 0 0 0 0 0 0 0 0 0 0 0 0 0 0 0 0 0 0 0 0 0 0 0 0 0 0 0 0 0 0 0 0 0 0 0 181 155 153 0 155 0 149 146 145 0 0 147 0 0 143 143 143 0 0 142 141 0 142 0 0 125 126 0 0 144 142 142 142 0 0 143 0 142 142 0 0 143 143 0 0 0 0 0 0 145 145 0 0 0 0 144 143 0 143 143 146 0 0 0 0 0 0 142 140 139 140 0 0 138 0 133 131 0 0 0 126 125 0 124 123 122 0 0 121 121 0 0 0 0 0 122 0 120 119 120 120 120 121 120 122 0 123 123 123 124 125 0 127 127 0 128 127 0 0 0 125 125 126 0 127 126 0 0 0 129 0 0 126 124 0 0 0 119 119 120 0 0 121 121 0 120 119 0 0 117 0 117 0 115 0 114 113 112 113 113 113 113 113 0 114 114 113 124 0 0 135 135 135 0 0 135 0 135 135 0 136 136 138 0 0 144 0 0 0 144 144 0 142 143 0 0 0 0 142 142 142 0 0 141 0 0 141 140 0 142 0 0 0 138 0 135 134 135 135 136 137 0 0 139 139 0 139 138 0 135 135 134 0 134 0 135 0 139 144 175 0 0 0 190 174 0 
0 102 0 0 0 89 85 83 0 83 83 0 0 84 84 0 0 86 0 87 0 0 0 89 0 90 90 0 0 90 90 90 91 91 92 93 93 93 93 0 0 94 94 0 0 0 96 96 0 0 96 0 95 0 0 95 0 96 96 0 0 97 0 0 98 98 98 0 99 98 98 0 100 100 100 0 0 0 99 100 0 0 100 0 98 98 97 97 97 0 95 0 92 92 92 92 91 91 91 0 90 89 88 88 87 86 0 84 0 0 0 82 0 82 82 87 0 0 0 0 0 0 0 0 152 162 0 0 0 181 182 184 0 0 0 0 0 103 86 0 0 86 86 86 0 0 89 90 0 93 95 0 0 99 100 101 102 108 121 0 0 151 167 0 0 0 186 183 181 179 176 172 167 166 169 171 172 172 171 172 0 172 171 0 169 167 166 165 164 162 161 162 164 165 167 171 174 176 178 181 183 185 187 189 193 0 0 0 203 203 203 203 202 201 199 200 0 188 181 183 187 191 194 195 197 0 199 200 201 203 204 204 207 0 0 207 207 207 0 204 203 200 199 199 199 199 199 0 0 0 197 196 0 199 202 207 0 0 216 208 207 207 207 0 0 0 205 201 0 0 0 0 0 0 208 0 0 0 0 0 0 0 0 216 217 219 0 0 225 0 0 0 0 0 0 225 0 222 220 217 217 218 0 0 220 0 0 222 222 223 224 224 225 0 0 227 227 227 227 228 229 230 0 0 231 232 0 0 0 234 0 235 0 0 0 0 0 0 0 0 0 0 0 0 0 0 0 0 0 0 0 0 0 0 0 0 0 0 0 0 0 0 0 0 0 0 0 0 0 0 0 0 0 0 0 0 0 0 0 0 0 0 0 0 0 0 0 247 247 247 247 247 0 0 185 154 152 0 153 0 147 145 144 146 0 146 0 0 142 142 0 0 142 141 141 141 141 0 0 122 132 0 0 0 0 0 140 142 0 141 141 141 140 0 0 0 142 0 0 145 145 0 143 0 0 143 143 143 0 0 142 141 142 143 0 0 0 149 0 0 144 141 140 0 0 0 0 0 133 131 0 128 127 126 0 124 0 123 122 122 0 121 121 121 0 0 123 123 123 122 121 120 121 121 122 0 0 123 0 124 124 124 0 125 125 0 0 0 0 128 0 0 0 0 125 125 0 0 126 0 127 128 129 129 0 128 0 124 123 122 120 119 0 0 121 120 121 0 121 120 119 119 0 0 118 0 0 116 115 115 0 0 0 115 0 0 116 0 0 116 116 125 0 0 135 0 135 0 135 135 135 135 0 0 0 136 0 0 0 144 0 0 0 0 0 0 143 142 143 142 142 142 0 0 141 0 0 0 140 0 0 140 141 141 0 0 142 138 137 135 135 0 0 135 136 0 138 0 138 139 0 138 137 136 135 135 135 0 135 135 136 138 140 160 0 0 0 199 175 174 
0 0 0 0 93 88 84 82 83 0 0 0 0 0 0 85 85 86 0 87 0 88 0 0 0 90 90 0 90 0 0 91 0 92 0 93 93 93 0 93 0 0 0 94 94 95 0 0 96 0 95 0 94 94 94 94 95 95 0 96 96 96 0 97 0 0 98 98 0 0 0 0 100 100 99 100 0 100 98 100 100 0 0 98 0 98 97 97 0 0 95 94 93 92 0 92 91 91 91 0 0 0 0 88 0 0 0 85 0 0 0 82 82 0 82 84 92 103 0 0 0 0 0 146 148 159 0 0 0 181 181 184 0 0 0 0 0 103 86 86 86 86 86 86 87 0 89 89 90 0 0 96 0 0 100 101 102 108 0 0 0 149 161 0 0 0 181 178 176 173 172 169 167 167 0 170 170 170 167 166 167 166 166 166 165 165 166 166 167 166 166 165 166 167 170 174 176 178 180 182 186 189 0 0 197 199 201 0 204 0 205 205 204 203 203 0 0 189 186 190 194 197 199 200 201 202 203 204 0 0 207 208 0 0 210 208 209 210 209 208 207 0 0 0 0 0 0 0 0 206 0 0 0 207 208 213 0 0 216 212 213 212 214 0 0 217 212 0 211 0 212 213 0 0 216 217 0 0 220 0 222 222 222 222 223 224 227 0 229 0 0 231 231 0 231 229 229 228 227 227 227 228 229 229 230 0 231 0 232 0 0 0 0 235 0 236 0 0 0 0 0 0 0 0 0 0 0 0 0 0 0 0 0 0 0 0 0 0 0 0 0 0 0 0 0 0 0 0 0 0 0 0 0 0 0 0 0 0 0 0 0 0 0 0 0 0 0 0 0 0 0 0 0 0 0 0 0 0 0 247 247 247 247 247 247 247 247 247 247 247 247 247 0 0 187 154 151 0 151 149 146 144 141 0 0 147 0 144 143 0 0 0 141 0 0 0 0 0 0 122 0 0 0 141 140 0 0 0 0 139 0 0 0 138 138 139 139 0 0 0 142 0 141 0 0 0 0 0 0 141 140 140 141 143 145 0 0 149 0 0 142 140 139 0 0 0 0 0 131 0 128 127 126 125 124 0 123 122 121 0 0 121 121 121 122 0 123 123 123 0 0 0 0 123 124 0 0 125 0 0 125 0 126 126 126 0 128 0 0 128 128 128 0 126 0 126 0 126 126 0 128 128 0 0 0 128 0 0 123 0 121 0 0 121 0 121 0 0 0 120 120 0 119 119 118 118 117 0 116 116 116 116 116 0 118 118 0 119 0 0 120 125 0 0 0 134 0 0 0 135 135 135 0 0 135 135 136 138 0 143 0 0 145 144 0 0 0 142 0 0 142 141 0 0 141 141 141 0 0 141 141 141 141 0 0 0 142 0 137 0 135 135 0 135 136 0 138 0 0 139 139 0 137 136 0 0 136 0 0 135 136 137 139 151 0 0 0 0 177 174 
101 0 0 97 92 87 83 83 83 0 0 84 84 85 85 85 86 87 87 87 0 88 0 89 0 90 89 90 0 0 91 0 0 0 0 0 93 93 93 92 0 93 93 0 94 0 95 0 95 95 95 0 94 0 93 94 94 95 0 95 95 0 96 95 97 97 0 98 0 0 100 100 0 0 0 0 0 0 0 0 0 0 99 98 0 98 0 97 97 96 0 0 0 92 0 92 0 0 90 0 89 89 0 0 87 0 85 0 84 83 83 83 0 0 0 83 88 99 0 0 0 0 0 145 149 162 0 0 179 0 182 184 186 0 0 0 0 105 88 86 0 0 86 86 86 0 0 0 0 92 94 96 0 0 0 101 103 106 115 0 0 148 156 0 0 181 177 177 175 172 170 169 169 169 171 172 173 173 171 171 171 171 171 171 171 172 174 174 175 176 176 175 176 179 181 182 184 186 189 191 0 0 0 201 201 203 205 0 207 0 0 0 208 208 0 0 200 197 198 0 202 0 0 0 0 207 208 0 210 0 212 0 0 216 214 213 214 0 0 214 213 213 213 213 0 214 0 214 214 214 214 0 215 215 216 220 0 0 220 219 0 219 220 221 222 221 220 220 220 220 0 222 222 0 225 226 227 228 0 229 229 229 230 0 231 232 233 234 235 236 236 236 236 237 237 237 0 0 0 0 0 0 0 0 0 0 0 0 0 0 0 0 0 0 0 0 0 0 0 0 0 0 0 0 0 0 0 0 0 0 0 0 0 0 0 0 0 0 0 0 0 0 0 0 0 0 0 0 0 0 0 0 0 0 247 0 247 247 247 247 247 0 247 0 247 247 247 247 247 247 247 247 247 247 247 247 247 247 247 247 247 247 247 247 247 247 247 247 247 247 247 247 0 0 187 155 151 0 152 0 146 0 140 145 0 0 0 143 0 142 0 141 141 140 0 0 0 0 0 122 0 0 0 0 138 138 0 0 0 137 0 0 135 0 0 0 0 0 0 139 139 0 140 0 0 140 139 0 0 139 0 139 0 143 0 148 0 0 0 0 141 0 138 137 137 137 0 133 130 0 127 126 0 0 123 0 122 121 0 122 0 121 121 121 121 0 122 124 0 0 0 125 0 0 0 126 126 0 126 126 0 0 0 0 127 0 128 128 128 0 0 128 0 127 126 0 0 126 0 0 0 0 129 129 0 127 126 0 123 0 121 121 0 121 121 121 0 121 121 121 0 0 0 0 0 0 118 0 117 117 118 0 0 0 120 121 0 121 0 121 121 125 0 0 134 133 133 134 134 0 0 0 134 134 0 134 135 137 0 143 0 0 145 144 0 0 142 142 0 0 0 0 141 141 141 141 140 141 141 141 141 0 141 141 142 0 143 140 0 135 134 134 135 0 0 137 138 0 0 140 0 0 138 137 136 136 136 0 136 0 136 0 138 145 184 0 0 0 179 173 
101 101 0 0 91 86 84 83 83 84 84 83 0 85 0 0 0 0 0 87 87 88 0 0 89 0 0 89 90 0 91 91 91 92 93 0 0 0 93 0 0 0 93 0 94 0 94 94 95 0 0 0 93 93 0 0 0 0 95 95 94 0 0 96 0 0 97 97 0 0 100 0 100 101 0 0 100 0 99 98 0 0 99 99 98 97 0 0 0 0 96 0 0 93 92 92 91 91 90 0 89 90 0 0 87 86 86 0 85 84 0 0 0 82 0 83 85 94 0 0 0 0 0 0 153 0 0 0 177 0 0 0 0 0 0 0 0 109 87 84 85 0 85 0 0 0 88 89 89 0 0 96 0 0 0 0 0 105 111 0 0 0 153 0 0 183 182 181 181 179 178 179 179 180 180 181 182 182 182 183 183 183 184 184 185 185 0 187 187 188 189 189 0 0 0 0 0 0 199 0 0 0 0 0 0 208 209 0 0 212 212 0 0 0 0 209 207 206 207 0 210 0 212 212 212 213 0 0 216 217 0 0 221 220 0 0 220 220 220 220 220 220 0 220 220 0 0 0 221 222 222 223 223 223 224 226 0 228 226 227 227 227 226 225 225 228 229 229 230 231 0 232 232 0 0 235 236 0 237 0 0 0 0 0 0 0 0 0 0 242 0 0 0 0 0 0 0 0 0 0 0 0 0 0 0 0 0 0 0 0 0 0 0 0 0 0 0 0 0 0 0 0 0 0 0 0 0 0 0 0 0 0 0 247 247 247 247 247 247 247 247 247 247 247 247 247 247 247 247 247 247 247 247 247 247 247 247 247 247 247 247 247 247 247 247 247 247 247 247 247 247 247 247 247 247 247 247 247 247 247 247 247 247 247 247 247 247 247 247 247 247 247 0 0 186 155 150 0 0 0 145 0 140 0 0 147 0 143 142 141 0 141 0 139 138 138 138 0 129 122 0 0 136 135 0 0 0 0 134 133 0 133 132 0 132 132 0 133 0 136 0 0 138 0 138 0 138 0 0 137 137 138 140 142 145 0 0 148 0 142 139 138 0 137 0 0 0 131 0 126 126 125 0 122 122 0 121 121 0 0 122 122 0 0 123 0 124 0 0 126 126 126 0 127 0 127 127 0 125 126 0 128 128 128 128 0 128 128 128 129 0 128 0 0 126 126 0 126 127 128 129 0 129 0 128 127 0 0 122 122 121 0 121 121 0 122 0 0 122 0 0 0 120 119 0 119 119 0 119 0 0 120 121 0 122 123 0 124 0 122 122 125 0 0 0 133 133 133 0 133 0 0 133 132 132 133 134 0 0 0 0 0 0 0 144 0 0 0 142 0 0 142 141 0 0 0 0 141 0 141 141 0 0 0 141 0 0 140 137 0 134 0 135 135 0 0 137 0 0 140 0 0 0 137 0 136 135 0 135 0 136 136 137 142 170 0 0 0 183 172 
101 102 0 96 90 85 84 82 83 84 0 0 85 85 86 86 87 0 88 0 87 88 0 88 88 89 89 0 90 0 0 0 91 0 0 92 91 0 93 0 92 0 92 0 0 0 0 0 0 0 94 0 92 93 93 0 94 94 94 0 95 95 95 95 96 0 0 0 0 0 0 0 101 0 101 100 99 0 99 98 0 99 0 0 0 98 0 0 0 0 96 95 93 93 0 0 0 91 90 90 0 0 0 0 88 87 0 86 0 0 84 83 0 82 82 82 83 91 108 0 0 0 0 147 153 0 0 0 177 0 182 0 187 0 0 0 0 114 87 85 0 0 85 0 86 0 0 0 90 91 93 95 0 99 0 101 0 105 109 121 0 0 149 166 0 0 193 0 0 0 192 0 0 0 0 0 0 195 0 0 0 0 0 0 0 0 0 0 0 0 0 0 0 0 0 0 0 0 209 0 0 213 213 214 214 214 214 215 216 216 217 217 217 217 216 215 215 215 216 217 218 0 219 0 0 220 220 0 222 224 0 0 225 224 225 226 226 226 226 227 227 227 228 229 229 229 229 230 230 231 231 232 232 0 230 230 0 0 0 236 0 0 232 229 234 0 0 0 0 0 0 0 0 0 0 0 0 0 0 0 0 0 0 0 0 0 0 0 0 0 0 0 0 0 0 0 0 0 0 0 0 0 0 0 0 0 0 0 0 0 0 0 0 0 0 0 0 0 0 0 0 0 0 247 247 247 247 247 247 247 247 247 247 247 247 247 247 247 247 247 247 247 247 247 247 247 247 247 247 247 247 247 247 247 247 247 247 247 247 247 247 247 247 247 247 247 247 247 247 247 247 247 247 247 247 247 247 247 247 247 247 247 247 247 247 247 247 247 247 247 247 247 0 0 184 153 147 0 0 147 143 140 138 0 0 147 0 0 141 140 0 0 0 0 0 0 0 0 126 121 0 0 0 0 0 0 0 0 0 0 0 129 128 128 0 127 127 128 0 0 0 0 135 135 135 0 0 0 135 135 136 137 138 142 0 0 0 0 0 140 137 137 0 0 0 0 131 130 0 0 125 0 0 122 122 121 121 121 121 122 122 122 123 0 124 0 0 0 127 0 127 127 128 127 128 128 127 0 127 0 0 128 128 0 129 0 0 129 129 0 0 0 127 126 126 0 0 126 0 128 129 0 0 128 0 0 124 123 122 0 0 121 121 121 0 0 122 0 0 122 0 120 120 120 0 119 0 120 120 121 0 122 123 123 125 0 0 0 0 0 122 123 0 0 133 133 133 133 0 132 0 0 131 0 0 132 133 136 138 0 0 0 146 0 0 0 142 142 142 143 143 0 142 0 141 0 0 141 0 0 141 141 141 0 142 0 0 141 137 0 135 135 0 136 0 137 137 0 139 0 139 139 139 138 137 136 0 135 135 0 0 136 137 140 158 0 0 0 189 171 
0 0 0 0 0 85 0 0 0 84 85 0 0 86 0 0 0 88 87 88 88 0 0 0 0 89 89 0 0 90 89 91 91 92 92 92 92 0 0 92 0 92 91 92 93 93 93 93 93 94 0 93 92 0 0 94 94 0 0 0 95 95 95 95 95 96 98 99 99 99 100 100 101 0 101 0 100 0 99 98 0 98 0 0 99 98 0 0 97 97 96 0 94 94 0 0 92 90 0 90 0 0 0 90 89 88 0 86 85 85 84 83 83 0 82 81 82 87 102 0 0 0 141 145 151 0 0 0 0 178 0 0 186 0 0 0 0 121 89 85 0 0 86 86 86 0 88 0 0 91 92 94 96 0 0 101 102 103 107 117 0 0 146 161 0 0 0 0 0 0 0 0 0 0 0 0 0 0 0 208 0 209 209 0 0 0 0 0 212 0 0 213 213 214 0 216 216 0 217 218 0 220 0 221 0 221 221 222 222 222 223 223 222 222 222 222 223 224 225 0 226 227 226 227 227 227 228 229 229 231 232 232 232 232 234 234 234 235 235 0 236 0 0 0 238 0 0 0 0 0 0 0 0 0 234 237 0 0 0 0 0 0 0 238 0 0 0 0 0 0 0 0 0 0 0 0 0 0 0 0 0 0 0 0 0 0 0 0 0 0 0 0 0 0 0 0 0 0 0 0 0 0 0 0 0 0 247 247 247 247 247 247 247 247 247 247 247 247 247 247 247 247 247 247 247 247 247 247 247 247 247 247 247 247 247 247 247 247 247 247 247 247 247 247 247 247 247 247 247 247 247 247 247 247 247 247 247 247 247 247 247 247 247 247 247 247 247 247 247 247 247 247 247 247 247 247 247 247 247 247 247 247 247 247 247 247 247 247 247 247 247 247 0 0 182 148 144 0 0 145 0 138 136 142 0 145 144 142 139 139 138 0 0 135 134 0 135 0 123 117 0 127 0 0 126 125 125 0 0 125 0 125 0 124 0 123 123 124 125 128 0 0 132 132 132 132 0 133 133 0 135 135 137 141 0 0 0 0 142 139 137 0 135 0 0 0 130 128 0 126 123 0 123 0 0 121 121 0 121 0 0 122 123 0 125 125 126 127 0 128 0 0 0 0 0 0 128 0 0 0 0 128 128 129 0 0 130 0 0 0 129 128 0 127 126 0 127 127 0 0 129 0 0 128 127 0 123 122 122 121 121 121 0 122 0 0 124 124 123 122 0 121 120 120 120 120 0 121 122 122 0 0 0 0 0 0 0 0 125 0 121 121 0 0 133 133 0 0 0 132 0 131 0 0 0 132 0 0 0 140 143 0 0 0 0 143 142 142 0 0 0 142 142 0 142 142 0 141 141 141 141 0 141 142 143 144 0 0 138 135 135 135 135 136 0 137 0 0 0 138 138 0 0 0 0 0 136 135 0 135 135 136 137 138 149 0 0 0 199 171 
0 0 0 94 88 84 83 83 83 84 85 0 0 86 86 0 0 0 0 0 0 0 0 88 0 89 90 91 0 91 91 91 91 92 0 93 93 93 93 93 0 92 92 92 93 93 93 0 0 0 93 0 0 93 93 0 0 94 94 94 0 95 0 96 0 0 98 0 99 99 100 0 101 0 0 0 100 100 0 99 0 0 0 99 0 0 97 97 97 0 0 0 0 0 94 0 0 0 0 91 91 91 0 0 0 88 87 86 85 0 0 0 83 0 82 82 83 86 95 0 0 0 0 144 152 0 0 0 174 174 0 0 184 184 187 0 0 127 91 85 85 0 86 0 0 0 0 0 0 91 0 0 0 0 0 101 102 103 106 113 0 0 144 156 0 0 0 0 213 213 213 213 0 214 0 0 216 216 216 0 0 0 0 0 220 220 221 0 0 222 222 0 222 223 0 225 225 0 225 226 227 228 228 229 229 229 229 229 231 231 231 231 230 231 231 232 232 0 234 0 235 0 236 236 0 0 0 0 0 0 0 0 0 0 0 0 0 0 0 0 0 0 0 0 0 0 0 0 0 0 0 0 0 0 240 0 0 0 0 0 0 0 0 0 0 0 0 0 0 0 0 0 0 0 0 0 0 0 0 0 0 0 0 0 247 0 247 247 247 247 247 247 247 247 247 247 247 247 247 247 247 247 247 247 247 247 247 247 247 247 247 247 247 247 247 247 247 247 247 247 247 247 247 247 247 247 247 247 247 247 247 247 247 247 247 247 247 247 247 247 247 247 247 247 247 247 247 247 247 247 247 247 247 247 247 247 247 247 247 247 247 247 247 247 247 247 247 247 247 247 247 247 247 247 247 247 247 247 247 247 247 247 247 247 247 247 247 247 247 247 247 247 0 0 181 145 141 0 0 144 140 137 134 138 0 145 143 141 139 138 0 135 134 132 131 0 133 0 121 113 0 0 122 122 121 120 119 120 120 0 121 0 121 120 120 120 119 119 120 123 126 0 0 0 129 129 130 131 131 132 134 136 139 142 0 0 0 0 140 0 0 133 133 132 131 130 128 127 0 125 123 0 0 122 0 0 0 0 0 121 122 0 124 0 0 126 126 127 0 129 129 0 131 130 129 129 0 0 128 128 128 0 129 129 0 0 129 0 0 0 127 128 0 0 0 127 126 126 0 0 129 129 0 128 127 0 124 123 122 121 0 122 122 122 123 0 0 0 0 122 121 121 0 121 121 0 122 123 124 125 126 127 0 0 0 0 0 126 124 0 121 120 0 0 133 0 0 132 132 0 0 130 129 129 129 0 132 0 137 139 142 0 0 0 0 144 0 142 143 0 0 0 142 0 142 142 0 142 141 141 141 141 141 142 0 0 0 141 138 136 135 135 135 0 136 136 137 0 138 138 138 0 0 139 138 137 136 136 0 135 135 0 136 138 145 181 0 0 0 172 
104 0 0 93 87 84 83 83 0 0 0 0 0 86 86 86 86 88 89 89 88 89 89 89 90 0 0 0 0 0 0 92 0 0 0 0 0 0 0 0 0 93 93 0 0 94 94 0 94 93 93 93 92 0 93 0 0 93 94 0 95 95 96 97 0 98 0 0 99 0 0 0 0 102 0 0 0 0 0 100 0 0 0 0 98 0 0 0 96 0 0 95 94 94 94 0 0 92 0 0 0 90 91 90 0 0 0 0 86 0 84 83 83 83 82 0 82 85 91 0 0 0 0 144 152 0 0 0 172 169 175 0 0 181 184 0 0 131 91 85 0 0 86 0 87 0 0 89 90 91 93 95 0 0 99 100 0 0 106 110 120 0 0 152 0 0 0 221 221 221 221 222 222 223 224 0 225 225 226 227 227 227 228 228 229 230 230 0 231 0 232 232 0 0 234 234 234 0 0 0 0 0 0 0 0 0 0 0 0 0 0 0 0 0 0 0 0 0 0 0 0 0 0 0 0 0 0 0 0 0 0 0 0 0 0 0 0 0 0 0 0 0 0 0 0 0 0 0 0 0 0 0 0 0 245 0 0 0 0 0 0 0 247 0 0 247 247 247 247 247 247 247 247 247 247 247 247 247 247 247 247 247 247 247 247 247 247 247 247 247 247 247 247 247 247 247 247 247 247 247 247 247 247 247 247 247 247 247 247 247 247 247 247 247 247 247 247 247 247 247 247 247 247 247 247 247 247 247 247 247 247 247 247 247 247 247 247 247 247 247 247 247 247 247 247 247 247 247 247 247 247 247 247 247 247 247 247 247 247 247 247 247 247 247 247 247 247 247 247 247 247 247 247 247 247 247 247 0 0 0 0 0 0 0 0 0 247 247 247 247 247 247 0 0 177 143 139 0 0 0 139 135 133 137 0 0 143 140 139 0 0 133 132 130 129 0 131 0 0 107 0 0 0 0 116 115 115 115 116 0 116 0 0 117 117 0 0 115 115 118 0 0 124 0 126 127 128 129 131 0 133 136 140 0 0 0 0 0 139 136 133 132 0 130 0 128 127 126 125 124 0 0 122 120 121 121 0 122 122 0 0 0 0 0 0 0 127 128 129 0 0 0 0 0 129 129 129 129 0 128 128 0 0 0 130 130 129 130 130 0 129 128 128 128 0 0 127 126 0 0 129 0 128 0 0 0 123 0 0 0 0 0 0 122 123 125 0 125 0 0 121 121 0 0 122 123 124 0 0 0 129 130 0 0 0 0 0 124 0 122 0 119 0 0 132 0 131 131 0 131 130 129 0 128 128 128 130 133 136 0 0 0 0 0 0 144 0 143 0 0 0 0 141 141 141 142 0 0 0 0 141 141 141 142 143 144 0 142 0 135 135 0 135 135 135 136 0 137 137 0 138 0 139 0 138 137 137 136 0 135 0 136 0 138 141 167 0 0 0 178 
0 0 0 92 87 84 0 0 84 85 0 86 86 86 0 86 0 0 0 0 0 89 0 90 91 0 92 92 91 92 92 92 0 0 93 93 93 93 0 0 0 0 0 94 0 0 0 0 94 0 0 0 93 0 93 92 93 94 0 95 95 96 0 0 97 97 98 99 99 99 100 101 0 0 102 101 100 100 0 0 99 99 98 0 97 98 97 97 96 96 96 95 0 94 94 93 93 92 91 91 90 91 0 0 90 89 88 0 87 0 85 84 83 0 83 0 82 83 88 102 0 0 137 144 152 0 0 0 0 169 173 0 0 181 0 0 0 133 93 85 85 85 86 86 86 87 88 88 89 91 0 95 0 98 99 0 0 101 103 109 118 0 137 145 175 0 0 0 0 0 231 0 232 0 0 234 234 235 0 0 0 0 0 0 0 0 0 0 0 0 0 0 0 0 0 0 0 0 0 0 0 0 0 0 0 0 0 0 0 0 0 0 0 0 0 0 0 0 0 0 0 0 0 0 0 0 0 0 0 0 0 0 0 0 0 0 0 0 0 0 0 247 247 247 247 247 247 247 247 247 247 247 0 247 0 0 247 247 247 247 247 0 0 0 247 247 247 247 247 247 247 247 247 247 247 247 247 247 247 247 247 247 247 247 247 247 247 247 247 247 247 247 247 247 247 247 247 247 247 247 247 247 247 247 247 247 247 247 247 247 247 247 247 247 247 247 247 247 247 247 247 247 247 247 247 247 247 247 247 247 247 247 247 247 247 247 247 247 247 247 247 247 247 247 247 247 247 247 247 247 247 247 247 247 247 247 247 247 247 247 247 247 247 0 0 0 0 0 0 0 0 0 0 0 0 0 0 0 0 0 0 0 0 0 0 0 0 0 0 0 0 0 0 0 170 142 137 0 0 143 138 134 132 134 0 0 142 140 0 137 0 133 130 129 129 129 129 0 0 103 105 0 0 112 0 111 0 112 112 0 0 114 0 115 115 115 114 113 113 114 0 0 122 123 124 125 126 128 0 0 133 136 0 0 0 0 145 141 137 0 132 129 129 0 0 126 0 0 0 123 0 122 121 121 121 120 122 122 0 0 124 125 0 126 0 127 0 0 129 130 131 0 131 130 0 129 129 0 129 129 129 0 0 130 0 0 0 0 0 0 0 0 129 129 0 128 0 127 128 129 129 0 0 0 126 0 123 123 0 123 123 123 123 123 124 0 0 125 123 0 122 0 123 0 0 0 126 127 0 0 0 132 133 0 0 130 126 123 122 0 0 117 124 0 131 0 0 0 0 130 0 0 128 127 126 126 128 131 135 0 141 143 0 0 144 143 143 0 0 144 0 142 142 141 0 0 141 141 142 0 0 140 141 0 143 0 0 0 0 135 135 0 135 135 0 135 136 0 137 0 138 138 0 139 0 0 0 0 136 0 135 136 0 137 139 157 0 0 0 185 
103 0 0 91 86 83 83 83 84 85 85 0 86 86 0 87 87 0 88 88 0 88 0 0 0 0 0 0 0 0 92 92 0 92 93 93 93 93 92 92 93 93 0 0 94 94 94 93 93 0 93 93 93 0 0 93 0 0 95 0 0 97 0 98 98 98 99 99 100 101 0 101 101 0 0 0 99 100 99 99 99 0 0 98 0 0 0 97 0 0 95 95 94 0 94 94 93 0 92 0 0 0 0 0 0 0 0 87 87 0 0 0 84 0 83 0 0 83 85 94 110 0 0 0 153 0 0 0 0 0 175 0 0 183 184 0 0 0 95 85 0 85 0 0 0 87 87 0 89 0 0 94 0 0 0 99 100 100 101 107 116 0 0 141 166 0 0 0 0 0 0 0 0 0 0 0 0 0 0 0 0 0 0 0 0 0 0 0 0 0 0 0 0 0 0 0 0 0 0 0 0 0 0 0 0 0 0 0 0 0 0 0 0 0 0 0 0 0 0 0 248 248 0 0 0 0 247 247 247 247 247 247 247 247 247 247 247 247 247 247 247 247 247 247 247 247 247 247 247 247 247 247 0 247 0 247 247 247 247 247 247 0 248 0 247 247 247 247 247 247 247 247 247 247 247 247 247 247 247 247 247 247 247 247 247 247 247 247 247 247 247 247 247 247 247 247 247 247 247 247 247 247 247 247 247 247 247 247 247 247 247 247 247 247 247 247 247 247 247 247 247 247 247 247 247 247 247 247 247 247 247 247 247 247 247 247 247 247 247 247 247 247 247 247 247 247 247 247 247 247 247 247 247 0 0 0 0 0 0 0 0 0 0 0 0 0 0 0 0 0 0 0 0 0 0 0 0 0 0 0 0 0 0 0 0 0 0 0 0 0 0 0 0 0 161 140 136 0 0 142 137 0 131 131 0 0 142 139 138 137 136 134 132 130 128 128 0 0 0 100 99 103 0 107 0 108 0 109 109 109 110 111 0 113 113 113 113 0 112 112 115 118 119 122 123 124 0 127 130 0 0 137 143 0 0 0 143 139 135 0 0 129 128 127 126 125 124 123 0 121 0 121 121 0 0 122 0 0 124 124 125 125 126 127 127 127 128 129 0 0 0 0 131 0 0 129 129 129 0 0 130 129 130 130 130 0 0 0 0 130 130 130 0 0 0 128 128 0 129 0 0 129 128 127 126 124 124 0 123 0 123 123 123 124 125 0 0 125 123 123 123 0 123 125 0 0 0 130 131 132 133 134 0 0 0 0 0 0 0 0 117 114 123 0 0 130 129 128 0 129 0 128 127 0 0 0 127 130 0 0 140 0 0 0 0 0 143 143 144 144 0 143 0 0 0 141 141 0 0 0 141 140 0 141 0 0 0 0 0 136 0 0 135 135 135 0 135 136 0 0 138 138 0 139 139 0 138 137 0 0 135 0 136 137 138 149 0 0 0 196 
0 0 95 90 86 84 0 84 85 0 86 86 86 86 0 0 87 87 87 87 88 89 90 91 91 91 91 0 91 0 92 92 0 93 0 0 0 0 0 0 0 0 93 93 0 94 0 94 94 94 94 0 94 93 94 94 95 95 95 96 0 97 0 0 0 0 0 0 0 0 0 0 101 101 101 100 100 100 0 0 100 0 100 99 98 98 0 0 0 0 96 95 0 0 0 0 0 0 92 0 0 92 0 90 89 89 0 0 87 0 85 0 84 0 83 83 83 83 83 89 104 0 0 0 0 0 160 163 0 0 0 0 182 184 0 0 0 0 98 84 0 85 0 86 86 0 0 0 88 0 92 94 96 0 99 0 100 101 102 105 113 0 0 140 160 0 0 0 0 0 0 0 0 0 0 0 0 0 0 0 0 0 0 0 0 0 0 0 0 0 0 0 0 0 0 0 0 0 0 0 0 0 0 0 247 247 0 247 247 247 247 247 247 247 247 247 247 247 247 0 248 0 0 247 247 247 247 247 247 247 247 247 247 247 247 247 247 247 247 247 247 247 247 247 247 247 247 247 247 247 247 247 0 0 0 247 247 247 247 247 247 0 248 0 247 247 247 247 247 247 247 247 247 247 247 247 247 247 247 247 247 247 247 247 247 247 247 247 247 247 247 247 247 247 247 247 247 247 247 247 247 247 247 247 247 247 247 247 247 247 247 247 247 247 247 247 247 247 247 247 247 247 247 247 247 247 0 0 0 0 0 0 247 247 247 0 0 0 0 0 0 0 0 0 0 0 0 0 0 0 0 0 0 0 0 0 0 0 0 0 0 0 0 0 0 0 0 0 0 0 0 0 0 0 0 0 0 0 0 0 0 0 0 0 0 0 0 0 0 223 222 221 0 0 157 139 135 139 0 0 137 132 129 127 137 0 142 140 0 0 0 135 0 0 128 127 128 0 0 98 95 97 0 102 0 0 106 106 0 106 0 109 0 0 111 0 0 111 111 112 113 0 0 0 0 123 125 128 131 134 137 140 0 0 0 145 141 137 133 130 0 128 0 126 125 124 122 122 0 121 121 121 121 122 0 0 124 0 124 0 0 126 127 0 0 0 0 130 131 0 0 133 131 131 0 130 129 129 130 0 0 0 0 130 130 0 0 130 130 130 0 130 130 0 127 128 0 129 0 0 129 129 0 0 126 125 124 0 0 0 124 0 124 0 0 0 0 125 124 0 122 0 125 126 128 129 131 132 0 0 0 135 0 0 0 0 123 120 118 0 114 115 0 0 0 129 128 127 0 127 0 126 0 125 125 0 126 128 133 0 139 141 0 145 0 144 0 0 0 144 0 0 143 0 0 141 0 142 142 141 140 0 141 141 142 143 0 0 0 137 134 0 135 135 0 0 136 0 0 0 0 138 0 139 139 139 138 137 136 135 0 0 135 136 138 145 183 0 0 209 
0 0 0 90 86 85 0 85 0 0 0 0 86 86 86 0 87 0 88 88 88 0 0 0 0 0 91 91 91 0 92 0 0 93 93 0 92 92 0 92 92 0 93 93 0 94 94 94 0 0 0 94 0 0 0 0 0 96 0 97 0 98 0 99 99 98 0 100 0 0 101 0 0 0 0 101 0 100 0 0 100 100 0 0 98 97 97 98 0 97 96 95 0 94 94 0 94 0 0 92 0 0 91 0 89 89 88 88 87 86 85 0 84 83 0 0 83 0 83 87 97 115 0 0 152 0 154 157 165 0 177 180 182 0 0 0 0 0 100 85 85 85 0 86 86 87 87 88 88 90 92 94 96 98 0 100 101 0 0 106 112 0 0 138 155 0 0 0 0 0 0 0 0 248 248 0 0 0 0 0 0 0 0 0 0 0 247 247 247 247 247 247 247 247 247 247 247 247 247 247 247 247 247 247 247 247 247 247 247 247 247 247 247 247 247 247 247 247 0 0 0 0 247 247 247 247 247 247 247 247 247 247 247 247 247 247 247 247 247 247 247 247 247 247 247 247 247 247 247 247 247 247 0 0 0 247 247 247 247 247 247 0 248 0 247 247 247 247 247 247 247 247 247 247 247 247 247 247 247 247 247 247 247 247 247 247 247 247 247 247 247 247 247 247 247 247 247 247 247 247 247 247 247 0 247 247 247 247 0 0 0 0 0 0 0 0 0 0 0 0 0 0 0 0 0 0 0 0 0 0 0 0 0 0 0 0 0 0 0 0 0 0 0 0 0 0 0 0 0 0 0 0 0 0 0 0 0 0 0 0 0 0 0 0 0 0 0 0 0 0 0 223 222 221 219 218 216 216 215 214 213 212 211 209 207 207 207 206 205 203 202 201 0 0 157 137 134 137 0 0 136 131 0 127 132 0 0 139 139 0 0 136 135 0 0 129 128 0 0 99 95 95 0 98 99 102 0 0 104 104 105 107 108 109 110 111 111 111 111 0 113 116 0 121 122 124 126 129 133 0 139 144 0 0 0 0 138 0 0 0 127 126 0 0 0 0 0 0 121 121 121 0 0 123 0 124 124 0 125 126 0 127 128 0 129 0 130 131 133 0 0 133 0 130 0 0 130 130 0 0 131 0 0 131 131 0 0 130 130 0 0 0 0 0 128 128 128 129 0 130 0 129 128 0 0 125 124 125 0 0 125 123 125 126 127 0 0 125 124 124 125 0 0 0 131 0 0 0 0 0 136 0 135 0 0 125 121 118 0 0 114 118 123 0 0 0 0 126 124 125 125 125 0 124 124 124 126 127 131 0 0 0 0 0 0 143 0 143 0 144 144 0 143 142 141 0 0 0 142 0 141 0 0 0 142 143 0 0 0 138 135 0 135 135 0 136 136 0 137 137 0 138 0 0 0 0 0 137 136 135 135 0 136 0 138 142 170 0 0 220 
0 99 94 0 85 0 84 85 86 0 86 0 0 86 0 87 87 0 0 0 0 89 0 90 90 0 90 91 0 0 92 0 0 93 93 0 92 0 93 0 92 0 93 0 0 94 93 94 0 95 94 94 0 94 0 0 0 0 97 0 98 0 99 99 99 99 0 100 100 99 100 101 102 0 0 101 0 101 0 100 100 100 0 0 99 0 0 98 97 97 0 0 94 94 0 93 93 93 0 92 91 90 90 0 0 0 0 88 0 0 86 0 85 84 0 83 82 0 83 84 92 110 0 0 0 0 160 161 167 0 0 0 0 0 0 0 0 0 106 86 85 0 0 0 0 0 87 0 89 90 0 0 0 0 0 0 0 0 103 105 111 119 0 135 150 0 0 0 0 0 0 0 0 0 0 0 247 247 247 247 247 247 247 247 247 247 247 247 247 247 247 247 247 247 247 247 247 247 247 247 247 247 247 247 247 247 247 247 247 247 247 247 247 247 247 0 0 0 0 247 247 247 247 247 247 247 247 247 247 247 247 247 247 247 247 247 247 247 247 247 247 247 247 247 247 247 247 247 247 247 247 0 0 0 247 247 247 247 247 247 0 0 248 0 247 247 247 247 247 247 247 247 247 247 247 247 247 247 247 247 247 247 247 247 247 247 247 247 247 247 247 247 247 247 247 247 0 0 0 0 0 0 0 0 0 0 0 0 0 0 0 0 0 0 0 0 0 0 0 0 0 0 0 0 0 0 0 0 0 0 0 0 0 0 0 0 0 0 0 0 0 0 0 0 0 0 0 0 0 0 0 0 0 0 0 0 223 222 222 0 219 216 215 212 210 209 207 207 207 206 205 203 202 200 199 199 198 197 197 196 195 194 193 192 191 191 189 188 188 187 186 186 186 0 0 138 133 135 0 0 136 130 128 127 129 0 0 139 0 138 0 137 0 0 0 132 130 0 0 100 96 95 97 98 98 99 101 0 104 105 0 106 108 109 109 110 111 0 112 113 114 116 0 121 123 125 127 131 135 0 141 147 0 0 0 141 135 132 0 127 125 124 124 0 122 0 121 120 120 121 0 122 123 0 0 125 125 0 0 127 127 128 129 129 130 129 131 132 0 0 135 133 0 131 0 0 0 130 130 131 0 132 132 0 0 131 131 0 130 130 0 131 0 0 128 0 0 0 0 130 0 129 0 128 0 125 125 125 0 0 0 125 0 127 0 0 128 126 126 126 127 0 131 0 133 0 0 135 136 0 0 0 0 0 128 123 0 118 0 115 116 0 122 0 0 128 127 0 123 0 123 0 0 0 123 124 0 127 129 0 0 141 0 144 0 143 0 143 144 0 0 0 143 142 0 142 141 0 142 0 141 140 141 0 0 0 0 0 0 139 136 0 135 0 0 136 136 136 136 137 0 137 0 138 137 139 139 138 0 135 135 135 0 136 137 141 159 0 0 229 
0 0 0 88 85 85 0 86 86 0 87 87 86 0 0 0 88 88 0 0 89 89 0 89 90 90 91 0 92 92 91 92 0 0 0 0 0 0 0 0 0 92 93 93 94 0 0 95 0 95 0 0 0 0 0 0 97 97 97 0 97 0 0 0 0 0 0 100 0 0 0 0 0 0 0 101 0 0 0 100 100 100 0 0 99 0 0 98 0 98 0 0 95 95 0 93 0 93 93 0 0 91 0 0 0 0 0 88 87 0 0 86 0 0 0 83 82 83 83 83 90 105 0 0 0 159 0 0 0 0 176 0 0 0 0 0 0 0 113 87 84 85 0 86 86 87 88 0 89 0 91 93 95 97 0 0 0 0 0 105 110 117 125 133 146 0 0 0 247 247 247 247 247 247 247 247 247 247 247 247 247 247 247 247 247 247 247 247 247 247 247 247 247 247 247 247 247 247 247 247 247 247 247 247 247 247 247 247 0 0 0 0 0 0 0 0 0 247 247 247 247 247 247 247 247 247 247 247 247 247 247 247 247 247 247 247 247 247 247 247 247 247 247 247 247 247 247 247 247 247 247 0 247 0 247 247 247 247 247 247 0 0 0 0 247 247 247 247 247 247 247 247 247 247 247 247 247 247 0 0 0 0 0 0 0 0 0 0 0 0 0 0 0 0 0 0 0 0 0 0 0 0 0 0 0 0 0 0 0 0 0 0 0 0 0 0 0 0 0 0 0 0 0 0 0 0 0 0 0 0 0 0 0 0 0 0 0 0 0 225 0 0 0 223 222 220 218 216 215 213 212 210 209 207 207 206 205 203 202 200 198 197 196 195 194 194 192 193 0 191 189 187 186 184 183 183 182 181 181 181 181 180 180 178 178 177 176 175 174 174 174 173 174 0 0 139 133 134 0 0 135 130 127 126 127 0 0 139 138 138 0 137 0 0 0 0 0 0 0 102 96 97 0 98 99 100 100 103 0 105 106 107 0 0 110 111 111 111 113 0 116 118 121 0 126 128 131 134 137 142 146 0 0 0 0 138 0 129 126 124 123 123 0 122 121 121 120 0 121 0 121 122 123 0 125 0 0 127 0 0 128 129 0 130 0 0 0 134 135 0 0 134 132 131 130 130 131 0 0 132 0 0 0 0 132 0 0 131 131 131 131 131 0 130 130 0 0 130 130 130 130 129 128 128 0 127 0 127 0 0 0 126 127 128 0 0 0 127 128 129 130 0 133 0 135 135 135 136 0 0 0 0 0 0 126 122 119 0 116 114 0 0 121 0 0 128 126 0 123 122 122 0 122 0 0 123 124 0 127 133 0 139 0 143 0 143 0 0 144 0 0 143 143 0 0 0 142 141 0 0 141 0 140 0 142 143 0 0 0 138 136 136 0 135 0 0 135 135 136 0 0 0 0 0 138 0 0 0 0 0 0 135 0 136 136 139 152 0 0 0 
0 0 91 88 85 85 0 87 87 0 88 0 0 0 88 88 0 89 89 88 89 0 0 89 90 0 91 0 92 92 92 92 0 0 92 0 0 92 0 92 93 0 93 0 0 95 95 96 96 95 94 94 94 94 95 96 0 0 97 0 0 97 0 99 99 0 100 0 100 100 99 99 0 100 100 0 99 0 0 100 100 0 0 99 97 98 0 99 99 0 0 0 96 0 0 0 0 0 0 0 0 91 91 91 89 90 89 88 88 88 0 86 85 85 0 83 0 0 83 83 86 98 0 0 0 0 0 169 0 173 0 0 0 182 0 0 0 0 123 90 84 85 0 86 86 0 0 88 0 89 90 0 0 96 0 98 99 100 103 0 0 0 122 131 143 179 0 0 247 247 247 247 247 247 247 247 247 247 247 247 247 247 247 247 247 247 247 247 247 247 247 247 247 247 247 247 247 247 247 247 247 247 247 247 247 247 247 247 247 247 247 247 247 247 247 247 247 247 247 247 247 247 247 247 247 247 247 247 247 247 247 247 247 247 247 247 247 247 247 247 247 247 247 247 247 247 247 247 247 247 0 0 246 0 0 0 0 0 247 0 0 247 0 0 0 0 0 0 0 0 0 0 0 0 0 0 0 0 0 0 0 0 0 0 0 0 0 0 0 0 0 0 0 0 0 0 0 0 0 0 0 0 0 0 0 0 0 0 0 0 0 0 0 0 0 0 0 0 0 0 0 0 223 222 220 218 217 216 215 213 212 211 210 209 209 209 209 208 208 207 207 206 205 206 0 202 200 199 197 196 194 192 192 192 191 190 189 187 184 184 183 181 181 181 180 180 180 180 179 178 176 175 174 173 172 172 171 170 170 169 169 169 0 166 166 165 164 163 163 163 163 162 162 164 0 145 133 134 0 0 136 129 0 125 126 133 0 139 138 0 0 0 0 135 0 0 0 0 0 105 98 98 99 0 0 101 102 103 0 107 107 109 110 111 112 113 113 112 114 116 119 121 123 0 129 131 135 0 142 0 0 0 0 0 141 135 131 0 124 122 122 122 0 0 0 0 120 121 121 0 123 124 0 125 0 0 0 127 128 0 129 130 0 131 132 133 0 0 0 0 136 0 0 131 131 130 0 0 0 133 0 0 133 133 0 131 132 132 0 0 131 131 0 130 0 131 130 0 0 130 130 0 0 0 128 128 0 0 128 128 128 128 129 129 0 131 129 129 130 0 133 0 135 0 0 0 137 0 0 0 0 134 131 127 124 0 119 117 115 117 0 0 120 124 0 0 0 123 121 120 120 0 121 0 0 122 122 124 0 130 0 139 0 142 143 143 143 0 144 144 0 0 143 141 142 0 142 0 141 141 141 0 140 141 142 143 145 0 0 139 136 136 0 135 135 135 135 135 0 0 0 136 137 0 138 0 0 138 0 137 135 0 136 136 136 137 146 0 0 0 
0 0 89 86 86 86 87 0 88 0 0 0 88 88 88 0 0 0 0 0 89 0 0 0 0 91 91 0 92 0 92 92 93 93 92 92 92 92 92 93 0 0 94 94 95 0 96 0 0 0 95 0 94 94 95 96 0 98 98 0 0 98 98 0 99 0 100 100 0 0 100 99 100 100 0 99 97 98 99 0 100 100 0 0 0 0 0 0 0 98 0 97 96 96 94 94 94 93 0 93 92 92 0 0 0 0 0 89 89 0 88 87 0 0 84 83 0 84 0 82 84 93 0 0 0 0 0 0 0 173 0 172 174 0 0 0 0 0 0 94 86 0 0 86 86 0 0 88 88 88 90 0 0 96 97 0 0 101 102 104 107 112 119 128 140 165 0 0 247 247 247 247 247 247 247 247 247 247 247 247 247 247 247 247 247 247 247 247 247 247 247 247 247 247 247 247 247 247 247 247 247 247 247 247 247 247 247 247 247 247 247 247 247 247 247 247 247 247 247 247 247 247 247 247 247 247 247 247 247 247 247 247 247 247 247 247 247 247 247 247 247 247 247 247 247 247 247 0 0 0 0 244 0 0 0 0 0 0 0 0 0 244 0 0 0 0 0 0 0 0 0 0 0 0 0 0 0 0 0 0 0 0 0 0 0 0 0 0 0 0 0 0 0 0 0 0 0 0 0 0 0 0 0 0 222 221 220 218 217 216 214 214 214 212 213 213 212 212 211 209 207 206 205 203 202 200 199 199 0 0 196 0 194 194 194 194 192 193 0 193 193 192 191 190 189 187 185 184 183 181 180 179 177 178 177 177 176 174 173 0 171 171 170 170 169 0 169 0 167 166 165 164 164 163 163 162 161 160 159 159 159 159 158 157 157 0 155 154 153 153 0 153 153 153 0 0 134 134 0 0 0 129 126 123 126 131 0 139 138 138 0 136 0 0 0 0 0 0 0 107 101 100 100 0 0 102 103 105 107 0 0 0 113 114 115 116 116 117 119 120 122 124 127 0 134 0 140 0 147 0 0 0 0 0 138 133 0 126 123 0 0 0 120 121 121 121 121 0 122 0 125 0 126 127 0 0 129 129 129 129 130 130 0 0 133 134 0 136 137 137 136 0 132 132 0 132 0 133 133 0 0 0 133 133 0 132 0 0 132 0 0 0 131 0 0 131 0 0 131 0 130 130 0 0 130 130 0 130 129 0 0 0 0 132 0 0 131 132 0 134 0 0 0 0 0 138 138 139 0 137 0 0 0 126 123 0 0 116 116 0 0 121 121 122 0 0 0 0 120 119 0 118 119 0 0 120 121 122 124 128 0 0 140 0 0 0 142 143 144 144 0 0 0 142 0 0 142 0 0 141 141 140 0 0 142 143 144 0 0 140 137 0 136 135 0 135 135 135 0 136 136 136 136 137 0 0 0 138 0 137 135 0 0 136 0 138 143 181 0 0 
0 0 89 86 86 0 0 88 88 0 0 88 88 88 88 89 89 88 0 88 89 90 0 0 0 91 91 0 92 0 92 0 0 0 93 92 92 92 0 0 94 95 0 0 0 0 96 0 0 0 95 0 95 96 0 0 98 0 0 0 99 0 99 99 99 0 0 0 101 0 0 0 0 100 0 99 98 98 99 0 0 99 99 98 97 0 99 99 0 98 97 97 0 0 95 94 94 94 94 0 93 93 92 91 91 0 90 0 0 0 0 0 0 0 0 84 84 0 0 0 83 89 106 0 0 0 0 0 0 172 172 170 170 177 0 181 0 0 0 99 86 0 0 86 0 0 88 88 88 88 90 92 94 0 0 0 0 102 0 103 105 109 118 0 137 155 0 0 247 247 247 247 247 247 247 247 247 247 247 247 247 247 247 247 247 247 247 247 247 247 247 247 247 247 247 247 247 247 247 247 247 247 247 247 247 247 247 247 247 247 247 247 247 247 247 247 247 247 0 0 247 247 247 0 0 0 0 0 0 0 0 0 0 0 0 0 0 0 0 0 0 0 0 0 0 0 0 0 0 0 0 236 0 0 0 0 0 0 0 0 0 235 0 0 0 0 0 0 0 0 0 0 0 0 0 0 0 0 0 0 0 0 0 0 0 0 0 0 0 221 220 0 218 216 216 215 215 214 212 210 209 207 207 206 204 203 202 201 200 199 199 199 0 198 197 196 195 195 194 192 190 189 189 187 186 185 183 182 183 182 181 181 181 181 181 181 180 180 181 181 181 0 179 178 0 175 0 0 0 0 167 167 166 166 165 164 164 164 163 162 161 161 161 161 161 0 159 159 158 158 157 157 0 155 155 154 154 0 152 153 152 152 0 150 149 149 148 148 147 146 146 145 145 145 151 0 138 134 0 0 0 131 126 123 125 130 0 0 138 0 0 0 0 0 0 0 0 0 0 108 104 100 101 0 102 102 104 106 0 0 113 0 0 0 119 0 0 0 0 0 126 128 132 136 139 0 145 0 0 0 0 0 0 139 135 131 0 124 122 122 121 121 121 121 122 122 123 124 124 125 0 0 127 0 129 0 130 0 0 0 131 0 0 133 0 0 135 137 0 137 136 135 0 132 132 132 0 0 134 0 0 135 134 134 0 133 0 133 133 0 133 0 131 0 0 132 132 132 131 131 0 131 131 131 131 0 0 0 131 130 131 0 0 0 0 133 134 135 0 0 0 0 137 137 138 139 0 0 0 0 0 130 0 124 121 0 117 116 0 0 121 0 0 120 0 0 123 122 0 118 116 116 0 117 0 119 119 121 123 125 0 0 140 141 0 0 143 0 0 145 0 0 143 0 0 142 0 141 0 0 0 141 141 141 142 0 144 0 0 140 137 137 0 136 0 135 0 135 0 0 0 136 0 137 137 138 0 0 0 137 136 135 136 135 0 138 140 169 0 0 
0 93 88 86 0 0 88 0 89 89 89 0 88 0 0 0 0 89 89 88 89 90 0 90 90 91 0 0 0 92 0 0 0 0 93 0 0 93 94 0 95 0 0 96 96 0 95 95 0 95 94 95 0 97 0 0 99 0 99 0 0 0 0 0 99 99 0 0 101 101 101 101 0 100 0 99 99 0 99 99 99 99 0 0 97 97 98 98 0 97 97 0 96 0 0 95 0 0 0 94 94 94 0 92 90 90 90 90 90 89 87 87 87 87 0 85 84 84 84 0 84 87 97 0 0 0 0 0 0 0 0 171 171 176 0 0 0 0 0 106 86 85 0 86 86 0 0 0 0 89 0 0 94 95 95 98 0 0 0 104 106 109 116 124 133 146 194 0 0 247 247 0 0 0 0 247 247 247 247 247 247 247 247 247 247 247 247 247 247 247 247 247 247 247 247 247 247 247 247 247 247 247 247 247 0 0 0 0 0 0 0 0 0 0 0 0 0 0 0 0 0 0 0 0 0 0 0 0 0 0 0 0 0 0 0 0 0 0 0 0 0 0 0 0 0 0 0 0 0 0 0 229 0 0 0 0 0 0 232 0 228 225 0 0 0 0 0 0 0 0 0 221 219 217 216 216 215 213 213 212 211 209 208 207 207 206 204 203 201 200 199 199 198 197 197 197 197 196 195 192 191 191 190 189 190 189 187 187 187 186 186 186 184 184 182 181 181 181 180 178 177 176 175 174 173 0 173 172 172 171 0 0 170 170 169 169 169 0 170 170 170 170 169 166 165 163 163 161 160 0 159 158 158 158 157 156 0 155 154 155 155 154 154 154 154 153 152 152 152 152 151 151 150 149 149 149 147 148 0 148 147 147 146 145 145 145 144 143 143 142 141 141 141 140 143 0 144 136 0 0 0 131 126 123 123 126 0 0 138 0 0 0 126 123 121 121 121 120 0 109 107 105 102 101 102 0 105 107 110 0 0 0 119 121 123 125 0 0 128 128 130 132 0 0 143 146 0 0 0 0 0 0 141 136 131 128 125 123 0 122 122 122 0 123 123 124 0 0 0 127 0 0 129 129 129 131 0 132 132 0 132 133 133 134 134 135 137 0 0 0 136 0 0 133 133 133 0 133 0 0 0 135 135 0 134 134 134 134 134 0 134 0 133 0 133 0 132 0 0 132 132 133 0 0 132 0 132 0 132 132 133 133 134 0 134 135 0 0 0 0 0 137 137 138 139 0 0 0 0 0 0 128 125 122 120 118 118 119 0 121 121 0 120 118 0 0 123 0 0 118 115 115 115 115 116 0 119 0 121 124 131 0 0 141 142 0 144 0 145 145 0 0 142 141 0 141 0 141 0 140 0 141 0 0 141 142 144 0 0 141 138 0 137 0 135 0 134 134 135 0 135 0 0 137 0 138 0 0 0 138 0 135 0 0 136 137 139 158 0 0 
0 0 88 86 0 87 0 89 0 90 0 89 89 0 89 89 0 0 0 0 0 90 0 90 90 91 91 91 92 0 92 93 94 0 93 0 93 93 0 0 94 0 95 0 0 0 96 95 0 0 0 95 96 0 98 0 0 99 98 98 0 0 0 0 0 99 100 0 100 0 100 0 0 99 99 99 0 0 0 0 99 98 99 0 98 97 0 98 97 97 97 0 96 96 0 95 0 95 0 94 94 0 0 93 92 0 0 91 0 0 88 0 87 86 86 0 84 83 83 0 83 86 92 114 0 0 0 0 161 163 0 171 0 0 0 0 0 0 0 114 87 85 0 0 0 86 87 87 88 89 0 0 94 0 96 98 0 0 0 0 0 108 113 120 128 138 173 0 0 0 0 0 248 248 0 0 0 0 0 0 0 0 0 0 0 0 0 0 0 0 0 0 0 0 0 0 0 0 0 0 0 0 0 0 0 0 0 0 0 0 0 0 0 0 0 0 0 0 0 0 0 0 0 0 0 0 0 0 0 0 0 0 0 0 0 0 0 0 0 0 0 0 0 0 0 0 225 224 224 227 0 221 218 218 217 216 215 214 216 221 0 217 211 208 208 208 208 208 207 206 203 201 199 199 198 198 197 196 195 194 193 192 191 190 189 188 187 186 184 183 182 181 181 181 181 180 181 181 180 180 179 179 178 178 179 178 178 177 0 176 0 174 0 0 0 0 169 169 0 167 166 0 164 162 163 0 163 162 162 162 162 0 160 159 159 159 159 159 160 160 160 160 160 158 157 155 155 153 152 153 152 150 151 151 151 151 150 149 150 150 149 149 149 149 149 148 0 148 148 148 147 146 146 145 145 145 145 145 145 145 144 144 143 143 142 142 0 141 140 140 139 0 138 138 139 0 0 138 0 0 138 130 125 123 121 122 0 0 139 0 0 126 121 116 114 115 116 116 0 0 0 0 0 102 102 104 0 107 111 115 0 0 122 125 0 0 0 131 0 0 133 137 0 145 0 0 0 0 0 0 148 0 138 133 128 0 124 123 122 0 0 123 0 0 0 126 0 127 0 0 0 130 130 130 131 0 133 0 0 0 0 0 135 0 136 137 0 0 139 0 137 136 0 0 134 134 134 134 135 137 0 136 0 135 135 0 0 135 0 135 0 0 134 0 133 0 134 134 134 0 134 0 0 0 134 0 133 133 134 0 135 135 136 136 136 137 0 0 138 138 0 138 139 0 140 0 0 0 134 131 128 125 122 0 119 0 0 0 0 121 122 0 119 116 118 0 122 0 119 0 116 0 113 113 0 116 0 119 121 124 0 0 0 140 0 0 144 0 0 144 144 0 0 142 0 141 0 0 140 140 140 141 141 0 141 142 144 0 0 143 0 0 137 136 0 0 135 0 0 134 134 135 136 0 0 138 0 139 0 0 0 136 136 0 136 0 138 150 0 0 
0 92 88 87 86 87 0 89 90 0 0 0 89 89 89 88 89 0 90 90 90 90 0 0 0 92 0 92 92 0 0 94 0 93 93 93 93 92 93 93 94 94 95 95 96 96 0 0 0 96 0 0 96 97 97 0 0 0 98 0 99 0 99 99 99 0 100 100 99 0 101 101 100 100 0 0 99 98 0 0 99 99 99 98 0 97 0 0 97 0 97 97 95 95 0 95 0 95 0 94 0 0 0 0 0 0 0 0 0 90 89 0 0 87 86 0 0 84 84 0 84 85 89 103 0 0 0 159 156 160 0 0 0 0 0 178 177 0 0 120 88 85 0 0 86 85 87 0 88 89 90 92 94 95 0 97 100 101 102 103 104 106 110 116 125 133 156 0 0 0 248 248 248 248 248 248 0 0 0 0 0 0 0 0 0 0 0 0 0 0 0 0 0 0 0 0 0 0 0 0 0 0 0 0 0 0 0 0 0 0 0 0 0 0 0 0 0 0 0 0 0 0 0 0 0 0 0 0 0 223 222 222 220 220 219 218 216 216 216 213 212 211 209 208 207 206 206 205 211 0 0 0 202 199 199 198 197 199 209 0 0 0 199 191 191 192 0 192 0 188 186 184 183 183 182 182 181 181 181 179 178 178 178 176 175 175 175 174 172 171 171 170 167 167 0 167 167 169 169 169 169 167 169 0 0 169 0 169 167 166 166 164 164 162 161 161 160 159 158 157 156 155 155 154 0 154 154 0 0 154 154 153 152 152 151 152 153 153 153 153 154 154 153 152 151 150 149 148 148 147 147 145 145 146 146 146 146 146 146 0 146 146 146 146 145 145 145 0 145 0 144 144 144 143 143 143 143 142 142 0 142 142 142 0 141 141 141 0 140 0 139 138 138 138 138 146 0 144 143 0 0 132 127 124 122 121 128 0 0 135 129 123 117 114 113 113 0 0 0 105 0 0 0 106 103 0 105 107 0 0 0 123 126 0 0 0 0 134 0 135 138 0 0 148 0 0 0 0 0 0 0 140 135 131 127 124 123 122 0 123 0 124 124 125 0 0 128 0 128 129 0 0 131 0 133 0 135 135 136 136 136 0 0 137 137 139 0 0 139 0 0 0 136 0 0 0 0 135 0 0 0 137 0 0 135 135 0 136 136 136 0 0 135 0 134 0 0 135 0 0 136 0 0 135 134 0 135 135 0 0 136 0 0 138 138 0 139 139 139 139 140 0 140 0 0 0 136 0 131 0 125 123 121 119 118 118 120 0 122 122 0 0 0 114 113 0 0 121 0 0 0 114 113 112 0 114 0 118 0 123 127 0 0 0 141 0 143 0 145 145 0 0 0 0 0 141 140 140 140 0 0 0 141 0 0 0 144 0 0 144 139 138 136 136 135 135 0 135 134 0 0 135 135 136 136 137 0 0 0 139 138 136 0 0 136 136 137 146 0 0 
0 92 88 87 0 87 88 0 90 0 91 89 90 90 0 0 90 0 0 90 90 0 91 0 0 0 0 92 92 92 0 0 0 93 93 93 0 92 93 0 0 0 95 0 0 0 0 97 0 96 95 95 0 0 97 0 0 99 99 99 99 0 0 0 0 0 0 0 0 100 100 0 0 0 100 0 99 99 99 99 99 99 0 0 97 97 98 0 0 0 0 0 0 0 0 95 95 0 0 94 0 94 92 91 91 91 91 90 90 0 90 0 0 0 87 86 85 85 0 84 83 83 85 95 0 0 0 0 156 156 164 0 173 0 0 0 176 0 0 0 91 85 0 86 86 0 0 0 0 0 90 0 0 95 96 0 0 0 101 0 0 106 110 0 0 130 143 0 0 0 0 0 0 0 0 0 0 0 0 0 0 0 0 0 0 0 0 0 0 0 0 0 0 0 0 0 0 0 0 0 0 0 0 0 0 0 0 0 0 222 222 0 220 220 219 218 216 216 214 213 212 212 210 209 209 208 207 206 206 205 204 203 202 201 200 199 199 199 0 197 195 194 193 192 191 190 189 191 207 0 0 201 186 184 183 182 181 188 0 0 0 0 184 177 176 177 177 176 176 175 173 172 171 171 171 0 170 170 170 0 0 166 166 165 164 164 164 163 163 162 161 160 158 157 158 158 157 159 159 159 159 161 161 161 161 161 161 0 160 0 159 158 157 155 154 154 153 152 151 151 150 149 149 148 147 147 147 147 148 148 146 147 147 146 147 147 148 147 147 149 149 149 148 0 147 147 146 145 145 144 144 143 143 143 143 143 143 0 143 144 144 144 144 0 143 143 142 143 143 142 142 0 0 142 141 142 142 141 141 140 141 141 141 141 0 140 140 140 0 139 139 139 139 0 138 141 0 0 144 0 0 133 128 125 0 122 124 0 0 0 0 124 118 0 0 0 112 111 0 98 98 0 0 0 0 104 105 108 114 0 0 125 129 0 0 137 0 137 138 139 0 0 0 151 0 0 0 0 0 0 141 137 134 130 126 123 123 123 123 0 0 125 0 0 128 129 0 129 130 0 0 132 132 133 134 135 136 0 137 0 0 138 0 138 138 0 0 0 0 139 138 137 136 135 135 134 0 136 137 0 138 0 137 0 136 0 136 0 0 137 0 0 135 135 135 0 0 135 136 0 137 137 0 135 136 0 0 0 137 137 138 0 0 139 0 0 0 0 140 0 0 0 0 0 0 0 134 131 0 126 123 122 0 120 119 120 0 0 0 123 0 0 0 112 110 0 0 120 0 117 0 0 0 112 112 113 114 117 0 122 125 0 0 0 0 0 0 144 0 0 145 145 144 142 141 141 0 140 140 140 140 0 140 140 0 0 143 146 0 0 139 138 0 136 135 135 0 135 134 0 0 135 135 0 136 137 0 0 139 139 0 0 0 136 136 136 137 142 181 0 
0 0 88 87 0 0 0 89 0 0 0 91 0 0 0 0 90 91 0 91 90 90 91 91 92 92 92 92 0 0 94 94 0 94 0 0 94 0 93 94 0 95 95 0 96 96 0 97 0 0 96 96 97 0 98 99 0 0 99 99 0 0 99 0 99 98 99 0 0 0 0 0 0 0 100 0 0 0 99 99 0 99 0 98 97 0 98 98 97 97 0 97 96 95 95 95 95 94 94 94 94 0 93 92 92 0 0 0 0 0 90 0 89 88 0 0 85 0 85 84 83 83 84 90 110 0 0 0 158 159 0 0 0 0 0 0 174 0 0 0 93 85 0 0 86 87 87 87 88 88 89 91 0 0 0 97 0 99 100 0 103 105 0 0 0 128 135 172 0 0 0 0 0 0 0 0 0 0 0 0 0 0 0 0 0 0 0 0 225 224 223 222 220 220 220 219 217 217 216 215 213 212 211 209 208 207 206 206 204 203 202 201 200 201 201 199 199 199 198 196 196 194 193 192 191 190 190 188 188 189 188 187 187 186 186 184 184 183 183 181 181 180 180 179 178 177 176 182 0 0 0 188 173 173 0 172 172 184 0 0 0 0 173 165 164 165 164 163 163 162 162 161 160 161 161 161 159 159 160 160 159 158 157 156 156 156 155 156 155 155 154 153 152 151 151 151 152 153 153 153 154 155 155 155 156 155 155 0 155 154 152 152 151 150 0 148 147 147 147 146 145 145 144 144 144 0 143 143 143 143 142 143 0 143 143 144 144 145 0 146 146 146 146 146 0 145 143 143 143 142 142 142 142 141 141 141 141 0 142 0 143 0 142 0 142 0 142 142 142 0 142 142 142 141 141 0 0 141 0 141 0 141 0 140 140 140 140 0 140 0 0 0 0 0 139 139 0 0 146 142 0 133 0 127 0 124 124 0 0 0 0 0 118 0 0 113 111 0 0 99 97 98 102 0 0 106 104 108 0 0 0 127 132 0 0 0 139 140 142 144 0 149 151 0 0 0 151 0 0 142 0 0 0 0 126 124 124 124 124 124 125 126 127 128 129 0 0 131 0 132 132 133 0 0 136 0 0 0 138 0 139 139 0 139 140 0 141 0 140 139 0 0 136 0 0 0 136 0 0 0 0 138 137 137 136 136 136 0 0 137 0 0 135 0 135 136 0 137 0 138 137 0 0 137 0 0 138 138 0 137 0 0 0 139 0 0 140 140 0 0 0 0 0 0 0 134 132 129 126 124 122 121 0 0 120 0 0 123 123 0 0 0 0 112 109 115 0 120 118 116 115 0 0 0 111 0 112 115 0 121 124 0 0 137 0 0 0 144 145 0 145 0 0 142 141 0 141 140 140 0 0 0 0 141 0 141 0 145 0 0 140 138 137 136 0 135 135 135 0 135 0 134 135 0 136 137 138 139 139 0 138 138 137 136 136 136 136 141 171 0 
0 91 88 0 88 0 0 89 91 0 92 0 91 91 0 0 0 0 0 0 91 91 0 0 92 91 92 0 93 0 94 0 0 0 0 94 0 0 0 0 95 95 0 0 0 96 0 0 96 96 95 0 97 98 0 99 99 0 98 99 0 0 98 99 99 0 0 0 99 100 0 100 101 0 0 100 99 99 99 0 0 98 98 98 0 98 0 0 0 0 0 97 96 95 95 95 0 95 0 0 94 0 0 93 0 0 0 90 90 0 91 90 89 88 87 87 86 0 85 0 84 0 83 87 102 0 0 0 0 0 0 0 0 0 0 172 170 0 0 0 97 85 85 85 86 0 0 0 88 0 89 91 92 94 95 96 0 99 100 0 102 104 109 114 119 125 131 152 0 0 0 222 0 0 0 217 217 216 215 213 212 211 209 209 208 208 207 207 207 205 204 202 202 201 201 200 199 199 197 196 195 194 193 191 190 189 188 188 187 187 186 185 185 185 185 185 184 184 182 181 181 181 180 179 179 178 178 177 177 177 176 176 176 174 0 174 173 173 0 171 170 170 0 0 0 167 166 183 0 0 0 177 164 164 163 162 165 186 0 0 0 187 162 156 156 156 155 155 155 154 154 154 153 153 153 154 153 152 153 153 152 151 151 150 150 150 150 150 149 149 149 147 147 147 147 146 147 148 149 149 150 151 151 0 152 0 150 150 149 0 148 148 147 147 146 145 144 144 144 143 143 143 142 141 141 141 141 140 141 141 141 141 142 142 142 0 0 143 144 0 145 145 0 145 144 144 0 143 142 142 0 141 0 141 141 140 0 0 0 142 142 142 142 0 140 141 0 0 141 141 0 0 0 141 140 0 141 141 0 141 0 0 0 140 140 140 140 0 140 0 139 0 0 0 0 139 143 0 0 141 0 134 131 128 125 124 124 0 0 132 127 123 118 114 0 0 110 0 104 100 0 101 101 102 0 0 104 107 0 0 126 129 0 0 0 0 140 142 0 0 0 151 0 0 0 0 0 0 142 139 0 133 0 129 126 125 0 0 0 125 0 0 128 0 130 131 0 0 132 133 134 134 136 137 138 0 139 139 0 140 140 140 0 0 0 141 0 0 0 0 0 0 135 0 0 0 136 137 138 139 0 0 138 0 137 137 0 0 138 137 0 136 0 0 0 137 138 139 0 140 0 0 0 137 0 0 0 138 138 0 0 140 140 139 141 0 141 141 141 0 0 0 138 136 0 132 0 0 125 123 122 121 119 120 120 122 123 123 122 123 0 0 0 111 109 113 0 0 118 0 115 0 112 0 111 111 111 113 116 120 124 0 0 136 0 0 0 0 145 0 0 145 0 142 0 0 141 0 140 139 140 140 140 141 0 142 143 0 146 0 140 138 137 0 136 0 135 135 135 135 0 134 135 0 136 137 138 139 139 0 139 138 0 136 136 136 137 140 160 0 
0 91 88 87 88 88 89 89 0 0 0 91 0 0 0 92 0 0 91 92 0 92 0 93 0 0 0 93 0 94 0 0 95 95 0 94 0 0 95 0 95 95 95 95 96 0 96 96 96 0 96 0 98 98 99 99 99 0 0 0 99 98 99 0 0 98 98 98 98 99 0 0 0 99 100 0 0 98 99 99 99 0 98 98 98 98 97 98 98 0 0 97 0 0 96 0 0 0 95 95 95 0 94 0 0 92 0 91 90 0 0 0 0 0 88 0 0 86 85 0 0 0 83 85 94 0 0 0 0 0 0 162 163 167 0 0 169 0 0 0 101 86 85 85 85 0 0 0 88 0 0 91 92 0 0 0 0 0 99 0 0 0 107 112 0 0 128 141 0 0 0 202 201 199 199 199 198 197 197 195 195 194 193 192 192 0 192 191 190 188 187 186 185 185 185 184 183 182 181 181 180 0 179 178 177 177 176 175 174 175 175 175 175 174 0 0 174 173 171 171 170 170 169 169 169 167 169 169 0 0 167 167 166 165 165 164 164 163 163 162 161 161 160 159 159 159 162 188 0 0 0 163 157 157 156 156 164 0 0 0 0 178 154 150 150 150 149 149 149 148 149 149 149 149 149 148 0 148 148 148 148 147 146 146 146 146 0 146 145 145 145 144 144 144 0 144 145 146 146 146 0 147 148 148 149 0 148 0 147 0 146 146 145 0 144 144 143 143 143 143 0 142 0 140 0 141 0 140 0 0 0 141 141 0 141 0 142 142 0 0 0 144 0 144 0 143 0 0 142 0 0 141 140 0 0 141 0 141 141 141 0 141 0 0 0 140 0 0 140 0 0 141 141 0 140 140 140 0 140 140 0 140 140 0 0 0 0 140 0 139 0 139 139 139 0 0 140 0 0 144 138 0 0 0 0 0 125 0 0 131 0 0 116 112 112 111 108 108 108 105 103 104 0 106 108 0 106 106 0 0 127 132 0 0 0 0 142 144 0 0 0 151 0 0 0 0 142 140 138 0 134 132 0 129 127 0 125 0 125 126 0 0 130 0 130 132 133 133 134 135 0 0 137 0 0 0 140 0 141 0 141 141 0 140 141 141 0 140 139 0 136 0 134 0 134 135 136 137 0 0 140 0 0 0 138 0 138 138 138 0 136 135 136 136 137 0 140 0 0 0 0 140 138 137 0 139 0 139 139 0 140 0 0 141 0 0 0 0 0 0 0 138 136 134 0 0 128 126 0 123 122 0 120 121 0 0 123 0 0 0 0 0 116 112 110 111 0 0 118 0 115 113 111 111 0 110 110 0 115 119 124 0 0 134 136 0 0 143 145 0 0 144 0 142 0 0 0 140 139 0 139 0 140 141 0 142 143 0 0 0 142 138 136 136 0 135 135 135 0 0 0 134 135 0 136 0 0 0 0 0 0 137 137 0 136 136 136 138 153 0 
0 91 88 87 0 0 0 89 0 91 91 91 92 92 91 91 0 92 92 0 0 92 0 0 93 0 93 93 0 0 0 0 0 0 0 0 0 0 94 95 95 0 95 95 0 0 0 96 0 0 97 0 0 99 99 0 99 100 0 99 98 98 0 99 0 0 97 97 98 99 100 0 100 0 100 100 99 99 0 0 99 99 0 98 98 0 0 0 97 98 0 97 97 0 95 0 96 95 95 95 0 0 94 0 0 0 0 91 0 0 90 0 90 0 88 0 87 86 85 84 84 84 84 84 90 114 0 0 0 0 0 159 159 163 165 164 164 0 0 0 102 86 85 0 86 0 86 87 87 88 0 91 0 93 93 95 96 0 99 100 101 103 105 110 115 0 123 133 161 0 0 187 186 185 184 183 181 181 180 180 180 179 180 179 179 179 178 177 177 176 175 174 173 172 172 172 0 171 170 170 169 169 167 166 166 165 165 165 165 164 165 166 166 165 164 165 164 163 163 162 162 161 161 160 160 0 161 161 161 160 0 159 159 0 158 157 157 156 156 155 154 155 154 154 153 152 161 0 0 0 183 155 151 151 152 152 167 0 0 0 0 169 149 146 146 146 145 145 145 145 144 145 145 145 145 145 0 144 144 145 145 144 144 144 144 143 143 143 144 0 143 142 142 142 0 0 144 0 145 145 146 0 0 0 146 146 145 146 145 145 145 0 0 144 144 0 143 143 143 143 0 142 0 141 141 141 141 0 0 140 0 0 0 0 140 0 141 0 0 0 142 0 0 143 142 142 0 0 0 141 0 140 140 140 140 140 0 140 140 0 0 140 140 140 0 139 139 0 0 140 0 0 140 140 140 0 0 0 0 139 139 0 139 139 139 139 0 139 139 139 0 138 138 139 139 139 139 145 0 0 138 137 0 130 128 0 126 0 0 132 0 0 114 112 0 111 115 0 0 0 112 105 106 0 0 0 0 107 0 0 127 0 0 0 143 144 0 0 0 150 0 0 0 0 143 139 137 135 134 134 132 0 131 0 127 126 126 126 126 127 0 0 131 0 0 133 134 0 0 0 0 138 139 140 0 141 0 0 0 143 0 143 143 143 0 0 0 140 0 136 135 133 131 131 132 0 0 137 0 0 139 0 0 0 138 138 138 138 138 0 136 0 136 137 138 0 0 0 0 142 0 140 139 0 0 140 0 0 0 140 0 0 0 142 143 143 0 142 0 139 137 136 0 0 0 0 126 0 123 122 0 0 121 122 0 0 124 124 124 0 121 0 116 112 111 111 0 0 118 116 0 113 0 111 0 110 110 111 114 117 123 0 0 132 134 137 0 0 0 0 0 145 0 142 141 142 0 140 139 0 139 0 0 0 141 142 142 144 0 0 0 139 136 0 0 136 0 135 134 134 134 134 0 135 136 0 0 139 140 0 139 0 138 0 136 0 135 138 147 0 
0 89 88 88 88 88 89 89 0 90 91 0 0 92 92 92 0 0 0 0 91 91 92 92 0 93 93 93 93 94 94 94 94 94 0 0 0 94 0 0 0 0 95 95 95 95 95 96 0 0 0 97 0 0 0 0 100 0 0 0 0 0 100 100 100 99 98 99 0 0 0 0 99 100 0 100 99 0 99 0 0 0 98 98 98 98 98 98 0 0 98 0 97 0 96 96 96 96 0 0 0 0 94 0 93 0 91 91 0 90 90 90 0 0 88 87 0 86 85 0 0 85 0 83 87 104 0 0 0 0 0 162 163 0 0 164 163 0 0 0 108 87 85 0 85 0 0 0 87 88 0 0 0 92 0 94 95 0 98 0 100 101 104 108 112 116 120 126 152 0 0 177 175 0 174 173 172 171 170 170 0 169 169 167 167 166 166 166 165 165 164 163 162 161 161 160 161 161 161 160 159 159 159 158 158 157 157 157 157 157 158 158 158 159 159 158 157 157 157 0 156 155 155 155 155 0 156 155 155 154 155 154 153 152 152 152 151 151 151 151 0 150 149 0 149 149 165 0 0 0 171 149 148 147 148 152 175 0 0 0 0 159 145 143 0 143 142 0 143 0 142 142 142 143 143 143 0 143 143 143 143 143 143 143 0 142 0 0 143 0 142 142 142 0 143 143 143 144 0 0 145 145 145 145 145 145 0 0 145 0 144 144 144 144 0 143 0 0 0 0 0 141 0 0 0 0 0 0 0 0 140 140 140 0 139 0 140 0 0 0 140 141 0 0 141 0 0 140 140 139 0 0 0 0 0 139 139 0 139 138 139 139 138 139 139 139 139 139 139 139 139 139 0 0 139 0 139 139 139 139 138 139 139 138 139 139 139 0 0 139 139 139 139 139 139 139 139 141 152 0 146 138 0 131 127 126 125 131 0 133 0 120 114 111 110 0 0 0 0 0 0 109 105 109 0 0 0 109 0 123 0 0 0 0 0 0 0 0 149 149 0 0 0 141 136 134 0 131 131 0 0 0 131 129 127 126 126 0 127 0 0 130 131 0 134 135 0 0 0 138 0 139 0 141 0 142 142 142 143 0 0 0 0 0 0 0 0 0 0 0 0 0 128 128 129 132 0 137 0 0 138 138 0 137 137 0 0 0 138 0 136 135 136 0 0 140 0 0 143 0 0 141 139 139 140 0 0 0 0 141 142 143 0 0 0 143 0 0 0 137 0 134 0 130 128 126 125 0 123 122 121 0 121 0 0 124 0 0 124 0 121 0 116 114 0 111 113 0 0 0 0 113 111 0 110 110 110 111 112 115 121 0 0 132 133 135 138 0 0 0 0 0 0 0 0 141 0 141 140 139 0 140 140 140 0 0 142 0 146 0 0 140 138 0 137 0 136 135 0 134 0 133 133 135 0 137 0 0 0 140 140 0 0 0 136 136 136 136 144 0 
0 90 88 0 88 89 0 0 0 91 91 91 92 0 92 0 0 90 91 90 90 0 0 92 92 92 0 0 93 0 94 94 0 94 94 94 94 94 94 94 93 94 0 0 0 94 94 0 96 0 96 0 0 0 99 99 100 0 0 0 100 0 0 0 0 0 100 0 0 101 101 0 100 100 0 100 100 0 0 0 99 0 98 98 98 98 0 0 98 0 98 0 97 0 96 0 0 0 96 96 96 0 95 0 93 92 0 91 91 90 90 90 90 88 88 0 0 0 86 85 0 0 0 84 85 96 0 0 0 160 0 0 0 0 0 0 163 0 0 0 114 88 85 85 85 86 86 87 0 88 89 90 90 91 92 93 0 95 97 0 0 102 104 107 110 114 118 123 143 0 0 166 164 165 164 164 162 162 161 161 160 160 159 159 159 158 157 157 155 155 155 155 154 153 153 152 152 153 153 152 152 152 152 152 152 151 152 152 152 0 153 153 153 154 154 153 153 153 152 151 151 150 150 151 151 151 151 151 150 151 151 0 0 148 0 0 0 147 147 147 147 147 0 146 146 148 174 0 0 0 160 145 145 145 145 153 0 0 0 0 0 152 142 142 0 142 141 141 141 141 141 0 142 142 0 0 0 0 0 142 142 142 142 142 142 142 142 0 142 142 141 0 142 142 0 143 143 143 0 144 144 145 145 0 0 0 144 0 0 0 0 144 144 0 0 142 142 0 0 142 0 141 140 140 140 0 139 139 0 0 139 0 139 139 0 138 139 139 139 139 139 139 0 0 0 138 139 139 0 138 138 0 0 138 138 138 138 138 138 137 138 138 138 138 138 139 139 138 138 139 139 139 140 140 140 139 140 140 140 140 140 140 139 139 140 140 140 141 141 141 141 142 142 141 142 143 143 143 148 0 0 141 0 131 128 0 126 129 0 133 126 119 113 108 111 0 120 0 120 0 0 112 107 107 0 0 0 111 0 0 0 0 0 0 0 0 0 0 147 0 0 143 139 0 132 129 128 127 128 0 0 0 0 130 0 126 126 127 129 130 131 132 132 0 0 0 137 0 139 139 0 0 141 142 0 0 0 0 0 0 0 0 0 0 0 0 139 136 135 0 0 128 126 126 127 130 133 0 138 0 0 137 0 136 136 0 0 0 137 0 134 135 136 137 0 0 142 143 0 0 0 141 140 140 141 0 0 0 141 142 143 144 0 0 0 0 0 0 136 0 0 0 129 128 0 125 124 124 123 122 121 121 121 0 0 124 124 0 124 0 121 119 0 0 0 112 111 0 0 118 0 112 111 110 110 109 0 110 111 114 119 0 0 132 132 133 135 0 0 0 0 145 0 142 141 0 0 0 0 140 140 0 139 140 0 141 142 0 145 0 0 141 138 137 136 0 0 135 134 134 0 0 134 135 0 136 137 138 139 0 140 0 0 137 136 0 0 136 141 0 
0 90 88 0 89 0 0 0 90 0 0 0 91 0 92 92 0 91 91 0 91 91 91 0 92 0 93 93 93 0 94 94 94 94 0 93 94 94 0 95 95 0 94 0 94 94 0 0 0 94 94 96 0 97 97 98 0 100 100 0 100 0 0 0 0 0 0 0 101 0 101 100 0 100 0 0 0 100 99 99 99 99 98 98 98 98 98 96 98 0 98 97 0 0 96 0 0 96 96 96 0 0 95 94 93 92 92 92 0 91 90 0 0 90 89 0 88 87 0 86 0 85 84 84 84 91 0 0 0 159 0 163 0 0 0 162 159 165 0 0 120 88 85 85 0 86 86 87 0 0 89 0 0 91 92 93 0 95 97 0 0 0 103 0 0 111 116 123 137 0 0 158 157 157 157 156 155 155 154 154 153 153 153 153 153 152 150 150 150 149 149 148 147 147 148 0 147 147 147 147 146 147 147 148 148 148 0 148 148 149 149 0 149 150 150 150 0 149 149 0 0 147 0 147 148 148 0 148 0 0 148 0 147 146 146 145 144 144 0 144 144 144 144 144 144 150 183 0 0 0 152 143 0 143 145 158 0 0 0 0 174 147 141 141 141 140 0 140 140 0 141 0 0 141 0 142 142 141 0 0 0 141 0 0 0 0 142 142 0 0 141 141 0 0 0 0 0 143 143 0 0 0 0 144 144 144 0 0 0 143 0 0 0 0 142 0 0 0 141 141 0 0 139 139 139 0 138 138 139 139 138 0 138 138 0 138 138 138 138 138 0 138 138 138 138 138 138 138 138 138 138 137 138 138 138 0 138 138 138 138 138 139 139 139 139 140 141 141 141 142 143 143 143 143 143 142 142 142 143 143 142 142 141 143 143 144 145 145 144 145 145 145 147 0 148 0 149 149 151 0 0 147 138 131 128 126 125 127 0 0 126 118 113 108 0 0 0 0 111 0 0 0 108 106 0 0 0 115 0 122 0 0 130 133 136 0 0 0 145 0 142 0 0 0 126 125 124 123 125 0 0 0 0 130 128 126 127 0 0 0 0 0 135 136 137 0 0 0 0 0 139 0 0 0 0 142 142 0 143 0 0 0 0 0 0 0 137 135 133 0 128 125 125 126 128 0 134 0 137 137 136 136 0 135 135 0 138 138 138 0 135 0 136 138 0 141 142 0 0 144 143 142 141 141 142 0 143 0 143 0 0 0 0 142 139 139 137 0 133 0 129 128 126 126 0 125 0 0 0 121 121 120 0 0 123 124 0 0 0 0 0 119 0 116 114 112 111 0 0 0 116 113 111 110 110 0 0 109 0 113 115 0 0 133 132 132 132 135 139 0 0 0 143 141 141 140 0 141 141 0 0 140 139 140 140 141 142 0 145 0 0 0 138 136 136 135 0 0 133 134 134 134 134 0 135 135 0 137 139 0 0 139 0 0 136 0 136 136 140 0 
0 89 88 0 0 89 0 89 90 0 0 90 91 0 0 91 0 0 91 0 91 0 91 0 92 92 0 93 93 0 94 0 93 0 0 94 94 0 95 0 0 96 95 95 0 94 0 95 95 94 94 0 96 96 97 0 0 0 99 99 99 100 101 0 101 100 99 100 101 0 0 100 100 0 0 101 0 0 0 0 0 0 98 98 98 98 0 0 98 98 98 0 98 98 0 96 96 96 0 96 0 0 95 94 93 0 0 0 0 0 91 0 0 0 89 88 88 0 86 86 0 84 84 0 83 87 107 0 0 0 0 162 163 165 0 161 158 163 0 0 123 90 85 85 0 0 0 0 0 88 0 0 0 0 0 94 0 95 96 0 0 101 103 105 107 109 114 122 133 0 0 152 150 151 150 150 150 150 149 0 148 148 149 148 148 148 146 146 146 146 145 144 144 143 144 144 143 144 143 144 144 144 144 145 145 145 146 146 146 146 0 147 147 0 147 147 147 147 0 0 146 146 0 145 145 0 145 145 0 145 144 145 0 144 144 0 143 143 0 143 0 0 0 142 143 154 0 0 0 176 146 143 0 143 146 166 0 0 0 0 164 144 141 0 0 0 0 140 139 140 0 141 0 0 0 0 141 141 0 0 141 141 141 141 141 0 0 0 141 141 141 0 0 141 141 141 0 142 0 0 144 144 0 0 0 143 0 0 0 0 142 0 0 0 0 140 141 0 0 140 139 139 139 0 138 138 138 138 0 138 138 138 138 138 0 138 138 138 138 138 139 138 139 140 140 140 139 139 139 139 138 138 139 139 139 0 140 140 140 0 141 141 141 143 144 145 147 0 150 0 0 0 0 0 0 149 147 147 0 147 146 147 148 0 0 0 0 0 151 151 151 151 152 0 155 0 156 0 158 160 0 0 139 131 128 126 124 126 0 0 127 120 0 109 0 0 0 0 110 112 0 0 108 106 0 0 0 115 117 121 0 0 126 128 129 134 0 0 141 0 0 134 0 126 122 0 121 120 122 0 0 0 0 0 129 128 0 129 131 0 134 0 0 0 138 0 140 0 0 140 140 0 141 141 141 0 0 0 141 0 0 0 141 140 139 137 135 0 131 129 126 125 0 126 0 131 134 0 0 137 0 135 134 133 135 137 0 139 0 0 135 0 136 138 140 0 0 144 0 0 0 142 142 141 143 0 0 144 144 0 0 0 141 0 0 0 0 0 0 0 127 126 0 125 0 124 124 123 122 0 121 121 0 123 123 0 124 0 123 121 120 119 118 0 114 113 114 116 0 0 0 113 0 0 110 109 109 109 109 111 115 0 0 0 131 131 131 132 136 139 0 0 0 0 0 140 141 141 0 140 0 0 0 0 140 140 142 0 145 0 0 143 139 137 0 136 135 0 134 0 134 134 134 0 135 135 136 137 139 140 0 0 138 0 0 0 136 136 139 0 
0 89 88 0 0 89 89 88 0 89 89 90 0 91 91 0 92 0 91 91 90 91 91 91 92 92 0 0 93 0 94 94 0 93 93 0 0 0 95 0 0 0 0 0 0 94 95 95 0 0 94 0 0 96 97 97 98 98 99 99 0 99 0 0 0 0 99 100 101 0 0 100 99 0 0 100 0 100 99 99 99 99 99 0 0 0 0 0 98 98 98 98 98 0 98 97 96 96 96 95 0 0 0 0 93 93 0 93 92 92 92 92 91 91 90 0 0 88 0 86 0 85 0 0 83 85 97 0 0 0 0 0 0 0 0 159 157 162 0 0 0 92 85 85 0 0 0 0 87 87 88 89 90 0 0 0 0 0 96 0 99 100 0 104 104 0 111 118 128 0 0 151 147 147 147 147 0 147 146 146 145 0 146 145 145 145 0 144 144 0 143 142 0 142 142 142 142 142 142 142 143 143 143 143 0 0 144 144 0 144 0 144 145 145 145 0 145 144 145 144 144 144 0 143 143 0 143 0 0 143 0 143 142 142 0 0 0 0 141 0 141 0 0 142 142 162 0 0 0 164 143 142 0 141 149 175 0 0 0 0 155 141 140 140 140 0 140 139 139 139 0 140 140 140 0 0 140 140 0 0 140 140 0 140 140 140 0 0 140 0 0 140 140 139 140 140 0 141 0 0 0 0 142 142 142 0 141 140 0 140 140 140 140 139 140 140 140 140 139 139 139 139 139 138 138 137 138 138 138 138 139 0 0 140 140 140 140 140 141 142 144 146 147 148 148 146 144 143 142 140 140 0 141 141 141 142 142 0 143 143 144 145 147 0 150 0 0 0 0 0 0 157 0 0 0 156 155 154 153 152 153 0 154 0 155 0 156 0 0 157 0 158 159 0 0 162 0 0 0 166 0 0 146 132 127 125 125 127 0 0 129 121 115 109 112 0 0 0 108 107 0 0 106 106 0 0 0 115 117 0 124 0 124 124 122 126 0 0 138 0 0 129 0 123 120 118 118 118 120 125 0 132 0 0 0 129 129 130 132 0 134 136 138 0 139 139 0 0 0 141 141 0 140 0 0 140 0 0 0 0 0 0 0 0 137 0 134 132 130 128 126 124 125 127 0 132 135 137 0 0 136 0 0 134 136 0 0 0 138 136 135 0 136 138 0 141 143 0 0 144 142 142 0 143 143 0 0 143 0 0 0 0 138 135 135 0 0 129 127 125 125 124 0 124 124 0 124 123 122 0 0 122 0 124 0 0 0 0 0 120 119 119 0 0 116 115 114 115 0 0 117 113 112 111 110 109 108 0 109 110 115 0 0 132 131 0 131 0 132 136 0 0 0 143 0 0 141 0 0 140 0 0 140 140 0 141 142 0 144 0 0 0 140 138 137 0 0 135 0 134 134 0 0 0 134 135 136 137 0 0 140 140 139 0 0 137 136 136 138 0 
0 89 88 88 0 0 0 89 89 0 0 0 0 0 91 0 92 0 0 91 91 91 0 0 0 91 91 92 93 94 0 94 0 93 93 93 0 0 95 95 0 0 96 95 95 95 0 96 0 95 94 95 95 0 97 97 98 98 99 0 0 0 100 100 0 100 100 100 0 0 0 0 100 100 0 98 0 99 0 0 0 99 0 0 98 99 0 0 0 98 98 98 0 0 0 97 96 0 96 96 95 95 94 0 93 93 0 0 93 92 92 0 0 90 0 0 88 88 0 87 86 85 84 84 83 84 91 117 0 0 0 159 0 0 0 157 156 161 0 0 0 93 86 85 85 86 87 0 87 87 88 89 89 91 92 92 0 95 96 0 98 0 0 0 0 106 107 113 124 0 0 0 145 145 145 145 145 144 0 0 145 0 144 144 143 143 143 143 142 142 142 142 0 141 141 141 141 141 141 141 0 0 142 141 0 142 142 0 0 0 0 0 0 143 143 143 143 0 0 0 142 142 142 142 0 142 0 142 0 141 0 0 0 140 0 140 0 140 0 0 140 0 0 140 143 172 0 0 0 154 140 140 140 140 153 0 0 0 0 0 148 139 0 139 0 0 139 0 138 0 139 139 139 139 0 0 139 0 140 140 139 139 139 139 139 139 0 139 139 0 140 140 139 0 0 140 139 0 141 141 0 0 141 140 140 140 140 139 139 138 138 0 138 138 139 140 0 0 138 139 139 0 139 139 0 138 0 138 139 140 141 141 142 142 143 0 0 144 146 149 153 157 159 161 162 160 155 150 147 144 143 143 143 0 0 0 145 145 146 146 148 150 0 0 0 0 0 0 0 0 0 0 0 0 0 0 0 0 159 0 0 0 0 160 159 160 0 161 0 0 0 0 0 0 167 0 0 0 0 173 0 0 156 135 127 124 124 128 132 0 0 122 116 110 110 0 0 0 109 109 0 0 105 108 0 0 0 113 116 0 124 0 125 122 119 118 0 0 135 0 0 126 123 120 0 0 116 116 118 122 0 0 0 131 129 129 0 132 0 0 0 137 0 0 139 0 0 0 0 0 0 0 0 0 139 138 0 0 0 0 126 128 0 0 0 0 0 131 129 128 126 125 126 127 130 133 0 0 138 0 0 135 0 136 137 0 140 139 0 136 134 135 136 0 0 142 143 0 0 0 143 143 0 0 144 0 0 0 142 0 140 0 0 133 132 0 129 126 124 0 123 122 123 124 0 0 0 123 122 122 122 123 124 0 0 124 0 0 122 120 119 0 0 0 0 0 0 116 117 0 0 115 0 112 0 109 0 109 109 109 113 0 0 0 130 0 130 0 131 134 138 0 0 143 0 0 141 141 140 140 140 0 140 0 141 0 142 143 145 0 0 0 142 138 137 136 0 135 0 0 134 134 0 0 134 0 0 137 0 0 0 140 0 0 137 137 0 136 138 0 
0 88 86 0 0 88 88 0 0 0 90 89 90 90 90 0 0 92 91 92 0 0 0 92 0 91 91 91 92 0 0 94 93 0 93 0 0 94 0 95 0 96 0 95 0 0 0 0 0 95 0 95 0 0 0 97 0 0 0 0 99 0 100 100 100 0 100 99 100 100 100 0 100 100 99 98 98 99 99 99 0 0 97 97 97 0 0 99 98 0 0 0 0 0 98 97 96 0 0 0 96 0 94 93 93 0 94 94 0 93 93 0 92 91 0 89 89 0 0 87 0 0 0 0 0 84 87 106 0 0 0 150 156 0 0 156 156 160 0 0 0 96 85 0 0 86 86 87 87 0 88 0 0 0 0 92 93 0 0 0 0 99 0 102 102 104 107 111 120 0 0 0 145 143 143 143 143 143 0 0 0 0 0 0 0 142 0 0 0 141 0 0 141 0 140 140 140 0 0 140 140 0 0 0 140 140 141 141 140 141 141 0 0 141 0 141 0 141 141 141 140 140 140 0 0 140 140 0 140 140 140 0 139 139 138 138 0 138 138 138 138 0 139 139 147 183 0 0 0 147 139 0 139 141 161 0 0 0 0 170 143 138 0 138 138 139 139 0 138 138 0 139 139 139 139 139 139 0 140 140 139 139 139 139 138 139 138 138 138 139 140 140 140 140 140 139 140 0 140 140 140 140 140 139 139 139 0 0 138 138 138 138 138 138 0 0 0 140 140 140 140 0 140 140 140 140 0 141 0 0 143 144 145 146 146 147 149 0 154 160 0 0 0 0 0 0 0 163 156 149 147 146 146 147 147 148 148 149 150 151 153 156 0 0 0 0 0 166 166 166 167 167 167 0 0 0 0 0 164 164 0 165 0 165 165 165 166 166 0 167 0 0 169 0 0 0 0 0 0 178 179 0 0 144 129 124 126 128 130 0 0 124 118 0 108 109 0 0 0 0 0 106 104 113 0 0 0 111 115 0 122 0 0 122 118 114 121 0 0 130 0 125 0 119 117 116 114 114 0 120 0 0 0 0 130 0 0 133 0 0 136 138 0 0 140 0 141 140 140 140 140 140 0 0 0 0 0 130 0 123 119 119 125 0 0 133 131 0 129 128 0 0 126 128 130 134 0 0 138 0 0 135 136 137 139 0 140 0 138 136 135 135 138 0 0 142 143 0 0 144 144 0 144 0 0 0 0 0 0 0 0 134 132 130 129 0 0 0 122 122 122 0 0 124 125 125 0 0 122 122 123 0 0 124 124 124 0 0 121 120 120 120 0 118 118 0 0 116 117 0 0 116 0 0 111 109 109 109 0 111 115 123 0 130 128 128 0 0 130 132 136 0 0 141 0 142 141 0 0 140 141 0 141 0 141 0 142 143 0 146 0 0 143 139 136 136 0 0 135 134 134 134 0 0 134 0 135 136 137 139 140 0 0 0 0 137 0 137 138 0 
0 87 86 87 88 0 88 88 89 89 0 90 90 90 0 0 0 92 92 0 0 0 92 92 91 91 0 0 0 0 0 94 94 0 94 0 95 95 0 0 95 0 0 95 0 96 96 96 95 95 95 95 0 97 0 0 0 99 99 99 98 99 99 100 100 100 100 0 100 100 101 101 101 0 100 99 0 0 99 99 99 0 98 0 97 0 0 0 98 97 97 97 98 0 97 0 96 96 96 97 97 0 95 94 94 0 94 94 0 94 0 93 0 0 0 90 89 88 0 87 87 0 86 85 0 84 86 100 0 0 0 146 151 0 155 153 154 158 0 0 0 97 86 85 0 0 0 87 0 0 0 0 0 90 91 92 93 94 95 96 97 99 100 101 101 0 106 109 115 129 0 0 144 142 0 142 142 0 0 0 142 142 142 142 0 0 141 0 140 0 0 0 0 139 139 0 0 0 0 139 138 0 140 0 0 0 0 0 139 139 139 0 0 140 0 0 0 139 0 0 139 0 139 139 0 139 139 139 139 139 138 138 138 138 138 138 138 138 138 0 138 138 139 139 153 0 0 0 172 142 139 139 140 146 171 0 0 0 0 160 141 139 0 140 139 139 139 140 139 139 139 139 139 139 0 0 140 140 0 0 140 140 140 0 139 0 139 0 0 140 0 141 141 0 140 0 141 141 141 140 140 140 0 139 138 138 138 136 137 138 138 0 139 139 0 141 141 142 142 142 143 143 143 142 142 142 0 142 144 145 146 0 150 151 152 153 154 159 164 0 0 0 0 0 0 0 0 0 0 159 152 150 150 151 152 154 155 155 156 158 160 0 0 164 165 166 0 0 0 170 0 0 0 0 174 174 0 0 0 167 169 170 0 0 0 0 0 0 171 0 172 0 173 0 175 0 0 0 0 0 183 0 0 158 136 127 127 0 129 0 0 126 119 0 0 109 108 108 107 106 104 104 108 0 0 0 0 109 116 0 123 0 0 122 119 116 116 0 0 126 125 123 121 118 116 115 0 113 114 117 0 0 0 130 130 0 133 134 0 136 137 0 139 139 140 0 0 0 139 139 0 0 137 0 133 131 128 124 121 118 115 116 120 0 0 0 130 0 129 128 0 0 127 0 131 134 0 139 138 137 137 0 136 138 0 0 141 0 137 136 136 136 139 0 0 0 143 0 0 0 0 0 0 142 0 141 0 0 137 135 0 0 128 127 0 0 124 122 0 121 121 123 0 0 0 0 124 0 121 122 0 0 0 124 0 124 0 0 120 120 0 120 0 118 118 118 118 117 117 0 0 116 113 112 111 0 0 108 109 113 119 0 0 128 126 125 126 0 0 131 134 138 0 142 0 0 0 0 141 0 0 0 141 140 140 141 142 0 144 145 0 0 0 140 137 0 136 135 0 0 0 0 134 134 134 0 135 136 137 139 140 0 140 138 137 136 0 136 138 0 
0 87 86 87 88 88 0 0 89 89 0 0 0 0 90 91 0 92 92 0 93 0 92 0 0 92 0 93 0 0 0 0 94 0 94 0 0 0 0 94 94 95 95 95 95 96 0 96 95 95 95 95 96 96 96 97 98 0 99 99 0 0 0 0 0 100 100 100 0 0 0 0 0 0 0 99 0 0 0 0 99 0 98 98 98 0 98 98 0 0 97 97 98 0 98 0 0 96 96 0 0 0 96 95 0 94 94 0 0 0 0 0 0 92 91 0 0 89 0 88 87 0 87 86 85 84 84 94 0 0 147 145 150 0 152 150 151 157 0 0 0 100 85 84 86 86 87 87 0 87 88 89 90 0 91 92 92 0 0 96 97 99 0 101 102 103 0 108 111 124 0 0 143 141 0 140 0 141 0 0 140 0 0 140 140 0 0 139 139 0 139 139 139 138 0 139 139 0 138 138 0 0 0 137 138 138 138 138 138 0 138 138 138 138 138 138 138 138 139 139 138 138 139 139 140 139 139 139 139 139 139 138 138 138 138 138 138 0 138 138 137 138 138 141 163 0 0 0 161 140 140 140 141 152 0 0 0 0 0 154 141 141 141 142 142 142 143 144 143 142 142 141 140 139 140 140 140 141 141 141 141 141 141 141 0 141 141 141 141 141 142 142 142 142 142 142 142 142 142 0 141 0 140 139 138 138 0 138 138 139 139 140 140 140 141 143 144 0 0 146 146 146 0 145 145 145 145 146 0 149 151 0 0 157 158 0 162 166 0 0 0 0 0 0 0 0 0 0 0 169 159 157 157 158 160 163 166 167 167 169 170 169 167 0 169 0 0 172 172 173 0 176 177 0 0 0 0 176 174 174 174 0 0 0 0 0 0 0 0 0 175 0 0 0 177 0 0 0 183 0 187 0 0 0 148 133 126 0 0 128 0 128 122 119 0 0 113 110 109 108 104 108 0 0 0 0 0 109 117 0 125 0 0 123 121 118 115 0 0 124 121 0 0 0 0 114 113 112 113 115 0 0 0 129 129 132 0 135 0 137 137 0 0 0 0 0 139 138 0 0 0 0 134 0 0 0 123 120 117 115 114 114 117 0 0 0 0 129 0 0 127 126 126 129 132 135 0 0 0 138 0 137 137 0 0 0 0 139 138 137 136 137 139 0 0 145 144 0 0 0 0 0 0 140 0 139 0 0 133 131 130 128 126 125 124 0 122 121 121 121 122 0 125 126 0 0 123 0 121 123 0 124 124 0 0 124 0 0 120 0 0 0 0 118 118 118 0 0 0 118 0 0 114 113 0 0 110 109 110 117 122 126 0 128 125 124 124 125 0 130 0 136 0 142 0 142 0 141 140 141 141 141 141 0 141 141 142 0 143 145 0 0 0 140 138 137 136 135 135 134 134 134 133 133 134 135 0 136 0 0 0 0 0 0 0 0 136 136 137 0 
0 0 0 88 0 88 89 89 0 89 0 89 89 89 90 91 0 92 92 92 0 92 92 91 92 0 0 93 94 94 94 94 93 94 94 94 0 94 94 95 0 0 0 0 0 0 0 0 95 95 95 95 0 0 96 97 98 0 99 99 0 99 99 99 0 100 0 0 100 0 0 101 101 0 0 100 100 99 99 99 98 0 0 98 98 0 0 0 0 98 97 0 0 0 98 98 98 97 97 0 0 97 96 95 95 0 94 94 94 94 94 93 93 92 91 91 90 89 89 0 89 0 0 0 0 84 84 90 114 0 0 0 0 0 0 149 150 154 0 0 0 104 86 85 0 0 0 87 87 87 0 88 90 91 0 0 92 0 95 96 0 0 0 0 0 103 105 107 109 117 0 0 142 139 139 138 0 139 139 138 0 138 0 0 137 0 0 137 137 137 137 0 138 138 138 138 138 138 138 138 138 139 138 138 138 138 138 137 136 137 137 137 137 137 137 138 139 138 139 139 139 139 141 142 143 144 144 145 145 144 143 142 141 140 140 139 140 0 139 0 138 0 140 145 177 0 0 0 153 141 141 143 145 162 0 0 0 0 0 150 143 143 144 146 0 0 0 0 150 0 147 144 143 142 142 142 142 142 142 142 142 142 142 0 144 143 143 0 0 143 0 0 143 143 0 143 143 0 143 0 142 0 0 0 138 138 0 138 0 0 141 0 0 143 144 0 147 148 149 0 150 0 0 0 150 149 148 149 151 152 0 0 0 162 0 0 0 0 0 0 0 191 0 0 0 0 188 0 0 0 166 163 165 0 174 0 0 0 0 0 0 177 174 173 172 0 0 174 0 176 0 0 0 0 0 0 181 0 179 0 0 0 0 0 0 0 0 0 0 0 177 177 177 0 179 0 0 183 0 187 190 0 0 0 166 143 128 128 0 123 0 0 126 121 119 0 0 0 0 0 113 110 0 0 0 0 0 110 119 0 126 127 0 0 123 0 117 119 0 123 120 0 0 117 115 113 0 112 111 113 116 0 0 127 0 0 0 135 136 0 0 139 0 0 0 138 137 0 136 0 0 0 131 128 125 123 120 118 115 114 112 113 117 124 0 130 0 129 128 127 126 126 127 129 132 0 0 0 0 139 0 138 0 141 0 143 0 140 139 0 139 139 0 0 0 146 146 0 0 143 0 140 138 137 0 0 134 132 0 129 0 126 124 0 122 122 121 0 0 122 123 0 125 0 0 124 123 0 122 0 0 123 123 0 0 124 0 121 119 120 119 118 118 117 118 119 0 0 0 117 118 0 116 114 112 110 110 112 117 0 0 127 0 0 125 123 123 123 125 0 0 0 0 0 0 142 141 141 140 141 0 0 141 141 0 0 142 0 143 145 147 0 145 140 138 0 0 136 135 134 0 134 134 0 0 135 0 136 137 138 140 0 0 0 139 0 136 136 137 138 
88 0 0 88 89 0 0 0 0 0 89 89 89 0 0 0 0 92 0 0 0 92 0 0 92 93 0 93 0 0 0 0 0 94 0 94 94 0 0 0 0 95 95 0 0 0 0 96 0 0 96 0 0 97 96 0 0 0 99 99 99 0 0 0 0 100 99 99 100 101 100 100 100 100 100 0 0 0 0 0 99 0 0 97 98 0 0 98 98 98 0 0 97 97 98 0 0 0 0 0 97 96 0 0 95 0 0 94 93 94 0 94 0 93 92 0 0 89 89 89 0 0 88 0 85 0 85 88 107 0 0 0 0 0 0 150 151 154 0 0 0 105 86 85 86 86 86 0 87 87 88 0 0 91 0 0 0 93 0 0 0 98 100 0 0 103 104 0 108 114 0 0 0 138 137 0 0 0 0 0 0 135 0 135 135 135 135 135 135 135 0 137 137 138 138 139 139 138 139 139 139 140 140 139 140 140 140 140 139 139 139 140 139 140 140 140 142 142 142 142 144 145 147 149 0 0 0 0 0 152 151 150 149 147 144 142 143 142 142 141 0 141 142 151 0 0 0 0 149 144 145 147 151 173 0 0 0 0 171 150 148 148 150 0 0 0 0 0 0 155 153 0 0 147 146 146 146 146 145 145 145 146 0 147 147 0 147 147 146 147 146 145 145 145 146 146 145 0 145 0 143 142 141 139 139 139 139 140 141 142 143 144 145 146 147 149 0 152 153 154 0 0 155 0 0 0 153 153 0 156 0 0 0 0 0 0 171 179 0 0 0 0 0 191 0 190 190 0 0 0 174 172 0 0 0 0 0 0 0 0 0 0 182 179 175 175 175 0 0 178 0 0 0 183 0 0 0 183 182 183 0 182 181 180 180 180 180 0 0 0 0 178 0 0 0 181 182 183 186 0 0 0 0 0 0 162 138 129 0 122 0 0 128 0 121 119 0 0 0 0 0 111 115 0 0 0 0 111 0 0 0 128 0 0 125 0 120 119 0 0 120 0 117 116 114 113 0 111 110 111 113 0 0 127 128 0 0 135 136 0 0 139 0 0 137 136 135 0 0 0 0 0 0 125 122 0 0 116 114 113 112 113 117 0 0 130 129 0 127 0 0 126 128 0 133 0 0 0 140 138 139 140 0 0 0 143 0 141 140 0 141 143 0 147 0 147 0 0 143 140 0 0 0 0 0 130 130 0 0 126 125 124 124 123 121 121 121 121 122 0 123 124 125 126 0 0 123 123 0 0 0 123 0 0 0 0 122 121 0 0 119 0 0 0 118 0 121 121 0 118 117 0 117 115 0 112 113 120 0 0 0 0 0 128 125 124 0 123 124 126 129 134 138 0 0 142 0 0 141 0 141 0 0 141 141 0 143 0 0 145 0 0 0 142 139 138 137 0 0 135 0 134 0 0 0 134 135 136 0 138 139 141 0 0 139 137 137 0 0 138 
89 0 89 89 0 90 0 90 0 0 88 89 0 90 0 91 0 92 92 93 93 93 93 0 0 93 92 93 0 0 0 0 95 95 0 95 95 95 95 94 0 95 95 94 95 95 96 95 95 0 0 0 0 97 0 96 97 0 0 0 0 99 99 100 0 0 0 101 0 0 0 0 0 0 99 98 99 99 99 99 0 0 97 97 97 98 0 98 98 98 98 98 98 0 0 98 98 98 97 0 0 97 0 96 95 94 0 0 94 94 0 94 0 0 0 0 91 90 89 0 0 0 87 0 0 84 85 87 101 0 0 0 0 0 0 149 149 153 0 0 0 107 86 86 0 86 86 0 87 87 88 0 90 0 0 91 92 93 94 95 0 0 0 0 102 102 102 104 106 111 0 0 0 137 136 136 136 135 135 134 0 0 0 132 0 0 132 132 134 135 137 139 141 142 144 145 146 146 144 144 144 144 144 144 144 143 143 143 145 145 0 146 147 146 146 146 148 149 150 150 0 153 155 157 0 0 0 162 0 161 160 159 0 0 0 150 0 146 146 145 145 145 144 158 0 0 0 175 149 148 0 150 160 0 0 0 0 0 166 153 152 153 0 0 160 0 0 0 0 0 0 0 0 152 151 150 0 0 150 149 149 150 0 0 0 0 0 151 0 0 0 150 0 0 149 0 0 0 0 0 145 0 142 140 0 0 141 141 0 0 0 146 147 0 150 0 0 0 0 0 0 0 159 0 0 0 0 156 0 158 0 0 0 167 0 170 173 181 0 0 0 0 0 0 0 0 0 190 0 0 180 178 182 189 0 0 0 0 0 0 0 0 0 185 179 176 0 176 0 0 181 0 0 184 185 186 0 0 0 0 0 184 183 181 181 181 181 181 181 181 0 179 0 180 181 0 182 0 0 0 0 195 0 0 0 0 157 134 128 121 124 0 130 0 122 118 120 0 124 0 0 116 113 0 0 0 121 116 0 0 0 128 0 0 127 0 0 120 0 0 119 116 116 115 0 0 0 110 0 110 112 117 0 125 126 0 0 0 0 0 137 138 0 137 0 0 0 132 0 0 127 0 124 122 0 118 0 0 114 0 111 111 115 0 0 0 0 128 126 126 125 126 128 131 134 138 0 0 140 140 0 0 0 142 143 0 142 140 0 0 143 0 0 148 0 0 0 0 0 138 0 134 0 131 0 127 127 0 125 124 124 0 0 0 121 121 0 122 122 123 124 125 126 0 126 0 123 122 0 0 0 0 125 0 0 123 0 120 0 119 0 0 0 0 119 121 0 0 0 0 119 0 0 116 114 116 0 0 0 0 0 131 0 129 0 126 124 125 125 125 127 132 0 0 0 0 0 0 141 141 141 0 141 140 141 0 142 0 144 144 0 0 0 143 140 138 137 0 0 135 134 0 134 0 0 135 0 0 136 0 0 0 0 0 139 138 137 137 137 0 
89 0 0 89 90 0 0 0 0 0 90 90 90 90 0 90 0 0 92 0 0 0 93 0 0 0 93 0 94 0 96 96 0 95 95 0 0 95 95 0 0 95 95 95 0 0 0 0 95 95 0 96 0 0 0 96 96 97 0 98 0 0 0 100 100 0 0 0 0 0 0 0 100 99 99 99 99 0 99 99 99 98 97 97 97 97 0 97 98 0 0 0 0 98 98 97 98 0 96 0 0 0 96 95 0 95 0 95 95 95 0 94 0 93 93 93 92 0 90 0 89 89 88 87 86 85 85 85 96 0 0 0 0 0 0 148 147 151 0 0 0 106 86 86 0 0 86 87 87 0 0 89 90 90 0 91 92 93 94 95 97 0 0 0 0 101 102 103 104 108 124 0 0 137 135 135 135 134 0 133 132 131 129 130 129 129 130 131 134 137 142 146 151 156 0 0 0 0 156 153 152 150 150 151 151 0 0 151 0 152 152 0 0 0 0 0 0 0 0 0 0 0 0 0 166 0 0 0 0 0 0 0 0 0 0 158 0 154 151 151 149 149 150 170 0 0 0 165 149 151 151 154 171 0 0 0 0 185 164 157 156 0 0 0 0 0 0 0 166 0 0 163 0 158 156 0 0 0 0 0 154 154 155 0 0 0 0 155 0 0 154 0 0 153 152 152 0 0 0 148 146 0 143 142 142 142 142 0 143 145 0 0 149 151 153 155 0 0 0 0 0 0 0 0 161 0 0 0 0 158 160 0 0 0 0 171 174 181 0 0 0 0 192 191 0 0 190 189 0 0 183 182 188 0 0 0 0 0 0 0 0 0 0 0 183 177 174 176 178 0 0 182 0 184 0 0 0 0 0 0 0 188 187 185 185 184 184 184 0 183 181 180 180 181 181 0 184 185 187 190 193 0 197 0 0 0 0 149 130 121 121 0 0 128 124 120 120 123 0 0 0 0 113 0 0 0 122 122 0 0 0 129 0 0 128 127 0 121 0 0 118 0 0 115 114 0 0 111 0 110 110 114 0 0 123 124 128 0 0 0 0 0 0 0 0 0 0 0 0 0 123 0 0 119 118 117 0 0 113 112 111 111 116 0 0 131 0 0 126 0 125 0 128 132 136 0 0 141 0 0 141 0 0 0 0 0 142 142 0 143 143 0 0 148 0 145 142 139 137 135 133 131 0 128 0 125 125 124 123 123 123 123 0 122 0 122 0 122 123 124 125 0 0 0 0 124 123 0 124 124 0 0 125 0 0 122 0 0 119 119 120 120 120 120 121 0 0 0 0 0 120 119 0 119 120 0 0 0 0 0 0 0 0 0 129 128 127 0 0 128 128 130 0 138 140 0 0 141 141 141 141 0 140 0 0 141 142 0 143 0 146 0 0 143 0 0 0 137 136 0 134 134 134 134 135 0 135 135 136 137 139 0 0 0 140 139 138 137 137 0 
89 0 0 0 0 0 90 0 0 90 0 0 0 90 0 91 0 0 0 0 94 94 0 93 0 0 93 0 94 95 96 96 0 95 95 0 0 95 95 96 96 96 0 95 95 96 0 95 94 95 95 95 0 96 96 0 0 95 97 98 0 0 100 0 100 99 101 102 0 102 101 100 99 0 0 0 100 0 100 0 99 98 97 0 0 97 0 0 0 0 0 98 0 98 98 0 98 0 98 98 98 0 96 0 95 95 95 95 95 0 95 94 93 0 0 0 0 0 91 0 0 0 0 87 86 0 85 86 91 115 0 0 0 0 151 146 145 150 0 0 0 105 86 86 0 87 87 87 0 88 0 89 90 0 90 91 0 93 94 0 96 0 0 99 101 0 102 0 0 106 121 0 0 138 135 135 0 0 133 132 130 129 128 128 128 129 131 133 137 144 153 0 0 0 0 0 0 0 0 0 163 160 159 0 159 0 0 0 0 158 159 0 162 0 0 0 0 0 165 166 0 167 167 0 0 173 0 174 0 0 0 0 171 0 0 166 163 161 0 157 156 155 156 181 0 0 0 161 154 0 156 161 180 0 0 0 0 180 164 160 160 0 0 0 166 167 0 0 0 0 0 0 0 0 160 0 157 157 0 158 0 158 0 0 0 0 0 0 158 157 157 0 0 0 155 0 0 153 0 0 147 145 145 144 143 143 143 144 145 0 0 149 151 153 0 0 0 161 0 0 163 163 163 0 0 0 161 160 0 158 159 161 0 0 0 0 172 0 0 0 0 192 0 191 191 0 0 190 0 0 183 186 0 0 0 0 0 0 211 0 0 0 0 0 187 178 174 0 0 0 0 0 181 0 0 0 187 188 0 190 190 0 0 0 0 0 0 0 0 0 184 182 181 182 0 0 0 186 188 190 0 0 0 0 199 0 0 0 142 124 120 0 0 130 126 123 123 0 125 0 0 0 118 119 0 0 122 126 0 0 0 128 130 0 128 0 0 122 120 0 118 116 115 0 114 0 0 0 110 110 0 112 0 0 122 122 123 0 0 0 0 0 134 0 131 0 127 125 122 120 119 118 117 116 116 115 115 113 0 0 111 111 118 0 0 0 129 127 125 125 125 0 130 133 0 0 0 141 140 141 142 0 143 0 0 143 142 143 0 145 146 0 0 0 0 0 138 135 0 132 0 127 126 125 124 0 123 0 122 0 122 0 122 121 122 0 122 122 124 125 126 127 128 0 0 124 123 0 124 124 124 0 0 124 122 121 0 117 118 0 120 0 0 120 121 0 0 123 0 121 0 119 121 0 0 0 128 127 0 0 0 0 0 0 0 131 0 133 0 0 132 130 134 0 139 0 141 140 0 0 0 140 0 141 141 141 142 0 144 0 146 0 0 144 140 138 138 137 0 0 134 134 134 0 135 0 135 0 0 0 139 141 0 0 141 140 139 138 0 138 
88 0 89 90 90 91 91 90 90 0 0 91 0 90 0 0 91 93 0 94 94 0 94 94 94 94 94 94 0 0 0 0 0 0 96 0 0 95 96 0 0 97 96 96 0 0 96 95 0 0 0 96 0 95 96 0 0 96 97 98 98 99 100 100 0 0 0 102 0 0 0 0 0 98 99 0 0 0 100 0 99 0 0 0 97 98 98 98 97 98 98 0 0 98 0 0 98 98 0 99 0 98 97 95 0 95 95 95 94 0 95 0 93 0 93 93 0 91 91 0 0 90 89 0 0 0 84 85 87 105 0 0 0 0 148 143 144 148 0 0 0 103 85 86 0 0 0 0 88 0 0 0 90 0 90 90 0 0 93 0 95 97 98 99 0 0 101 101 102 103 115 0 0 139 136 135 134 133 132 131 130 128 127 0 128 128 131 138 148 0 0 0 0 0 0 187 184 182 0 0 0 171 167 167 167 167 0 0 165 165 166 0 169 0 0 0 0 0 0 0 0 0 173 0 0 0 178 0 180 180 180 0 177 0 0 0 0 0 0 0 162 160 163 191 0 0 189 160 158 158 159 169 0 0 0 0 0 175 163 163 0 0 166 167 0 0 0 171 0 173 0 0 0 167 164 0 160 159 0 0 0 161 0 0 0 0 0 0 161 160 0 0 159 0 0 0 156 155 0 152 150 148 148 146 146 0 145 0 0 0 0 150 152 0 157 160 0 163 163 0 164 0 163 164 164 163 162 0 159 157 157 158 160 163 0 166 167 0 0 0 189 0 0 0 0 0 0 0 0 0 183 187 0 0 0 0 0 0 0 0 0 0 0 0 0 179 174 173 0 176 0 179 0 182 0 186 187 189 0 0 0 0 0 191 192 0 0 0 0 0 188 185 0 183 183 184 185 0 189 0 193 195 0 198 0 199 0 0 0 139 123 128 0 0 128 0 0 124 125 0 0 0 125 121 0 0 123 127 0 131 0 130 0 0 129 128 0 0 118 0 0 116 114 115 0 113 113 111 110 109 0 110 115 0 0 120 121 0 0 0 0 0 0 129 0 126 124 121 119 116 115 115 114 114 0 115 0 113 112 111 110 112 119 0 0 0 129 0 0 0 127 128 0 0 0 0 0 141 141 141 0 0 142 0 0 143 0 142 144 0 0 0 0 0 0 0 134 132 0 129 127 124 124 123 122 122 122 122 122 0 0 122 0 122 0 123 123 0 0 0 0 0 0 0 0 126 0 0 125 0 0 0 0 123 0 0 119 118 0 119 120 0 120 120 0 0 122 122 0 0 120 119 125 0 0 129 127 125 124 124 126 0 0 0 133 0 134 137 0 0 0 134 133 135 0 0 0 0 0 0 140 0 141 0 140 0 141 0 0 144 146 0 0 0 141 139 138 0 137 136 135 0 134 0 0 0 135 0 136 137 0 0 142 0 142 0 0 0 138 138 
87 88 89 0 91 0 91 0 91 91 91 91 0 91 0 0 92 0 94 94 0 0 0 0 0 94 94 95 0 0 0 95 95 0 96 0 0 96 96 97 0 0 0 0 0 0 0 95 94 94 0 0 96 95 96 97 97 97 0 0 99 99 0 101 0 100 100 0 102 102 101 0 100 99 99 99 0 100 99 0 0 0 98 97 0 0 0 98 98 98 0 0 98 0 0 0 97 0 0 0 0 0 0 0 0 0 95 95 0 95 95 0 0 0 93 93 93 0 91 0 91 89 89 0 88 0 85 85 87 99 0 0 0 0 147 143 143 147 0 0 0 102 87 0 86 0 0 0 87 88 88 89 0 0 90 0 90 92 0 95 96 0 98 99 100 0 101 0 0 102 112 0 0 0 137 136 134 133 132 131 130 129 128 128 128 129 135 148 0 0 0 0 0 0 0 0 0 191 0 0 0 0 0 0 0 0 174 0 173 173 174 0 0 0 0 176 175 175 175 0 0 0 177 0 0 181 183 0 0 0 0 0 182 181 0 0 0 0 0 0 0 166 173 0 0 0 181 159 160 160 163 177 0 0 0 0 188 170 165 0 0 0 167 0 0 0 0 172 0 0 0 0 0 0 167 165 163 0 0 0 0 163 0 164 0 0 165 0 0 163 163 0 0 160 159 0 158 157 156 155 154 153 0 152 0 149 147 147 147 148 149 151 154 158 161 0 165 0 165 166 165 0 0 0 0 164 0 161 159 156 156 157 158 159 160 162 163 165 0 0 0 0 0 0 0 188 0 0 0 182 182 188 0 0 0 0 0 0 212 0 0 0 0 0 0 179 172 171 0 173 175 177 0 182 0 0 0 0 0 0 0 192 191 193 0 0 194 0 0 0 0 187 0 0 183 183 185 187 189 0 0 195 197 198 0 199 0 0 0 155 139 130 0 0 129 0 125 125 126 0 129 0 0 124 122 0 122 0 0 132 0 132 0 0 130 128 127 0 118 0 0 117 116 115 0 115 0 112 111 109 108 109 112 0 0 121 120 121 0 125 126 127 127 126 125 123 121 119 0 114 113 113 113 114 114 0 0 113 112 111 110 113 120 0 0 131 130 0 129 127 128 128 133 0 0 0 0 0 141 141 0 141 141 142 143 143 142 0 143 0 0 0 0 0 0 134 131 128 127 0 124 123 0 122 0 122 122 122 0 0 123 123 123 123 123 124 125 126 127 0 0 130 0 129 128 0 126 0 125 0 0 0 0 122 120 119 118 0 119 0 120 120 0 121 0 0 0 0 0 0 120 124 0 0 134 131 128 126 124 122 122 125 0 0 134 136 0 0 0 0 0 0 134 134 136 0 0 0 140 140 0 141 141 0 141 141 142 0 143 144 146 0 0 0 143 0 0 138 137 0 0 0 133 134 0 0 135 0 136 137 0 140 141 0 142 0 140 139 138 138 
88 88 89 90 0 0 91 91 0 0 91 90 91 91 91 0 92 93 94 0 0 0 0 94 0 0 0 0 95 0 95 94 95 0 0 0 0 96 0 0 97 97 0 96 96 96 96 95 94 95 96 0 96 96 97 0 0 0 98 0 0 100 0 0 101 0 101 0 102 102 101 101 0 0 0 99 0 99 0 99 98 97 98 97 97 98 98 98 0 98 98 0 98 98 99 99 98 98 98 99 98 96 96 95 0 0 0 95 0 0 96 0 0 94 94 0 0 93 92 0 91 90 0 89 0 87 85 85 86 93 0 0 0 0 147 144 144 146 0 0 0 105 88 86 86 86 86 87 0 88 88 0 0 0 0 90 0 92 0 0 0 0 97 0 100 0 101 101 0 102 109 0 0 0 139 0 136 0 134 132 131 130 129 128 130 133 145 0 0 0 0 0 0 0 0 0 0 0 0 0 0 0 0 182 0 0 181 0 0 0 0 0 0 0 0 0 0 0 178 0 0 0 180 182 0 186 0 0 0 0 0 0 187 0 0 182 181 0 0 0 0 173 181 0 0 0 174 161 0 162 167 184 0 0 0 0 182 167 166 165 165 166 0 0 0 0 173 172 0 0 0 0 0 172 0 0 165 164 164 0 0 0 0 166 0 0 0 167 166 166 165 165 164 163 162 160 160 159 0 158 0 0 0 0 0 153 151 150 0 150 152 156 0 163 166 0 0 169 169 169 0 167 167 0 167 0 164 162 160 158 156 0 157 157 158 0 158 159 164 0 0 0 0 0 0 0 0 0 180 178 181 188 0 0 0 0 211 0 212 0 0 0 0 0 0 179 170 169 167 171 174 177 0 0 0 0 187 189 191 0 0 192 193 0 195 0 193 193 194 0 0 187 0 0 184 0 0 186 0 192 194 0 0 198 0 199 0 0 166 172 0 148 142 0 131 127 126 127 0 0 129 0 0 0 120 0 120 0 0 0 0 132 0 0 130 128 0 0 118 113 0 0 116 0 0 0 0 0 0 110 108 108 110 0 0 0 119 118 120 121 0 0 0 124 123 122 119 118 116 114 112 112 0 0 0 114 114 113 112 0 112 113 0 0 0 132 0 0 130 129 129 132 135 138 140 0 141 0 0 141 141 0 141 0 0 0 0 0 0 0 0 0 135 0 0 130 127 126 124 0 122 121 121 121 122 122 122 123 123 0 0 124 0 0 124 0 0 0 0 129 130 0 0 129 127 127 126 125 124 0 123 0 0 0 119 118 119 0 119 0 120 120 120 121 0 122 0 123 122 121 121 0 0 0 0 136 131 128 124 120 118 118 124 0 0 138 0 0 0 0 142 0 135 134 135 137 139 0 140 140 0 0 0 142 0 142 142 0 143 144 0 0 148 0 144 141 0 0 137 0 136 135 134 0 135 135 0 0 136 0 138 139 0 142 0 0 140 139 0 0 
0 0 0 0 91 91 91 0 91 0 91 91 0 0 91 91 91 0 0 0 94 93 94 0 95 0 94 95 0 95 94 0 95 95 0 0 96 96 95 0 96 96 96 0 0 0 96 95 95 95 0 0 97 97 0 98 98 98 98 99 99 100 101 0 101 101 0 101 0 102 0 101 100 100 99 100 0 100 100 99 98 98 0 0 98 0 98 0 0 0 0 98 0 99 0 0 99 99 0 0 0 96 96 96 95 96 0 95 0 0 96 95 94 94 94 0 94 0 93 0 0 91 0 89 88 0 86 0 86 90 112 0 0 0 147 145 146 0 0 0 0 109 88 86 0 86 87 87 88 0 88 0 0 90 89 90 0 92 0 0 95 96 0 99 99 100 0 101 101 102 107 0 0 0 0 0 0 0 136 0 133 131 131 130 132 139 0 0 0 0 0 0 0 207 0 0 0 0 0 199 0 0 188 186 186 0 0 0 0 0 0 183 0 0 0 181 0 0 179 0 0 0 181 183 0 0 0 0 0 0 0 192 0 0 187 185 184 184 183 0 179 177 189 0 0 0 171 163 163 163 173 0 0 0 0 0 177 169 166 164 164 166 0 171 0 0 0 174 0 176 0 0 0 173 0 0 166 165 164 164 0 165 0 167 0 0 0 0 0 0 0 169 0 167 166 164 163 162 161 161 161 0 0 0 0 0 0 153 152 152 156 0 0 0 0 0 0 173 173 0 0 0 0 0 0 0 0 0 161 159 157 156 157 157 157 156 157 157 159 164 0 0 0 0 0 0 0 174 173 174 180 188 0 0 0 0 211 0 0 0 0 208 0 0 0 177 167 166 167 170 0 176 179 182 0 0 0 0 189 0 0 193 194 0 0 194 194 194 195 194 192 189 187 186 184 183 184 186 0 192 0 0 0 197 0 0 0 174 170 0 0 0 148 0 139 130 0 128 0 0 129 0 0 0 120 119 117 122 0 0 0 133 0 0 0 0 0 0 118 110 0 0 117 116 116 0 0 115 0 0 109 108 108 114 0 0 119 0 118 118 119 121 0 122 0 0 0 117 115 113 112 112 0 0 115 0 114 113 0 112 112 113 0 0 0 133 0 0 129 0 0 0 0 0 0 0 141 0 141 141 141 0 0 0 0 0 0 0 0 0 0 0 0 128 0 0 125 124 0 121 120 120 0 121 122 123 0 124 0 124 124 124 0 125 125 0 128 0 0 130 131 0 0 129 128 0 0 0 123 123 123 0 0 119 118 0 0 119 119 120 0 0 121 0 122 122 0 123 0 0 124 0 0 0 0 0 0 130 125 120 116 115 119 0 0 0 0 0 0 0 0 0 136 134 0 0 0 0 140 140 141 0 142 0 0 0 142 0 143 144 145 0 0 0 0 141 140 139 138 136 136 0 135 0 135 135 135 0 135 136 0 0 140 142 0 142 140 0 139 138 
89 0 90 0 0 0 90 0 90 90 0 0 0 92 91 91 92 0 92 93 0 94 94 0 95 95 95 0 0 0 95 95 95 96 0 96 96 96 0 0 95 0 97 0 97 0 0 0 96 0 96 0 0 0 98 98 98 98 98 99 0 100 0 101 101 101 0 0 0 102 0 0 0 100 99 100 0 0 0 0 0 98 0 98 0 0 0 98 0 0 0 0 99 0 0 99 99 99 0 0 0 98 0 0 96 0 95 96 0 0 0 0 0 0 0 0 94 0 93 93 92 91 90 88 88 0 86 85 85 88 107 0 0 0 146 146 148 0 152 0 0 115 90 86 0 0 0 0 88 0 0 89 89 89 0 90 0 91 0 0 94 0 0 0 0 99 100 0 102 102 105 0 0 0 143 142 140 138 138 137 135 133 133 134 135 143 158 0 0 0 0 0 0 0 210 0 0 0 0 0 0 0 0 191 0 0 0 0 0 0 0 187 186 0 0 0 0 180 0 180 0 0 181 0 0 0 0 194 0 0 196 195 0 0 190 187 0 0 0 184 181 181 196 0 0 0 172 165 164 167 181 0 0 0 0 190 173 169 166 164 163 165 0 171 0 0 0 0 175 176 177 0 0 173 0 0 0 167 166 165 0 165 165 166 0 170 0 171 0 0 0 0 0 0 0 0 166 166 165 165 165 0 0 166 164 162 0 155 154 155 159 0 166 0 171 0 0 0 0 0 174 172 171 0 0 166 165 0 0 160 158 0 0 0 158 157 158 158 159 159 161 165 169 170 170 170 169 165 169 172 0 186 0 0 0 0 0 211 211 0 0 0 0 0 0 174 166 165 167 170 172 175 0 0 0 185 0 185 186 189 191 0 194 0 0 195 195 196 0 0 0 191 188 187 0 183 184 187 0 0 193 0 196 0 0 0 182 165 0 0 0 164 144 0 147 134 128 128 129 0 129 129 0 0 0 118 117 119 0 0 0 0 0 0 132 130 0 0 119 109 113 0 0 116 0 0 0 0 114 112 110 109 109 111 0 0 0 117 116 116 0 118 0 120 0 0 119 117 0 113 0 112 113 115 0 0 114 0 0 112 111 114 0 0 133 0 0 0 131 131 134 137 0 0 0 0 0 139 140 0 140 140 0 0 0 0 0 0 0 0 122 119 120 122 0 0 124 0 121 120 120 120 121 122 0 124 124 125 0 124 0 125 125 126 0 0 129 0 0 131 0 0 0 129 0 127 0 123 123 122 123 0 0 117 117 118 118 119 119 120 0 121 122 0 123 123 123 0 0 123 123 133 0 0 0 0 0 135 129 121 116 114 117 127 0 0 0 0 0 0 0 0 0 136 135 136 138 0 140 0 141 141 0 142 0 141 140 142 143 0 0 0 148 0 0 142 140 0 0 0 0 0 135 135 135 135 135 0 135 136 0 139 0 0 0 0 141 140 139 139 
88 0 88 0 0 90 91 0 91 90 0 92 92 0 0 0 92 0 0 93 0 94 95 0 0 95 95 0 0 0 96 0 96 0 96 96 0 96 0 0 96 0 0 0 0 0 95 96 0 0 0 0 98 98 0 0 98 98 99 100 100 0 100 0 100 100 0 0 0 102 101 100 0 100 0 100 100 100 100 100 99 98 0 98 98 0 0 98 98 98 98 0 99 99 0 0 100 0 0 0 0 0 0 0 96 0 0 96 96 96 0 96 95 95 94 0 94 93 93 93 0 0 90 89 88 0 0 86 86 87 99 0 0 0 0 148 0 0 0 0 0 0 91 86 0 87 0 87 0 0 0 88 88 89 0 90 90 90 92 93 93 95 97 0 0 99 0 0 0 103 105 124 0 0 0 0 141 141 0 140 0 137 137 137 138 146 162 0 0 0 0 0 0 0 0 0 0 0 0 0 200 198 0 0 0 0 0 0 195 0 0 0 0 186 0 0 0 180 179 0 0 0 181 0 0 0 0 194 0 0 198 0 0 0 0 190 190 0 0 0 184 184 202 0 0 190 173 0 167 173 189 0 0 0 0 184 172 167 166 0 164 165 0 0 0 172 0 174 175 0 0 0 174 0 173 172 0 0 0 165 165 165 165 0 0 169 0 172 0 0 0 0 0 175 0 0 171 0 0 0 0 0 0 0 0 165 0 0 157 0 161 0 167 169 171 173 176 0 0 0 176 174 172 171 170 167 166 165 0 161 159 158 158 0 159 0 0 0 0 160 160 160 160 160 161 162 162 163 166 0 0 181 0 0 0 0 0 0 0 208 0 0 0 0 182 173 170 170 171 0 173 174 177 0 0 0 0 183 185 0 189 191 0 0 196 196 0 197 0 0 0 0 192 189 187 0 185 187 0 190 192 0 0 0 0 0 163 0 0 0 0 159 156 0 157 141 131 128 0 0 0 0 0 0 0 119 114 114 0 0 0 0 0 0 0 0 0 0 0 111 109 0 116 116 0 0 0 0 0 112 110 109 0 110 0 0 0 115 115 0 115 116 117 0 119 0 0 116 0 0 112 113 115 0 0 115 114 114 0 0 111 115 0 0 0 0 134 133 132 133 136 0 0 0 0 141 0 139 139 0 139 0 0 0 0 0 0 124 120 116 115 113 115 120 0 124 122 0 120 119 120 121 122 0 0 0 125 0 125 0 0 0 126 127 128 129 130 131 0 0 132 0 130 0 0 126 0 123 0 0 0 0 119 117 117 0 119 0 0 0 0 0 122 0 0 0 123 0 123 122 122 126 0 0 0 148 0 0 0 127 116 113 117 124 0 0 0 0 0 144 142 140 139 0 136 134 137 0 0 0 141 141 0 141 141 0 0 142 142 0 144 146 0 0 0 142 140 0 0 138 137 136 136 0 0 0 135 0 136 0 0 139 0 0 0 0 142 140 0 0 
88 88 0 0 91 91 92 0 91 0 0 92 92 0 92 91 0 92 93 93 93 94 0 0 0 94 0 0 0 0 0 0 96 96 96 95 0 95 95 95 97 0 98 97 97 0 96 96 0 97 0 98 98 0 0 0 0 0 0 0 0 100 0 100 99 100 101 102 0 102 0 99 100 99 100 100 0 0 100 100 0 99 98 98 98 97 98 0 97 98 98 0 0 0 99 0 0 0 0 100 98 0 0 0 96 96 96 96 96 0 0 95 95 95 95 0 94 0 0 0 0 0 0 0 0 88 0 0 85 87 95 0 0 0 149 149 0 152 0 0 0 0 92 87 0 86 87 87 87 88 88 0 88 89 0 0 90 91 92 93 94 0 0 0 0 99 0 0 102 102 105 123 0 0 147 144 0 144 144 0 142 142 141 140 141 148 165 0 0 200 0 0 0 212 0 0 212 0 0 0 203 199 0 196 0 0 0 0 0 195 0 0 0 188 0 185 0 181 178 0 176 177 179 0 183 186 189 193 0 0 199 0 200 199 0 194 192 191 0 0 185 188 0 0 0 184 173 171 171 180 0 0 0 0 0 178 169 166 165 165 0 165 0 166 0 0 0 0 0 0 0 0 173 0 0 0 0 0 169 165 165 165 0 166 167 169 171 173 0 0 0 0 178 177 0 0 175 0 174 0 173 0 0 173 0 0 164 160 159 0 161 0 167 170 173 0 178 0 181 0 0 177 0 174 172 0 167 166 0 0 160 159 0 0 161 0 161 161 0 160 161 161 160 160 160 160 161 161 163 0 172 177 185 0 0 0 0 0 0 0 0 0 0 186 181 176 0 0 175 0 175 175 177 179 181 182 182 184 185 0 189 190 0 0 196 195 197 199 200 0 199 0 0 0 189 0 186 0 0 189 0 0 192 0 0 166 160 0 0 0 180 174 0 0 177 153 142 128 126 128 0 0 0 0 0 0 115 112 119 0 0 0 0 131 0 124 123 0 0 114 107 0 0 115 115 0 0 0 0 112 109 108 0 109 112 0 0 115 0 114 113 114 115 0 118 0 0 116 114 113 111 113 0 0 0 115 114 114 0 113 112 116 0 0 0 0 0 134 134 136 0 0 0 0 0 0 0 138 0 0 0 0 0 0 130 126 122 117 114 112 113 113 117 0 0 0 121 120 0 0 0 0 124 0 125 124 125 0 0 126 126 126 127 0 0 0 0 0 132 0 0 130 129 0 0 125 123 122 122 0 121 119 118 117 0 0 0 120 0 0 121 0 0 0 123 123 122 123 0 123 123 123 134 0 0 149 0 0 0 0 123 113 115 122 0 0 0 0 0 143 0 140 139 0 0 135 136 0 0 140 141 0 0 0 141 0 0 0 142 143 144 146 148 0 0 143 141 139 139 138 137 0 0 136 136 0 0 0 0 0 137 138 140 141 143 0 0 141 140 139 
0 0 90 90 0 0 0 0 92 91 0 0 92 0 91 0 0 92 93 0 0 93 94 0 95 94 95 0 0 96 96 0 96 96 0 95 0 0 0 0 97 0 0 0 0 96 96 96 96 97 98 97 0 0 99 98 99 0 99 99 99 99 100 100 100 101 101 102 0 0 0 100 0 100 0 0 0 100 100 0 0 0 0 98 0 0 0 0 98 98 0 0 98 98 98 99 99 100 0 99 98 98 0 98 97 96 96 96 96 0 0 96 94 0 0 95 94 93 94 94 94 0 0 91 0 88 87 86 86 87 92 112 0 0 0 150 0 0 152 0 0 0 92 87 86 0 87 0 87 0 88 0 0 0 0 90 0 0 0 0 94 0 0 98 0 0 0 0 101 102 104 123 0 0 147 146 148 148 147 148 0 0 0 145 144 151 166 0 0 0 0 208 0 212 0 0 0 212 0 0 0 199 0 197 197 0 0 0 0 196 0 194 0 190 187 0 0 181 0 175 173 173 175 0 181 183 187 192 196 0 199 0 0 0 0 0 0 0 0 187 185 191 0 0 0 181 173 171 174 186 0 0 0 0 0 173 166 0 0 165 0 164 164 163 164 166 169 0 0 173 172 172 173 173 173 173 172 171 0 167 165 165 165 165 166 169 0 174 0 0 180 0 0 0 0 178 0 0 0 0 175 176 0 0 0 0 166 162 160 0 162 165 0 172 0 0 180 0 0 0 181 0 0 0 0 0 0 0 0 0 0 161 161 161 0 0 0 162 162 162 162 0 0 161 0 160 0 161 163 165 0 174 179 186 0 0 0 0 0 0 0 0 186 181 179 177 177 0 0 178 0 179 0 179 180 181 182 0 186 0 0 0 193 0 197 199 0 0 0 0 0 199 197 0 190 186 186 0 186 187 0 189 189 0 0 142 165 0 184 0 178 196 0 0 0 0 171 142 127 126 0 0 125 125 0 0 118 112 116 0 127 0 0 0 123 119 116 119 0 0 107 111 0 115 114 0 117 0 116 0 110 108 108 108 110 0 0 114 0 112 112 112 113 0 117 118 118 0 0 0 110 114 0 0 116 114 0 114 0 113 112 116 0 130 0 0 0 136 137 0 0 0 0 0 139 137 0 0 0 0 0 0 0 0 0 120 115 113 112 111 112 115 0 0 0 122 121 120 121 121 123 124 0 0 126 126 126 0 0 0 0 0 128 129 0 0 132 132 132 132 0 130 0 0 126 124 122 0 0 0 120 0 118 0 117 118 119 121 0 0 121 121 0 0 123 0 0 0 0 123 123 123 129 0 0 0 149 0 0 0 0 120 115 119 131 0 0 0 0 142 0 140 138 0 0 136 135 0 140 140 0 0 0 141 141 141 141 142 142 0 144 0 0 0 0 144 141 0 139 0 137 0 137 0 136 0 0 135 136 0 137 138 139 0 143 0 0 141 141 0 
89 0 90 0 90 91 91 92 92 92 0 91 91 0 92 0 92 0 93 0 0 0 93 0 95 94 94 96 96 0 96 0 96 96 96 0 0 96 0 97 97 0 0 97 0 96 96 96 0 98 0 0 98 99 0 99 99 99 99 99 0 0 101 0 0 0 0 0 101 100 0 100 0 0 0 0 0 0 0 99 98 98 98 98 0 0 0 0 98 98 0 99 98 98 98 99 0 0 0 100 0 99 0 0 0 0 96 0 0 0 97 0 96 0 0 0 94 94 94 0 94 0 92 91 90 89 87 86 86 86 88 105 0 0 0 150 151 0 0 0 0 0 91 85 86 0 87 0 87 0 0 0 0 90 90 90 90 91 91 92 93 95 0 97 98 99 0 0 0 102 104 122 0 0 152 152 153 0 153 153 0 151 0 149 148 154 167 0 0 0 0 207 0 0 213 0 0 0 0 0 0 199 0 197 197 197 197 197 0 196 0 0 0 0 0 0 183 0 0 0 171 170 0 175 179 182 188 0 0 0 199 0 0 0 0 198 196 0 190 186 185 194 0 0 0 179 174 172 177 0 0 0 0 0 181 167 165 165 165 165 0 164 163 162 161 163 165 0 0 171 172 0 0 173 173 0 0 0 0 166 165 0 0 165 166 169 0 175 0 0 0 0 181 0 0 179 179 0 178 0 0 0 0 0 0 0 0 163 161 0 163 165 170 0 0 0 0 183 0 0 0 0 0 0 0 0 0 170 166 163 162 162 0 163 0 0 163 163 0 0 164 164 163 163 162 161 161 161 163 163 167 170 173 178 182 0 0 0 189 0 184 181 180 179 178 177 0 179 0 180 0 0 0 181 180 180 182 0 0 187 0 189 192 0 199 0 0 0 0 0 0 0 0 0 189 186 0 184 185 186 0 186 186 0 0 125 0 0 181 0 178 0 0 0 0 0 0 0 146 124 120 122 123 124 0 0 0 113 112 0 124 0 0 125 121 117 114 114 0 0 109 108 0 0 113 0 0 0 0 0 111 107 108 0 109 0 0 0 112 111 0 111 111 0 0 0 0 0 0 0 110 113 0 0 114 112 112 0 0 113 111 116 0 0 0 0 0 137 0 0 0 0 0 0 0 133 133 0 0 0 0 126 125 0 0 115 113 112 111 111 111 117 0 0 122 120 121 0 121 123 0 0 0 0 0 0 128 0 129 0 128 129 0 0 0 132 132 0 0 0 130 0 0 126 124 0 121 0 0 0 0 118 117 0 119 0 0 0 0 0 121 0 122 124 0 125 125 124 124 124 124 124 125 137 0 0 149 0 0 0 0 0 122 119 130 0 0 0 145 0 0 0 138 0 0 137 135 137 0 0 0 140 0 0 0 0 142 0 142 142 143 145 0 0 0 0 143 141 139 138 137 0 137 136 136 135 135 0 0 136 136 0 0 0 143 0 0 143 142 0 
89 89 0 90 90 91 91 91 0 92 92 0 91 92 0 0 92 0 0 94 94 94 94 0 0 95 96 0 97 0 96 95 95 0 96 95 94 95 0 0 0 96 97 97 0 0 95 96 97 0 0 99 0 0 0 0 0 0 0 0 0 0 0 0 0 0 102 102 101 0 99 100 100 0 101 0 100 100 100 99 97 0 98 98 0 99 99 98 98 97 99 0 0 0 0 99 0 100 0 0 0 99 98 98 0 96 96 0 96 0 0 0 96 0 0 95 0 94 94 0 0 0 0 92 0 0 0 87 86 85 87 101 0 0 0 0 0 0 0 0 0 0 91 86 0 0 87 87 0 88 88 89 0 90 0 89 90 0 91 91 93 0 0 0 0 98 99 101 0 102 104 122 0 0 0 0 0 0 0 0 0 156 0 0 150 155 166 0 0 0 0 0 0 0 0 0 0 0 0 201 198 196 0 0 0 0 0 0 0 196 0 194 0 0 187 0 0 0 175 0 167 166 170 173 0 184 0 0 197 199 0 0 0 0 0 199 0 0 190 186 185 198 0 0 197 177 173 174 182 0 0 0 0 0 175 165 164 165 165 0 165 0 163 161 160 161 164 166 0 0 0 0 0 0 0 172 172 0 0 165 165 164 0 165 166 169 172 175 0 0 181 181 0 0 0 180 0 0 0 0 178 0 0 0 0 0 166 162 160 161 162 167 0 0 179 181 0 0 0 0 0 183 181 0 178 176 174 0 169 165 163 164 0 164 164 164 165 165 165 166 166 166 166 166 165 164 0 163 0 164 165 167 169 171 174 178 179 179 179 0 176 174 176 177 177 178 0 180 0 0 181 0 0 0 181 181 181 183 0 186 187 188 191 196 0 0 0 0 0 0 203 0 0 0 191 187 186 184 185 186 186 186 0 0 147 116 0 0 179 178 179 0 0 0 0 0 0 0 0 134 119 119 0 0 0 0 0 116 110 0 0 0 0 0 120 117 114 113 0 0 0 107 0 0 113 113 115 0 0 0 0 108 0 108 109 0 0 0 112 111 0 111 110 113 0 117 0 116 114 0 110 112 0 0 112 111 112 0 0 112 112 117 0 128 0 0 0 0 0 0 0 0 0 0 0 130 0 0 0 124 123 122 0 120 117 113 112 111 110 110 112 0 0 0 120 120 121 122 0 0 0 127 0 128 0 0 0 0 0 0 0 0 0 0 132 132 0 0 0 0 128 0 126 124 123 0 121 120 0 118 117 117 117 0 0 0 121 0 121 121 121 122 0 0 0 126 126 129 133 0 0 0 127 131 0 0 148 0 0 144 0 0 133 122 130 0 0 0 144 0 0 138 138 0 140 0 135 135 0 0 140 141 0 0 142 0 142 0 0 143 144 0 147 148 0 0 0 141 0 138 138 137 137 0 0 0 135 0 0 0 136 137 139 140 142 0 0 0 0 141 
0 89 89 0 0 0 91 91 91 92 92 92 92 92 0 0 92 93 0 94 94 94 0 95 95 0 0 0 0 0 0 94 95 0 96 0 95 95 0 97 96 97 0 97 97 96 95 96 97 98 0 99 99 0 0 0 99 99 0 0 100 100 100 101 101 101 102 0 101 99 99 100 100 0 101 0 100 0 100 0 98 0 98 98 0 0 0 0 98 98 0 0 0 0 0 99 99 99 99 99 99 98 98 98 0 96 0 0 97 97 97 96 95 0 95 94 0 94 0 0 94 94 93 0 0 90 89 88 87 86 87 97 0 0 0 0 0 0 0 0 0 0 92 85 0 87 87 0 0 88 88 89 0 0 0 88 0 0 90 91 0 94 0 95 0 98 99 0 0 102 103 120 0 0 0 0 161 0 164 0 0 0 0 0 154 154 162 0 0 0 0 0 0 0 0 0 0 0 0 195 192 193 194 0 196 196 196 196 0 0 195 194 191 188 185 183 0 0 0 0 166 165 166 172 0 186 0 0 0 200 0 203 0 0 202 199 0 0 0 187 185 200 0 0 190 174 172 176 188 0 0 0 0 187 171 164 0 165 166 0 166 165 163 161 159 160 0 165 167 0 0 171 172 0 172 0 0 0 167 166 165 164 0 0 165 0 0 175 178 180 181 0 181 181 0 180 0 179 0 0 178 177 0 0 174 0 0 160 159 160 163 0 0 0 0 182 184 0 0 0 0 0 0 0 0 0 0 0 0 169 166 166 166 166 167 166 0 0 170 0 0 0 170 170 0 0 166 165 0 165 165 166 166 166 169 170 171 171 171 171 169 172 0 177 0 0 0 0 181 181 182 0 0 0 0 182 0 183 184 185 185 187 190 0 0 0 0 0 0 204 0 0 200 0 194 189 188 186 186 186 187 187 186 0 144 115 0 0 177 176 183 0 0 210 208 0 0 0 0 147 123 117 119 0 0 123 0 0 111 112 0 119 120 0 0 0 115 112 113 0 0 109 109 0 0 111 112 0 0 0 0 108 107 107 108 110 0 113 0 111 111 0 110 111 0 0 117 0 0 0 110 113 0 0 111 110 111 114 0 113 111 117 0 0 0 0 0 0 0 0 0 0 131 129 127 125 0 123 121 119 119 119 0 0 115 112 0 0 109 109 117 0 0 121 120 121 122 0 0 125 127 0 128 128 129 129 130 130 130 130 130 130 131 132 0 132 0 132 0 128 128 0 125 0 122 121 120 119 0 0 116 117 0 119 120 121 0 0 121 121 122 123 0 125 126 128 136 0 0 0 0 0 0 123 0 0 0 0 0 141 0 0 0 134 129 137 0 0 0 0 140 137 137 140 0 0 136 134 135 0 139 0 0 0 0 0 0 0 142 0 144 145 0 0 148 0 144 141 140 139 0 138 137 0 136 136 136 136 0 136 137 137 0 139 0 0 145 145 0 143 
88 89 90 0 0 91 0 0 0 0 0 0 0 0 93 93 93 0 0 94 94 94 94 95 95 95 95 97 0 0 95 94 95 0 0 0 96 96 0 0 0 0 0 0 97 96 96 96 96 97 0 0 98 99 0 99 99 99 99 99 99 0 100 0 101 0 0 0 100 99 0 100 0 0 0 100 101 0 100 0 0 97 98 0 98 0 99 0 98 97 0 99 99 99 99 0 0 0 0 0 99 0 0 0 97 97 96 0 97 97 0 0 96 0 0 95 0 0 95 0 95 0 0 92 91 90 0 0 0 0 87 94 0 0 0 148 0 149 148 0 0 0 92 85 87 0 87 87 87 0 0 0 0 0 88 88 0 90 90 91 92 93 94 94 96 97 0 99 100 0 103 119 0 0 0 0 164 0 0 0 166 0 162 159 156 157 159 166 0 0 0 0 0 0 0 0 0 0 192 188 188 190 0 0 0 0 0 194 194 0 0 0 0 188 184 181 0 175 171 167 164 164 166 172 0 188 0 0 0 201 0 0 0 0 0 0 0 0 0 187 186 0 0 0 184 172 171 180 0 0 0 0 0 181 167 165 0 165 167 0 0 167 164 162 0 161 0 163 165 0 170 171 0 172 0 0 172 171 0 167 0 0 164 0 166 0 171 0 0 0 0 0 181 0 0 179 178 179 0 0 177 176 0 0 0 0 164 159 157 159 163 0 0 0 0 0 0 0 0 0 0 182 181 0 0 177 176 0 0 172 171 0 0 171 0 0 0 174 175 0 176 0 175 175 174 172 0 167 165 166 166 166 0 165 166 165 165 165 166 166 166 170 0 0 0 0 181 181 181 0 183 184 185 0 0 182 0 0 0 0 185 186 191 0 201 0 204 204 203 204 203 202 201 200 0 193 0 189 189 189 189 188 188 0 146 119 0 0 176 174 190 0 0 186 172 0 0 0 0 131 116 0 0 116 119 0 0 0 114 109 0 0 116 0 0 0 0 114 112 0 0 0 106 110 0 111 110 112 0 0 0 110 108 0 107 108 0 112 0 0 110 0 0 110 0 0 0 0 112 110 108 112 0 114 110 110 111 0 0 113 110 117 0 0 0 122 119 118 119 121 125 126 125 124 123 121 120 119 117 116 0 117 0 0 114 112 110 110 110 113 0 0 123 121 121 0 124 125 126 0 128 128 129 129 0 0 0 0 130 130 130 131 0 0 0 132 132 0 129 0 0 0 123 0 121 0 120 0 117 0 0 118 0 0 120 0 0 120 121 0 123 0 125 127 131 0 0 0 0 0 0 127 118 112 123 0 142 0 0 139 0 0 0 0 133 132 0 0 0 0 0 136 138 141 0 0 138 134 134 0 138 139 0 0 142 142 0 0 0 0 143 144 146 148 0 0 145 142 139 0 0 0 0 137 136 0 0 137 137 0 0 138 138 139 141 0 0 0 145 0 
88 0 90 91 0 91 0 92 0 92 91 91 92 93 93 0 0 93 94 0 0 0 0 0 0 0 96 0 0 96 96 0 95 96 96 96 96 97 0 98 98 98 98 0 0 0 96 0 0 98 98 0 99 99 0 0 99 0 0 0 100 100 100 0 0 101 102 0 100 0 0 99 100 100 0 100 101 0 100 0 99 98 98 0 99 99 99 0 98 98 98 99 0 0 0 100 0 0 0 0 99 99 98 97 97 0 97 97 97 97 97 96 0 96 0 95 95 94 95 0 95 0 92 92 91 91 0 89 88 86 86 92 0 0 0 0 0 147 147 0 0 0 92 88 87 0 87 87 0 88 88 88 88 89 88 89 0 90 0 0 92 0 0 0 0 96 0 99 0 0 102 117 0 0 0 0 166 0 0 0 170 0 0 161 157 0 158 159 166 176 0 0 0 0 0 0 0 185 183 184 185 187 0 0 0 0 192 191 0 0 0 0 0 0 0 0 177 173 170 167 166 167 169 174 0 0 0 0 0 0 0 0 203 202 201 0 0 0 189 186 188 0 0 0 181 171 173 184 0 0 0 0 0 177 167 167 167 167 0 0 0 0 167 165 164 163 163 164 0 167 0 170 171 0 0 173 0 0 170 0 166 165 164 0 165 0 0 0 0 0 0 180 0 180 179 0 0 0 0 0 0 175 175 0 0 0 163 158 155 157 0 0 0 0 181 0 0 0 0 183 182 181 0 0 178 177 176 175 175 174 0 0 0 175 0 0 0 0 0 181 181 181 0 0 0 176 0 170 169 0 0 166 0 165 0 163 162 162 163 164 166 169 0 0 0 0 0 181 182 0 0 183 184 0 182 181 181 0 0 0 187 187 192 0 0 0 204 0 205 0 204 204 0 0 0 0 192 192 193 0 0 0 0 0 152 124 0 0 176 174 186 0 0 160 141 135 144 0 142 112 98 102 0 0 116 0 0 0 0 109 112 0 0 111 115 0 0 115 112 112 0 0 107 106 0 0 109 109 0 0 0 111 107 107 107 109 0 0 0 0 110 0 0 111 113 0 0 114 111 109 108 0 0 0 110 110 111 0 0 113 110 0 0 121 119 117 115 112 112 115 118 121 0 0 120 119 0 115 115 114 114 116 0 0 0 111 0 109 110 0 0 125 123 124 124 125 126 0 128 0 0 0 0 129 0 131 0 131 0 0 0 0 0 131 131 0 0 0 127 126 125 124 123 0 121 120 0 0 116 117 0 0 119 0 120 0 120 120 0 0 124 125 127 133 0 0 0 0 0 140 132 123 115 108 112 0 0 0 0 139 0 0 0 0 0 132 134 0 0 0 137 136 0 0 144 0 0 134 132 0 136 138 0 0 141 142 0 143 0 142 142 143 0 0 0 0 0 0 141 0 0 138 0 137 0 136 137 0 138 0 138 0 139 0 140 0 0 145 0 0 
0 0 89 0 0 91 0 91 91 92 92 0 0 0 93 0 93 0 0 0 95 95 94 95 0 96 0 0 0 97 0 96 0 96 95 96 96 0 0 0 98 0 98 0 97 0 95 96 0 98 98 0 99 0 100 0 99 100 0 100 0 0 100 100 100 100 102 102 101 0 0 100 99 100 0 101 0 0 100 0 0 99 98 99 0 100 0 99 0 98 0 99 100 0 99 99 0 100 99 0 100 0 0 0 97 96 97 0 0 0 0 97 0 96 95 95 95 95 0 95 94 94 92 92 92 0 0 89 0 0 86 90 109 0 0 0 147 146 147 0 0 0 93 88 87 87 86 87 0 88 88 0 0 0 0 89 89 90 0 91 0 92 93 95 0 96 97 98 0 101 102 116 0 0 0 165 167 0 173 0 0 0 0 163 159 0 0 157 160 166 172 177 181 182 184 184 181 180 181 181 182 184 0 187 188 189 189 190 0 0 191 0 0 186 183 0 177 174 172 171 0 0 172 177 184 0 0 199 201 202 0 203 201 200 199 0 0 0 187 183 189 0 0 0 175 169 176 0 0 0 0 0 186 172 167 167 0 0 0 0 0 0 0 167 167 166 165 165 165 0 0 0 171 172 172 0 0 0 0 0 167 165 0 164 165 166 0 0 0 177 0 179 0 0 0 0 0 0 0 175 174 174 0 0 171 167 162 157 154 156 162 0 0 0 0 0 182 0 182 181 0 180 179 0 177 0 176 175 0 0 0 0 177 178 0 0 0 0 0 0 0 0 0 0 0 0 0 0 0 0 0 166 165 0 163 0 161 162 0 164 165 167 0 0 0 181 0 182 0 182 182 182 0 0 180 177 178 181 183 186 0 191 195 0 0 0 0 0 0 0 0 0 0 0 0 0 195 195 0 0 0 0 0 0 0 120 0 0 176 174 180 181 166 144 119 103 101 113 118 108 106 105 108 113 115 113 114 0 0 111 108 0 0 110 111 0 0 0 114 112 0 0 0 105 0 0 0 108 0 0 0 111 107 107 107 0 110 0 110 109 109 110 110 0 111 0 115 0 0 0 108 0 0 0 110 110 111 0 0 113 110 0 0 0 117 115 112 110 111 113 116 119 120 0 0 0 116 115 114 113 114 0 0 0 0 109 108 108 113 0 0 126 0 0 127 0 128 0 129 0 0 0 0 130 0 131 0 0 131 130 0 131 0 130 0 131 0 128 125 0 124 123 0 0 120 0 119 0 116 116 118 0 0 0 119 120 0 121 122 123 124 126 131 0 0 0 0 0 0 0 134 121 112 106 107 120 0 0 0 140 0 0 0 0 0 136 130 133 0 135 134 136 0 0 0 0 0 137 132 134 135 136 0 0 141 0 0 0 0 142 141 143 0 148 0 0 0 144 141 0 140 138 138 138 137 136 137 138 0 0 139 139 0 140 141 143 0 0 0 146 
89 89 0 90 91 0 0 91 0 0 92 0 0 0 93 0 93 94 94 94 94 0 0 94 95 95 0 97 0 0 97 97 0 96 96 0 96 97 0 97 98 98 97 0 96 96 95 95 97 97 98 99 0 0 100 100 0 0 100 101 0 0 0 100 0 0 0 0 0 101 0 100 100 0 0 100 0 100 98 99 0 0 99 99 0 100 0 0 98 98 0 99 0 0 100 100 0 100 0 0 0 0 98 98 0 97 97 0 98 0 0 97 97 0 0 95 0 0 96 0 95 0 0 0 0 0 91 0 0 87 86 89 103 0 0 0 146 146 147 0 0 0 93 86 0 0 87 87 0 87 88 0 0 0 89 88 89 0 0 91 92 93 0 0 0 96 97 98 98 100 103 115 0 0 0 165 0 0 0 0 0 0 0 0 160 157 156 157 159 163 167 172 0 177 178 179 0 179 0 0 181 183 0 185 0 186 0 0 188 0 0 188 0 0 182 180 178 176 176 0 0 0 177 180 185 190 196 199 0 0 0 0 202 0 199 0 0 189 184 181 192 0 0 0 167 167 180 0 0 0 0 0 179 167 166 167 0 0 170 0 0 170 170 0 0 0 167 165 0 166 167 0 0 172 0 0 0 0 172 0 167 166 165 165 165 165 167 0 0 174 0 0 0 0 0 0 0 0 173 0 173 174 0 0 0 0 161 156 154 156 0 167 172 0 178 0 181 180 181 180 180 179 178 176 176 176 0 176 0 0 178 0 178 0 181 0 184 0 0 0 0 0 0 0 0 0 0 0 173 0 167 165 0 163 161 160 160 0 0 0 165 167 173 0 181 182 0 183 0 182 182 182 0 0 178 175 176 179 183 0 0 193 0 0 0 0 0 207 208 0 208 208 0 0 0 201 198 197 0 198 0 197 195 0 0 118 145 0 0 175 0 167 160 0 0 115 108 0 0 0 0 0 123 118 116 111 109 113 115 0 106 107 0 0 109 110 0 0 0 113 113 0 0 107 105 0 109 107 108 0 0 0 108 107 107 108 109 0 110 109 108 0 0 0 110 0 0 0 0 109 108 0 0 113 110 109 112 0 0 112 109 0 0 0 116 0 113 111 111 113 0 0 0 118 117 0 116 0 113 113 0 0 115 113 109 108 108 109 116 0 0 128 0 0 129 0 130 0 0 132 0 131 130 130 0 131 131 131 0 131 0 131 130 130 0 130 0 126 125 124 123 0 122 121 0 0 118 117 117 0 118 0 119 120 120 121 0 0 122 0 125 128 0 0 0 138 142 0 0 0 0 126 113 106 105 111 0 0 141 141 0 0 152 0 0 138 129 129 0 0 133 136 0 0 0 0 0 0 135 133 134 135 0 0 0 141 142 0 142 0 141 0 0 147 0 0 0 145 142 141 140 0 139 0 0 0 0 138 0 0 139 139 140 140 141 143 0 0 146 146 
88 89 0 0 91 0 91 91 92 92 92 0 92 92 93 93 0 0 0 94 0 0 94 94 0 95 0 96 0 97 97 0 97 0 97 97 97 96 0 98 0 98 98 0 97 0 95 0 97 0 0 0 99 0 99 0 0 0 0 101 0 100 100 100 101 0 0 102 102 101 0 0 100 100 0 0 100 0 99 99 0 0 99 99 99 99 99 98 98 0 0 99 99 0 0 0 100 100 101 0 0 99 98 0 0 98 0 0 97 97 97 0 0 97 0 0 96 0 0 96 0 0 0 93 0 92 91 90 0 87 86 87 99 0 0 0 146 146 148 0 0 0 93 85 86 0 87 0 87 87 88 0 88 88 89 0 0 89 0 91 92 0 94 95 0 96 97 0 99 100 103 115 0 0 0 166 0 173 0 0 0 172 0 0 160 156 154 154 0 0 0 0 0 174 0 0 0 178 179 180 181 0 0 0 0 183 183 184 184 0 185 185 0 183 181 180 179 0 0 0 178 178 179 181 0 192 0 0 0 0 0 0 203 0 199 0 0 185 182 181 195 0 0 187 164 169 185 0 0 0 0 0 172 163 163 0 0 0 167 169 0 170 0 0 0 0 0 165 165 166 0 170 0 172 172 172 0 0 0 0 0 0 0 165 165 165 165 166 0 170 0 0 174 0 0 172 171 0 171 0 0 0 0 0 0 165 0 156 154 157 161 165 170 174 177 0 0 0 0 0 180 179 0 176 175 175 0 176 177 0 178 0 0 0 182 0 185 0 0 0 0 0 0 0 0 0 0 0 0 170 166 164 0 0 160 159 0 0 0 165 165 167 172 0 0 0 184 184 183 183 182 0 181 178 177 175 177 0 0 0 191 194 0 0 0 205 0 0 0 0 210 210 0 0 0 0 199 0 0 199 0 0 0 0 0 120 145 0 0 176 0 166 151 148 0 0 0 0 0 0 0 0 0 0 0 0 0 0 113 0 0 102 106 0 0 109 110 113 0 0 111 0 0 0 106 0 0 107 106 110 0 0 0 106 106 107 110 111 110 109 109 110 110 109 107 0 0 0 111 108 110 0 0 112 108 109 113 0 0 110 111 0 0 0 116 0 0 112 112 114 0 0 118 117 0 116 0 0 113 113 0 0 0 0 108 108 107 109 0 0 0 0 0 130 130 0 0 0 0 0 0 131 129 130 0 0 130 131 131 131 0 0 130 0 0 0 127 125 0 0 122 122 0 120 0 118 116 117 0 0 118 0 0 0 121 0 122 122 122 123 125 133 0 0 136 130 131 139 0 0 0 0 121 112 107 108 123 0 140 142 0 0 153 0 0 0 130 125 128 130 131 137 0 0 0 0 0 0 137 134 133 134 136 0 140 141 141 142 0 140 140 0 145 147 0 0 0 0 143 0 0 0 139 139 0 0 138 138 0 139 139 0 0 0 0 143 0 0 0 146 
0 0 90 90 91 91 91 0 0 0 93 93 0 93 93 0 94 94 0 0 0 95 0 94 94 94 94 94 95 95 0 0 97 97 0 0 97 0 0 98 0 98 0 0 97 96 95 0 0 0 98 0 98 0 0 99 99 0 100 0 0 99 99 100 101 102 0 0 0 101 100 0 0 0 0 0 100 0 99 0 0 0 99 98 98 0 98 0 0 0 0 98 98 0 100 100 100 0 0 100 0 99 98 0 0 98 0 97 97 97 97 97 97 96 96 0 96 0 96 0 0 94 93 93 0 92 91 90 89 0 0 86 96 0 0 0 147 0 148 0 0 117 94 87 0 0 86 0 87 0 88 0 0 89 0 89 88 89 0 90 0 0 0 0 0 96 0 98 99 100 102 115 0 0 0 166 0 0 0 0 0 172 0 164 0 155 151 150 153 0 161 165 0 171 0 174 176 0 179 0 0 182 0 0 181 181 181 181 181 182 181 183 183 182 181 0 180 0 0 179 0 178 0 183 0 0 0 0 0 0 0 0 0 0 0 0 188 184 181 180 199 0 0 180 163 173 0 0 0 0 0 181 165 160 161 164 166 166 167 167 0 169 170 0 171 0 0 166 165 167 0 170 171 0 172 172 0 172 0 170 0 167 166 165 0 165 165 165 165 166 167 0 170 170 0 169 167 169 170 171 0 0 0 170 167 0 160 156 155 157 161 166 0 174 178 0 181 181 181 182 0 0 177 175 174 175 175 0 0 177 178 0 0 181 183 0 0 0 0 188 0 188 0 0 0 0 182 0 0 170 166 164 0 160 159 158 162 0 0 0 166 167 170 0 0 0 0 0 0 0 0 0 0 178 177 175 178 182 0 188 191 194 0 200 0 0 206 207 209 0 0 0 0 0 0 0 199 199 0 0 199 0 0 0 0 121 141 0 181 185 0 171 152 145 141 141 143 0 0 0 0 0 0 0 0 0 0 0 113 107 109 103 100 0 0 0 108 110 0 0 110 111 111 0 109 107 0 109 106 107 110 0 0 106 106 108 0 0 115 114 112 112 112 110 108 0 113 0 0 107 111 0 0 111 109 107 113 0 0 109 110 0 0 116 115 0 0 112 111 114 0 0 117 116 0 115 0 113 111 113 0 0 0 110 108 0 108 112 0 0 0 129 0 0 0 0 0 0 132 0 0 130 0 130 0 130 0 0 131 0 0 130 129 129 0 0 125 123 122 122 0 121 120 119 0 117 0 117 117 118 118 119 120 0 122 122 122 0 123 124 127 0 0 0 130 126 126 132 0 0 0 0 0 0 119 113 121 0 138 144 0 0 0 0 0 0 131 125 126 128 0 0 0 0 144 0 0 0 140 136 134 133 135 0 139 0 0 0 0 140 140 142 144 0 0 149 0 0 144 142 141 140 0 139 139 138 138 138 139 0 140 0 140 140 0 142 144 145 146 146 
88 0 90 0 91 91 91 92 0 0 0 93 0 93 0 94 94 94 94 94 0 95 0 95 95 95 95 0 0 0 0 0 97 0 0 0 0 98 98 98 98 97 98 0 98 97 0 97 97 97 98 0 98 97 0 98 98 99 98 0 100 100 100 100 101 101 102 102 0 101 0 0 101 101 101 101 100 99 98 99 99 99 0 98 97 98 0 99 97 97 98 98 97 0 0 100 0 0 100 99 99 98 98 99 99 98 97 0 0 0 97 97 0 0 0 0 0 96 96 0 96 95 94 93 93 0 0 0 89 88 87 86 92 113 0 0 0 0 0 0 0 116 93 86 86 86 0 0 87 87 0 88 89 0 0 89 89 89 89 0 91 92 0 94 95 96 0 0 0 99 101 116 0 0 0 167 0 173 0 175 0 0 0 163 159 154 150 147 149 154 159 163 166 167 171 173 175 0 179 0 180 181 181 181 0 179 179 180 0 181 181 182 0 0 181 0 0 0 0 179 178 179 181 185 0 0 0 0 201 0 0 0 0 200 0 190 184 181 180 181 0 0 0 174 166 181 0 0 0 0 0 173 160 158 161 0 0 0 166 166 167 0 169 0 171 0 0 167 166 0 0 171 171 172 172 0 172 172 0 170 169 167 167 167 0 166 165 0 165 0 166 166 167 167 167 166 167 169 170 171 172 172 171 0 166 0 159 155 155 157 0 167 0 176 0 0 183 0 184 0 0 0 178 0 175 175 175 175 176 176 178 0 181 182 0 0 186 186 0 188 188 0 186 185 184 183 181 0 0 0 165 0 0 160 159 160 162 0 167 0 0 170 172 175 0 0 0 0 0 0 0 181 180 0 177 177 0 0 0 188 191 0 197 199 201 0 0 0 209 0 0 0 0 207 204 201 199 199 199 0 199 0 198 0 0 123 132 0 182 0 0 172 153 143 139 139 140 0 0 154 0 0 0 0 0 123 115 0 0 118 114 109 100 103 108 109 108 108 110 0 0 108 0 0 0 106 0 0 0 108 110 0 0 106 106 109 0 0 0 0 0 0 0 0 113 113 112 112 110 107 112 0 0 112 0 108 113 0 0 109 110 0 117 115 114 0 0 110 110 115 0 0 0 116 114 114 113 111 111 113 0 0 112 108 108 107 109 0 0 0 0 127 0 0 0 0 0 0 130 0 0 128 129 0 0 0 0 131 0 0 129 129 0 128 0 125 0 122 121 120 0 0 0 0 117 116 116 0 0 119 0 120 0 0 0 0 0 0 124 124 130 0 0 136 126 124 126 132 0 0 0 0 0 0 0 0 138 0 144 0 0 0 0 150 0 0 133 125 124 127 130 134 0 142 0 0 0 0 0 0 136 133 134 0 139 140 141 141 0 140 141 0 144 0 0 0 0 0 0 143 141 140 139 139 0 0 0 139 0 140 0 0 0 141 0 0 0 145 0 0 
89 0 0 0 91 0 0 91 0 0 0 0 93 93 0 94 94 94 0 94 0 0 96 0 0 0 96 0 97 97 97 0 0 97 96 96 97 0 98 98 0 98 98 0 0 97 97 0 0 0 98 0 0 0 98 97 98 0 0 0 101 0 0 0 0 102 0 0 101 101 101 101 101 101 0 101 0 0 0 100 0 99 98 98 98 99 0 0 99 0 0 0 98 98 99 99 0 101 0 0 99 0 99 0 99 0 0 98 0 0 97 96 0 97 0 96 96 96 0 0 0 0 94 0 0 93 92 91 0 0 0 89 92 110 0 0 0 0 0 0 0 115 94 86 86 86 0 87 87 0 87 88 0 0 0 89 0 0 89 89 90 0 93 94 0 95 97 0 0 0 102 117 0 0 0 0 171 0 0 0 0 0 0 163 0 154 150 147 148 152 0 162 165 0 0 173 0 0 179 0 180 0 0 180 0 179 179 180 0 180 181 182 0 182 181 180 0 181 0 179 177 179 181 0 190 194 0 199 199 201 201 201 0 0 195 0 183 180 179 183 0 0 0 171 172 0 0 0 0 0 185 165 157 158 160 0 0 165 0 166 166 0 169 170 0 171 0 167 167 0 0 0 0 0 0 172 172 172 0 0 0 0 0 0 167 166 0 166 0 165 0 166 166 0 0 166 0 0 170 171 0 0 171 0 166 0 159 155 154 156 162 0 0 0 0 0 0 0 0 0 0 181 0 0 0 0 175 175 0 176 178 0 181 182 0 0 0 187 0 188 0 187 0 184 183 181 0 178 175 0 165 163 161 159 158 160 0 0 0 169 0 171 0 0 0 0 0 0 185 181 181 0 180 179 179 0 0 0 0 188 190 0 0 0 200 0 0 208 209 0 209 0 0 0 204 201 199 0 198 0 199 0 198 0 0 125 123 0 183 0 0 172 154 144 140 137 140 0 150 152 155 0 0 142 0 125 120 0 0 0 0 0 0 0 0 0 109 0 0 108 0 106 0 109 0 105 106 0 0 0 0 111 0 106 106 107 0 119 0 0 0 0 0 0 0 0 112 0 0 110 0 0 0 112 110 108 0 0 114 108 110 0 0 115 113 0 111 109 110 115 0 0 117 116 0 0 0 111 111 113 0 114 111 108 0 107 109 0 0 123 123 124 125 125 124 125 126 128 129 129 127 128 128 0 130 130 0 0 130 129 127 0 0 127 124 123 122 120 120 0 120 119 119 117 0 116 117 0 0 0 120 121 0 0 122 123 123 0 124 125 133 0 0 131 124 122 125 0 0 147 149 149 0 0 0 0 0 0 0 0 0 0 151 0 0 0 0 127 123 125 128 133 137 141 0 0 144 143 0 0 0 135 134 0 0 0 140 0 0 140 141 0 142 145 147 0 0 0 0 0 141 0 0 139 0 140 0 0 139 140 0 141 141 0 142 143 144 145 146 0 
